/* XPM */
static char *Free_Converter_com_quit_2_63324335[] = {
/* columns rows colors chars-per-pixel */
"1000 60 149 2 ",
"   c #F20FF7",
".  c #F20EF8",
"X  c #ED15F7",
"o  c #E61EF7",
"O  c #E919F7",
"+  c #ED14F8",
"@  c #E61DF8",
"#  c #E919F8",
"$  c #F011F7",
"%  c #F011F8",
"&  c #DE26F7",
"*  c #D72FF7",
"=  c #DA2BF7",
"-  c #DE26F8",
";  c #D72FF8",
":  c #DA2BF8",
">  c #CD3CF7",
",  c #CD3CF8",
"<  c #D334F7",
"1  c #D038F7",
"2  c #D433F8",
"3  c #D830F8",
"4  c #D038F8",
"5  c #E222F7",
"6  c #E222F8",
"7  c #BE4EF7",
"8  c #BE4DF8",
"9  c #AF5FF7",
"0  c #AF5FF8",
"q  c #B756F7",
"w  c #BA53F7",
"e  c #B35BF7",
"r  c #B756F8",
"t  c #BA52F8",
"y  c #B35BF8",
"u  c #9D75F7",
"i  c #967EF7",
"p  c #997AF7",
"a  c #9E75F8",
"s  c #967EF8",
"d  c #9A7AF8",
"f  c #AC64F7",
"g  c #A56CF7",
"h  c #A868F7",
"j  c #AC63F8",
"k  c #A56CF8",
"l  c #A868F8",
"z  c #B060F7",
"x  c #B060F8",
"c  c #A171F7",
"v  c #A171F8",
"b  c #AC7AF8",
"n  c #C545F7",
"m  c #C941F7",
"M  c #C14AF7",
"N  c #C545F8",
"B  c #C941F8",
"V  c #C14AF8",
"C  c #7D9CF7",
"Z  c #6EAEF7",
"A  c #76A5F7",
"S  c #79A1F7",
"D  c #72AAF7",
"F  c #67B7F6",
"G  c #6BB3F7",
"H  c #64BCF7",
"J  c #68B8F6",
"K  c #3FE7F6",
"L  c #3CECF6",
"P  c #35F4F6",
"I  c #38F0F6",
"U  c #5DC4F6",
"Y  c #55CDF6",
"T  c #59C9F6",
"R  c #4ED6F6",
"E  c #47DEF6",
"W  c #4ADBF6",
"Q  c #51D2F6",
"!  c #60C0F6",
"~  c #43E3F6",
"^  c #40E8F6",
"/  c #8F87F7",
"(  c #878FF6",
")  c #8B8CF7",
"_  c #9383F7",
"`  c #9580F8",
"'  c #9C8CF8",
"]  c #8494F7",
"[  c #8890F7",
"{  c #8099F7",
"}  c #9990F7",
"|  c #9199F7",
" . c #9693F8",
".. c #9891F8",
"X. c #9199F8",
"o. c #9F9DF8",
"O. c #A284F8",
"+. c #AC8DF8",
"@. c #B385F8",
"#. c #A991F8",
"$. c #A19BF8",
"%. c #AF9BF9",
"&. c #B496F9",
"*. c #B990F9",
"=. c #B299F9",
"-. c #BF9BF9",
";. c #A7A5F9",
":. c #A9A3F9",
">. c #A3AAF9",
",. c #B9A2F9",
"<. c #B1ACF9",
"1. c #BFAEFA",
"2. c #ACB3F9",
"3. c #B7B7FA",
"4. c #B9B4FA",
"5. c #B5B9FA",
"6. c #C09BFA",
"7. c #C6A7FA",
"8. c #C1ABFA",
"9. c #CCAFFB",
"0. c #C6B6FA",
"q. c #CBB1FB",
"w. c #C5B8FA",
"e. c #CDBEFB",
"r. c #D2BAFB",
"t. c #BDC2FA",
"y. c #C7C6FB",
"u. c #CAC3FB",
"i. c #C5C9FB",
"p. c #CFCDFB",
"a. c #D4C7FB",
"s. c #D8C3FB",
"d. c #D2CAFB",
"f. c #DDCEFC",
"g. c #CDD0FB",
"h. c #D5D5FC",
"j. c #DAD0FC",
"k. c #DDDCFC",
"l. c #E3D6FC",
"z. c #E0D9FC",
"x. c #E9DEFD",
"c. c #E6E2FD",
"v. c #EFE7FD",
"b. c #ECEAFD",
"n. c #F4EFFE",
"m. c #F3F1FE",
"M. c #FAF7FE",
"N. c #FFFFFF",
"B. c None",
/* pixels */
"B.B.B.B.B.B.B.B.B.B.B.B.B.B.B.B.B.B.B.B.B.B.B.B.B.B.B.B.B.B.B.B.B.B.B.B.B.B.B.B.B.B.B.B.B.B.B.B.B.B.B.B.B.B.B.B.B.B.B.B.B.B.B.B.B.B.B.B.B.B.B.B.B.B.B.B.B.B.B.B.B.B.B.B.B.B.B.B.B.B.B.B.B.B.B.B.B.B.B.B.B.B.B.B.B.B.B.B.B.B.B.B.B.B.B.B.B.B.B.B.B.B.B.B.B.B.B.B.B.B.B.B.B.B.B.B.B.B.B.B.B.B.B.B.B.B.B.B.B.B.B.B.B.B.B.B.B.B.B.B.B.B.B.B.B.B.B.B.B.B.B.B.B.B.B.B.B.B.B.B.B.B.B.B.B.B.B.B.B.B.B.B.B.B.B.B.B.B.B.B.B.B.B.B.B.B.B.B.B.B.B.B.B.B.B.B.B.B.B.B.B.B.B.B.B.B.B.B.B.B.B.B.B.B.B.B.B.B.B.B.B.B.B.B.B.B.B.B.B.B.B.B.B.B.B.B.B.B.B.B.B.B.B.B.B.B.B.B.B.B.B.B.B.B.B.B.B.B.B.B.B.B.B.B.B.B.B.B.B.B.B.B.B.B.B.B.B.B.B.B.B.B.B.B.B.B.B.B.B.B.B.B.B.B.B.B.B.B.B.B.B.B.B.B.B.B.B.B.B.B.B.B.B.B.B.B.B.B.B.B.B.B.B.B.B.B.B.B.B.B.B.B.B.B.B.B.B.B.B.B.B.B.B.B.B.B.B.B.B.B.B.B.B.B.B.B.B.B.B.B.B.B.B.B.B.B.B.B.B.B.B.B.B.B.B.B.B.B.B.B.B.B.B.B.B.B.B.B.B.B.B.B.B.B.B.B.B.B.B.B.B.B.B.B.B.B.B.B.B.B.B.B.B.B.B.B.B.B.B.B.B.B.B.B.B.B.B.B.B.B.B.B.B.B.B.B.B.B.B.B.B.B.B.B.B.B.B.B.B.B.B.B.B.B.B.B.B.B.B.B.B.B.B.B.B.B.B.B.B.B.B.B.B.B.B.B.B.B.B.B.B.B.B.B.B.B.B.B.B.B.B.B.B.B.B.B.B.B.B.B.B.B.B.B.B.B.B.B.B.B.B.B.B.B.B.B.B.B.B.B.B.B.B.B.B.B.B.B.B.B.B.B.B.B.B.B.B.B.B.B.B.B.B.B.B.B.B.B.B.B.B.B.B.B.B.B.B.B.B.B.B.B.B.B.B.B.B.B.B.B.B.B.B.B.B.B.B.B.B.B.B.B.B.B.B.B.B.B.B.B.B.B.B.B.B.B.B.B.B.B.B.B.B.B.B.B.B.B.B.B.B.B.B.B.B.B.B.B.B.B.B.B.B.B.B.B.B.B.B.B.B.B.B.B.B.B.B.B.B.B.B.B.B.B.B.B.B.B.B.B.B.B.B.B.B.B.B.B.B.B.B.B.B.B.B.B.B.B.B.B.B.B.B.B.B.B.B.B.B.B.B.B.B.B.B.B.B.B.B.B.B.B.B.B.B.B.B.B.B.B.B.B.B.B.B.B.B.B.B.B.B.B.B.B.B.B.B.B.B.B.B.B.B.B.B.B.B.B.B.B.B.B.B.B.B.B.B.B.B.B.B.B.B.B.B.B.B.B.B.B.B.B.B.B.B.B.B.B.B.B.B.B.B.B.B.B.B.B.B.B.B.B.B.B.B.B.B.B.B.B.B.B.B.B.B.B.B.B.B.B.B.B.B.B.B.B.B.B.B.B.B.B.B.B.B.B.B.B.B.B.B.B.B.B.B.B.B.B.B.B.B.B.B.B.B.B.B.B.B.B.B.B.B.B.B.B.B.B.B.B.B.B.B.B.B.B.B.B.B.B.B.B.B.B.B.B.B.B.B.B.B.B.B.B.B.B.B.B.B.B.B.B.B.B.B.B.B.B.B.B.B.B.B.B.B.B.B.B.B.B.B.B.B.B.B.B.B.B.B.B.B.B.B.B.B.B.B.B.B.B.B.B.B.B.B.B.B.B.B.B.B.B.B.B.B.B.B.B.B.B.B.B.B.B.B.B.B.B.B.B.B.B.B.B.B.B.B.B.B.B.B.B.B.B.B.B.B.B.B.B.B.B.B.B.B.B.B.B.B.B.B.B.B.B.B.B.B.B.B.B.",
"B.B.B.B.B.B.B.B.B.B.B.B.B.B.B.B.B.B.B.B.B.B.B.B.B.B.B.B.B.B.B.B.B.B.B.B.B.B.B.B.B.B.B.B.B.B.B.B.B.B.B.B.B.B.B.B.B.B.B.B.B.B.B.B.B.B.B.B.B.B.B.B.B.B.B.B.B.B.B.B.B.B.B.B.B.B.B.B.B.B.B.B.B.B.B.B.B.B.B.B.B.B.B.B.B.B.B.B.B.B.B.B.B.B.B.B.B.B.B.B.B.B.B.B.B.B.B.B.B.B.B.B.B.B.B.B.B.B.B.B.B.B.B.B.B.B.B.B.B.B.B.B.B.B.B.B.B.B.B.B.B.B.B.B.B.B.B.B.B.B.B.B.B.B.B.B.B.B.B.B.B.B.B.B.B.B.B.B.B.B.B.B.B.B.B.B.B.B.B.B.B.B.B.B.B.B.B.B.B.B.B.B.B.B.B.B.B.B.B.B.B.B.B.B.B.B.B.B.B.B.B.B.B.B.B.B.B.B.B.B.B.B.B.B.B.B.B.B.B.B.B.B.B.B.B.B.B.B.B.B.B.B.B.B.B.B.B.B.B.B.B.B.B.B.B.B.B.B.B.B.B.B.B.B.B.B.B.B.B.B.B.B.B.B.B.B.B.B.B.B.B.B.B.B.B.B.B.B.B.B.B.B.B.B.B.B.B.B.B.B.B.B.B.B.B.B.B.B.B.B.B.B.B.B.B.B.B.B.B.B.B.B.B.B.B.B.B.B.B.B.B.B.B.B.B.B.B.B.B.B.B.B.B.B.B.B.B.B.B.B.B.B.B.B.B.B.B.B.B.B.B.B.B.B.B.B.B.B.B.B.B.B.B.B.B.B.B.B.B.B.B.B.B.B.B.B.B.B.B.B.B.B.B.B.B.B.B.B.B.B.B.B.B.B.B.B.B.B.B.B.B.B.B.B.B.B.B.B.B.B.B.B.B.B.B.B.B.B.B.B.B.B.B.B.B.B.B.B.B.B.B.B.B.B.B.B.B.B.B.B.B.B.B.B.B.B.B.B.B.B.B.B.B.B.B.B.B.B.B.B.B.B.B.B.B.B.B.B.B.B.B.B.B.B.B.B.B.B.B.B.B.B.B.B.B.B.B.B.B.B.B.B.B.B.B.B.B.B.B.B.B.B.B.B.B.B.B.B.B.B.B.B.B.B.B.B.B.B.B.B.B.B.B.B.B.B.B.B.B.B.B.B.B.B.B.B.B.B.B.B.B.B.B.B.B.B.B.B.B.B.B.B.B.B.B.B.B.B.B.B.B.B.B.B.B.B.B.B.B.B.B.B.B.B.B.B.B.B.B.B.B.B.B.B.B.B.B.B.B.B.B.B.B.B.B.B.B.B.B.B.B.B.B.B.B.B.B.B.B.B.B.B.B.B.B.B.B.B.B.B.B.B.B.B.B.B.B.B.B.B.B.B.B.B.B.B.B.B.B.B.B.B.B.B.B.B.B.B.B.B.B.B.B.B.B.B.B.B.B.B.B.B.B.B.B.B.B.B.B.B.B.B.B.B.B.B.B.B.B.B.B.B.B.B.B.B.B.B.B.B.B.B.B.B.B.B.B.B.B.B.B.B.B.B.B.B.B.B.B.B.B.B.B.B.B.B.B.B.B.B.B.B.B.B.B.B.B.B.B.B.B.B.B.B.B.B.B.B.B.B.B.B.B.B.B.B.B.B.B.B.B.B.B.B.B.B.B.B.B.B.B.B.B.B.B.B.B.B.B.B.B.B.B.B.B.B.B.B.B.B.B.B.B.B.B.B.B.B.B.B.B.B.B.B.B.B.B.B.B.B.B.B.B.B.B.B.B.B.B.B.B.B.B.B.B.B.B.B.B.B.B.B.B.B.B.B.B.B.B.B.B.B.B.B.B.B.B.B.B.B.B.B.B.B.B.B.B.B.B.B.B.B.B.B.B.B.B.B.B.B.B.B.B.B.B.B.B.B.B.B.B.B.B.B.B.B.B.B.B.B.B.B.B.B.B.B.B.B.B.B.B.B.B.B.B.B.B.B.B.B.B.B.B.B.B.B.B.B.B.B.B.B.B.B.B.B.B.B.B.B.B.B.B.B.B.B.B.B.B.B.B.B.B.B.B.B.B.B.B.B.B.B.B.B.B.B.B.B.B.B.B.B.B.B.B.B.B.B.B.B.B.B.B.B.B.B.B.B.B.B.",
"B.B.B.B.B.B.B.B.B.B.B.B.B.B.B.B.B.B.B.B.B.B.B.B.B.B.B.B.B.B.B.B.B.B.B.B.B.B.B.B.B.B.B.B.B.B.B.B.B.B.B.B.B.B.B.B.B.B.B.B.B.B.B.B.B.B.B.B.B.B.B.B.B.B.B.B.B.B.B.B.B.B.B.B.B.B.B.B.B.B.B.B.B.B.B.B.B.B.B.B.B.B.B.B.B.B.B.B.B.B.B.B.B.B.B.B.B.B.B.B.B.B.B.B.B.B.B.B.B.B.B.B.B.B.B.B.B.B.B.B.B.B.B.B.B.B.B.B.B.B.B.B.B.B.B.B.B.B.B.B.B.B.B.B.B.B.B.B.B.B.B.B.B.B.B.B.B.B.B.B.B.B.B.B.B.B.B.B.B.B.B.B.B.B.B.B.B.B.B.B.B.B.B.B.B.B.B.B.B.B.B.B.B.B.B.B.B.B.B.B.B.B.B.B.B.B.B.B.B.B.B.B.B.B.B.B.B.B.B.B.B.B.B.B.B.B.B.B.B.B.B.B.B.B.B.B.B.B.B.B.B.B.B.B.B.B.B.B.B.B.B.B.B.B.B.B.B.B.B.B.B.B.B.B.B.B.B.B.B.B.B.B.B.B.B.B.B.B.B.B.B.B.B.B.B.B.B.B.B.B.B.B.B.B.B.B.B.B.B.B.B.B.B.B.B.B.B.B.B.B.B.B.B.B.B.B.B.B.B.B.B.B.B.B.B.B.B.B.B.B.B.B.B.B.B.B.B.B.B.B.B.B.B.B.B.B.B.B.B.B.B.B.B.B.B.B.B.B.B.B.B.B.B.B.B.B.B.B.B.B.B.B.B.B.B.B.B.B.B.B.B.B.B.B.B.B.B.B.B.B.B.B.B.B.B.B.B.B.B.B.B.B.B.B.B.B.B.B.B.B.B.B.B.B.B.B.B.B.B.B.B.B.B.B.B.B.B.B.B.B.B.B.B.B.B.B.B.B.B.B.B.B.B.B.B.B.B.B.B.B.B.B.B.B.B.B.B.B.B.B.B.B.B.B.B.B.B.B.B.B.B.B.B.B.B.B.B.B.B.B.B.B.B.B.B.B.B.B.B.B.B.B.B.B.B.B.B.B.B.B.B.B.B.B.B.B.B.B.B.B.B.B.B.B.B.B.B.B.B.B.B.B.B.B.B.B.B.B.B.B.B.B.B.B.B.B.B.B.B.B.B.B.B.B.B.B.B.B.B.B.B.B.B.B.B.B.B.B.B.B.B.B.B.B.B.B.B.B.B.B.B.B.B.B.B.B.B.B.B.B.B.B.B.B.B.B.B.B.B.B.B.B.B.B.B.B.B.B.B.B.B.B.B.B.B.B.B.B.B.B.B.B.B.B.B.B.B.B.B.B.B.B.B.B.B.B.B.B.B.B.B.B.B.B.B.B.B.B.B.B.B.B.B.B.B.B.B.B.B.B.B.B.B.B.B.B.B.B.B.B.B.B.B.B.B.B.B.B.B.B.B.B.B.B.B.B.B.B.B.B.B.B.B.B.B.B.B.B.B.B.B.B.B.B.B.B.B.B.B.B.B.B.B.B.B.B.B.B.B.B.B.B.B.B.B.B.B.B.B.B.B.B.B.B.B.B.B.B.B.B.B.B.B.B.B.B.B.B.B.B.B.B.B.B.B.B.B.B.B.B.B.B.B.B.B.B.B.B.B.B.B.B.B.B.B.B.B.B.B.B.B.B.B.B.B.B.B.B.B.B.B.B.B.B.B.B.B.B.B.B.B.B.B.B.B.B.B.B.B.B.B.B.B.B.B.B.B.B.B.B.B.B.B.B.B.B.B.B.B.B.B.B.B.B.B.B.B.B.B.B.B.B.B.B.B.B.B.B.B.B.B.B.B.B.B.B.B.B.B.B.B.B.B.B.B.B.B.B.B.B.B.B.B.B.B.B.B.B.B.B.B.B.B.B.B.B.B.B.B.B.B.B.B.B.B.B.B.B.B.B.B.B.B.B.B.B.B.B.B.B.B.B.B.B.B.B.B.B.B.B.B.B.B.B.B.B.B.B.B.B.B.B.B.B.B.B.B.B.B.B.B.B.B.B.B.B.B.B.B.B.B.B.B.B.B.B.B.B.B.B.B.B.B.B.B.B.B.B.B.B.B.B.B.B.B.B.B.B.B.B.B.B.B.B.B.B.B.B.B.B.",
"B.B.B.B.B.B.B.B.B.B.B.B.B.B.B.B.B.B.B.B.B.B.B.B.B.B.B.B.B.B.B.B.B.B.B.B.B.B.B.B.B.B.B.B.B.B.B.B.B.B.B.B.B.B.B.B.B.B.B.B.B.B.B.B.B.B.B.B.B.B.B.B.B.B.B.B.B.B.B.B.B.B.B.B.B.B.B.B.B.B.B.B.B.B.B.B.B.B.B.B.B.B.B.B.B.B.B.B.B.B.B.B.B.B.B.B.B.B.B.B.B.B.B.B.B.B.B.B.B.B.B.B.B.B.B.B.B.B.B.B.B.B.B.B.B.B.B.B.B.B.B.B.B.B.B.B.B.B.B.B.B.B.B.B.B.B.B.B.B.B.B.B.B.B.B.B.B.B.B.B.B.B.B.B.B.B.B.B.B.B.B.B.B.B.B.B.B.B.B.B.B.B.B.B.B.B.B.B.B.B.B.B.B.B.B.B.B.B.B.B.B.B.B.B.B.B.B.B.B.B.B.B.B.B.B.B.B.B.B.B.B.B.B.B.B.B.B.B.B.B.B.B.B.B.B.B.B.B.B.B.B.B.B.B.B.B.B.B.B.B.B.B.B.B.B.B.B.B.B.B.B.B.B.B.B.B.B.B.B.B.B.B.B.B.B.B.B.B.B.B.B.B.B.B.B.B.B.B.B.B.B.B.B.B.B.B.B.B.B.B.B.B.B.B.B.B.B.B.B.B.B.B.B.B.B.B.B.B.B.B.B.B.B.B.B.B.B.B.B.B.B.B.B.B.B.B.B.B.B.B.B.B.B.B.B.B.B.B.B.B.B.B.B.B.B.B.B.B.B.B.B.B.B.B.B.B.B.B.B.B.B.B.B.B.B.B.B.B.B.B.B.B.B.B.B.B.B.B.B.B.B.B.B.B.B.B.B.B.B.B.B.B.B.B.B.B.B.B.B.B.B.B.B.B.B.B.B.B.B.B.B.B.B.B.B.B.B.B.B.B.B.B.B.B.B.B.B.B.B.B.B.B.B.B.B.B.B.B.B.B.B.B.B.B.B.B.B.B.B.B.B.B.B.B.B.B.B.B.B.B.B.B.B.B.B.B.B.B.B.B.B.B.B.B.B.B.B.B.B.B.B.B.B.B.B.B.B.B.B.B.B.B.B.B.B.B.B.B.B.B.B.B.B.B.B.B.B.B.B.B.B.B.B.B.B.B.B.B.B.B.B.B.B.B.B.B.B.B.B.B.B.B.B.B.B.B.B.B.B.B.B.B.B.B.B.B.B.B.B.B.B.B.B.B.B.B.B.B.B.B.B.B.B.B.B.B.B.B.B.B.B.B.B.B.B.B.B.B.B.B.B.B.B.B.B.B.B.B.B.B.B.B.B.B.B.B.B.B.B.B.B.B.B.B.B.B.B.B.B.B.B.B.B.B.B.B.B.B.B.B.B.B.B.B.B.B.B.B.B.B.B.B.B.B.B.B.B.B.B.B.B.B.B.B.B.B.B.B.B.B.B.B.B.B.B.B.B.B.B.B.B.B.B.B.B.B.B.B.B.B.B.B.B.B.B.B.B.B.B.B.B.B.B.B.B.B.B.B.B.B.B.B.B.B.B.B.B.B.B.B.B.B.B.B.B.B.B.B.B.B.B.B.B.B.B.B.B.B.B.B.B.B.B.B.B.B.B.B.B.B.B.B.B.B.B.B.B.B.B.B.B.B.B.B.B.B.B.B.B.B.B.B.B.B.B.B.B.B.B.B.B.B.B.B.B.B.B.B.B.B.B.B.B.B.B.B.B.B.B.B.B.B.B.B.B.B.B.B.B.B.B.B.B.B.B.B.B.B.B.B.B.B.B.B.B.B.B.B.B.B.B.B.B.B.B.B.B.B.B.B.B.B.B.B.B.B.B.B.B.B.B.B.B.B.B.B.B.B.B.B.B.B.B.B.B.B.B.B.B.B.B.B.B.B.B.B.B.B.B.B.B.B.B.B.B.B.B.B.B.B.B.B.B.B.B.B.B.B.B.B.B.B.B.B.B.B.B.B.B.B.B.B.B.B.B.B.B.B.B.B.B.B.B.B.B.B.B.B.B.B.B.B.B.B.B.B.B.B.B.B.B.B.B.B.B.B.B.B.B.B.B.B.B.B.B.B.B.B.B.B.B.B.B.B.B.B.B.B.B.B.B.B.B.B.B.B.B.B.B.B.B.B.B.B.B.B.B.B.B.B.",
"B.B.B.B.B.B.B.B.B.B.B.B.B.B.B.B.B.B.B.B.B.B.B.B.B.B.B.B.B.B.B.B.B.B.B.B.B.B.B.B.B.B.B.B.B.B.B.B.B.B.B.B.B.B.B.B.B.B.B.B.B.B.B.B.B.B.B.B.B.B.B.B.B.B.B.B.B.B.B.B.B.B.B.B.B.B.B.B.B.B.B.B.B.B.B.B.B.B.B.B.B.B.B.B.B.B.B.B.B.B.B.B.B.B.B.B.B.B.B.B.B.B.B.B.B.B.B.B.B.B.B.B.B.B.B.B.B.B.B.B.B.B.B.B.B.B.B.B.B.B.B.B.B.B.B.B.B.B.B.B.B.B.B.B.B.B.B.B.B.B.B.B.B.B.B.B.B.B.B.B.B.B.B.B.B.B.B.B.B.B.B.B.B.B.B.B.B.B.B.B.B.B.B.B.B.B.B.B.B.B.B.B.B.B.B.B.B.B.B.B.B.B.B.B.B.B.B.B.B.B.B.B.B.B.B.B.B.B.B.B.B.B.B.B.B.B.B.B.B.B.B.B.B.B.B.B.B.B.B.B.B.B.B.B.B.B.B.B.B.B.B.B.B.B.B.B.B.B.B.B.B.B.B.B.B.B.B.B.B.B.B.B.B.B.B.B.B.B.B.B.B.B.B.B.B.B.B.B.B.B.B.B.B.B.B.B.B.B.B.B.B.B.B.B.B.B.B.B.B.B.B.B.B.B.B.B.B.B.B.B.B.B.B.B.B.B.B.B.B.B.B.B.B.B.B.B.B.B.B.B.B.B.B.B.B.B.B.B.B.B.B.B.B.B.B.B.B.B.B.B.B.B.B.B.B.B.B.B.B.B.B.B.B.B.B.B.B.B.B.B.B.B.B.B.B.B.B.B.B.B.B.B.B.B.B.B.B.B.B.B.B.B.B.B.B.B.B.B.B.B.B.B.B.B.B.B.B.B.B.B.B.B.B.B.B.B.N.N.N.N.N.N.N.N.B.B.B.B.B.B.B.B.B.B.B.B.B.B.B.B.B.B.B.B.B.B.B.B.B.B.B.B.B.B.B.B.B.B.B.B.B.B.B.B.B.B.B.B.B.B.B.B.B.B.B.B.B.B.B.B.B.B.B.B.B.B.B.B.B.B.B.B.B.B.B.B.B.B.B.B.B.B.B.B.B.B.B.B.B.B.B.B.B.B.B.B.B.B.B.B.B.B.B.B.B.B.B.B.B.B.B.B.B.B.B.B.B.B.B.B.B.B.B.B.B.B.B.B.B.B.B.B.B.B.B.B.B.B.B.B.B.B.B.B.B.B.B.B.B.B.B.B.B.B.B.B.B.B.B.B.B.B.B.B.B.B.B.B.B.B.B.B.B.B.B.B.B.B.B.B.B.B.B.B.B.B.B.B.B.B.B.B.B.B.B.B.B.B.B.B.B.B.B.B.B.B.B.B.B.B.B.B.B.B.B.B.B.B.B.B.B.B.B.B.B.B.B.B.B.B.B.B.B.B.B.B.B.B.B.B.B.B.B.B.B.B.B.B.B.B.B.B.B.B.B.B.B.B.B.B.B.B.B.B.B.B.B.B.B.B.B.B.B.B.B.B.B.B.B.B.B.B.B.B.B.B.B.B.B.B.B.B.B.B.B.B.B.B.B.B.B.B.B.B.B.B.B.B.B.B.B.B.B.B.B.B.B.B.B.B.B.B.B.B.B.B.B.B.B.B.B.B.B.B.B.B.B.B.B.B.B.B.B.B.B.B.B.B.B.B.B.B.B.B.B.B.B.B.B.B.B.B.B.B.B.B.B.B.B.B.B.B.B.B.B.B.B.B.B.B.B.B.B.B.B.B.B.B.B.B.B.B.B.B.B.B.B.B.B.B.B.B.B.B.B.B.B.B.B.B.B.B.B.B.B.B.B.B.B.B.B.B.B.B.B.B.B.B.B.B.B.B.B.B.B.B.B.B.B.B.B.B.B.B.B.B.B.B.B.B.B.B.B.B.B.B.B.B.B.B.B.B.B.B.B.B.B.B.B.B.B.B.B.B.B.B.B.B.B.B.B.B.B.B.B.B.B.B.B.B.B.B.B.B.B.B.B.B.B.B.B.B.B.B.B.B.B.B.B.B.B.B.B.B.B.B.B.B.B.B.B.B.B.B.B.B.B.B.B.B.B.B.B.B.B.B.B.B.B.B.B.B.B.B.B.B.B.B.B.B.",
"B.B.B.B.B.B.B.B.B.B.B.B.B.B.B.B.B.B.B.B.B.B.B.B.B.B.B.B.B.B.B.B.B.B.B.B.B.B.B.B.B.B.B.B.B.B.B.B.B.B.B.B.B.B.B.B.B.B.B.B.B.B.B.B.B.B.B.B.B.B.B.B.B.B.B.B.B.B.B.B.B.B.B.B.B.B.B.B.B.B.B.B.B.B.B.B.B.B.B.B.B.B.B.B.B.B.B.B.B.B.B.B.B.B.B.B.B.B.B.B.B.B.B.B.B.B.B.B.B.B.B.B.B.B.B.B.B.B.B.B.B.B.B.B.B.B.B.B.B.B.B.B.B.B.B.B.B.B.B.B.B.B.B.B.B.B.B.B.B.B.B.B.B.B.B.B.B.B.B.B.B.B.B.B.B.B.B.B.B.B.B.B.B.B.B.B.B.B.B.B.B.B.B.B.B.B.B.B.B.B.B.B.B.B.B.B.B.B.B.B.B.B.B.B.B.B.B.B.B.B.B.B.B.B.B.B.B.B.B.B.B.B.B.B.B.B.B.B.B.B.B.B.B.B.B.B.B.B.B.B.B.B.B.B.B.B.B.B.B.B.B.B.B.B.B.B.B.B.B.B.B.B.B.B.B.B.B.B.B.B.B.B.B.B.B.B.B.B.B.B.B.B.B.B.B.B.B.B.B.B.B.B.B.B.B.B.B.B.B.B.B.B.B.B.B.B.B.B.B.B.B.B.B.B.B.B.B.B.B.B.B.B.B.B.B.B.B.B.B.B.B.B.B.B.B.B.B.B.B.B.B.B.B.B.B.B.B.B.B.B.B.B.B.B.B.B.B.B.B.B.B.B.B.B.B.B.B.B.B.B.B.B.B.B.B.B.B.B.B.B.B.B.B.B.B.B.B.B.B.B.B.B.B.B.B.B.B.B.B.B.B.B.B.B.B.B.B.B.B.B.B.B.B.B.B.B.B.B.B.B.B.N.N.N.N.N.N.N.N.N.N.N.N.N.N.N.N.N.B.B.B.B.B.B.B.B.B.B.B.B.B.B.B.B.B.B.B.B.B.B.B.B.B.N.N.N.B.B.B.B.B.B.B.B.B.B.B.B.B.B.B.B.B.B.B.B.B.B.B.B.B.B.B.B.B.B.B.B.N.N.N.B.B.B.B.B.B.B.B.B.B.N.N.N.B.B.B.N.N.N.N.N.N.N.N.N.N.N.N.N.N.N.N.N.N.N.N.N.N.N.N.N.N.N.N.N.N.N.N.N.N.N.N.N.N.N.B.B.B.B.B.B.B.B.B.B.B.B.B.B.B.B.B.B.B.B.B.B.B.B.B.B.B.B.B.B.B.B.B.B.B.B.B.B.B.B.B.B.B.B.B.B.B.B.B.B.B.B.B.B.B.B.B.B.B.B.B.B.B.B.B.B.B.B.B.B.B.B.B.B.B.B.B.B.B.B.B.B.B.B.B.B.B.B.B.B.B.B.B.B.B.B.B.B.B.B.B.B.B.B.B.B.B.B.B.B.B.B.B.B.B.B.B.B.B.B.B.B.B.B.B.B.B.B.B.B.B.B.B.B.B.B.B.B.B.B.B.B.B.B.B.B.B.B.B.B.B.B.B.B.B.B.B.B.B.B.B.B.B.B.B.B.B.B.B.B.B.B.B.B.B.B.B.B.B.B.B.B.B.B.B.B.B.B.B.B.B.B.B.B.B.B.B.B.B.B.B.B.B.B.B.B.B.B.B.B.B.B.B.B.B.B.B.B.B.B.B.B.B.B.B.B.B.B.B.B.B.B.B.B.B.B.B.B.B.B.B.B.B.B.B.B.B.B.B.B.B.B.B.B.B.B.B.B.B.B.B.B.B.B.B.B.B.B.B.B.B.B.B.B.B.B.B.B.B.B.B.B.B.B.B.B.B.B.B.B.B.B.B.B.B.B.B.B.B.B.B.B.B.B.B.B.B.B.B.B.B.B.B.B.B.B.B.B.B.B.B.B.B.B.B.B.B.B.B.B.B.B.B.B.B.B.B.B.B.B.B.B.B.B.B.B.B.B.B.B.B.B.B.B.B.B.B.B.B.B.B.B.B.B.B.B.B.B.B.B.B.B.B.B.B.B.B.B.B.B.B.B.B.B.B.B.B.B.B.B.B.B.B.B.B.B.B.B.B.B.B.B.B.B.B.B.B.B.B.B.B.B.B.B.B.B.B.B.B.B.B.B.B.B.",
"B.B.B.B.B.B.B.B.B.B.B.B.B.B.B.B.B.B.B.B.B.B.B.B.B.B.B.B.B.B.B.B.B.B.B.B.B.B.B.B.B.B.B.B.B.B.B.B.B.B.B.B.B.B.B.B.B.B.B.B.B.B.B.B.B.B.B.B.B.B.B.B.B.B.B.B.B.B.B.B.B.B.B.B.B.B.B.B.B.B.B.B.B.B.B.B.B.B.B.B.B.B.B.B.B.B.B.B.B.B.B.B.B.B.B.B.B.B.B.B.B.B.B.B.B.B.B.B.B.B.B.B.B.B.B.B.B.B.B.B.B.B.B.B.B.B.B.B.B.B.B.B.B.B.B.B.B.B.B.B.B.B.B.B.B.B.B.B.B.B.B.B.B.B.B.B.B.B.B.B.B.B.B.B.B.B.B.B.B.B.B.B.B.B.B.B.B.B.B.B.B.B.B.B.B.B.B.B.B.B.B.B.B.B.B.B.B.B.B.B.B.B.B.B.B.B.B.B.B.B.B.B.B.B.B.B.B.B.B.B.B.B.B.B.B.B.B.B.B.B.B.B.B.B.B.B.B.B.B.B.B.B.B.B.B.B.B.B.B.B.B.B.B.B.B.B.B.B.B.B.B.B.B.B.B.B.B.B.B.B.B.B.B.B.B.B.B.B.B.B.B.B.B.B.B.B.B.B.B.B.B.B.B.B.B.B.B.B.B.B.B.B.B.B.B.B.B.B.B.B.B.B.B.B.B.B.B.B.B.B.B.B.B.B.B.B.B.B.B.B.B.B.B.B.B.B.B.B.B.B.B.B.B.B.B.B.B.B.B.B.B.B.B.B.B.B.B.B.B.B.B.B.B.B.B.B.B.B.B.B.B.B.B.B.B.B.B.B.B.B.B.B.B.B.B.B.B.B.B.B.B.B.B.B.B.B.B.B.B.B.B.B.B.B.B.B.B.B.B.B.B.B.B.B.B.B.B.B.B.N.N.N.N.N.N.N.N.N.N.N.N.N.N.N.N.N.N.N.N.N.N.B.B.B.B.B.B.B.B.B.B.B.B.B.B.B.B.B.B.B.B.B.B.N.N.N.B.B.B.B.B.B.B.B.B.B.B.B.B.B.B.B.B.B.B.B.B.B.B.B.B.B.B.B.B.B.B.B.N.N.N.B.B.B.B.B.B.B.B.B.N.N.N.B.B.B.B.N.N.N.N.N.N.N.N.N.N.N.N.N.N.N.N.N.N.N.N.N.N.N.N.N.N.N.N.N.N.N.N.N.N.N.N.N.N.N.B.B.B.B.B.B.B.B.B.B.B.B.B.B.B.B.B.B.B.B.B.B.B.B.B.B.B.B.B.B.B.B.B.B.B.B.B.B.B.B.B.B.B.B.B.B.B.B.B.B.B.B.B.B.B.B.B.B.B.B.B.B.B.B.B.B.B.B.B.B.B.B.B.B.B.B.B.B.B.B.B.B.B.B.B.B.B.B.B.B.B.B.B.B.B.B.B.B.B.B.B.B.B.B.B.B.B.B.B.B.B.B.B.B.B.B.B.B.B.B.B.B.B.B.B.B.B.B.B.B.B.B.B.B.B.B.B.B.B.B.B.B.B.B.B.B.B.B.B.B.B.B.B.B.B.B.B.B.B.B.B.B.B.B.B.B.B.B.B.B.B.B.B.B.B.B.B.B.B.B.B.B.B.B.B.B.B.B.B.B.B.B.B.B.B.B.B.B.B.B.B.B.B.B.B.B.B.B.B.B.B.B.B.B.B.B.B.B.B.B.B.B.B.B.B.B.B.B.B.B.B.B.B.B.B.B.B.B.B.B.B.B.B.B.B.B.B.B.B.B.B.B.B.B.B.B.B.B.B.B.B.B.B.B.B.B.B.B.B.B.B.B.B.B.B.B.B.B.B.B.B.B.B.B.B.B.B.B.B.B.B.B.B.B.B.B.B.B.B.B.B.B.B.B.B.B.B.B.B.B.B.B.B.B.B.B.B.B.B.B.B.B.B.B.B.B.B.B.B.B.B.B.B.B.B.B.B.B.B.B.B.B.B.B.B.B.B.B.B.B.B.B.B.B.B.B.B.B.B.B.B.B.B.B.B.B.B.B.B.B.B.B.B.B.B.B.B.B.B.B.B.B.B.B.B.B.B.B.B.B.B.B.B.B.B.B.B.B.B.B.B.B.B.B.B.B.B.B.B.B.B.B.B.B.B.B.B.B.B.B.B.B.B.B.",
"B.B.B.B.B.B.B.B.B.B.B.B.B.B.B.B.B.B.B.B.B.B.B.B.B.B.B.B.B.B.B.B.B.B.B.B.B.B.B.B.B.B.B.B.B.B.B.B.B.B.B.B.B.B.B.B.B.B.B.B.B.B.B.B.B.B.B.B.B.B.B.B.B.B.B.B.B.B.B.B.B.B.B.B.B.B.B.B.B.B.B.B.B.B.B.B.B.B.B.B.B.B.B.B.B.B.B.B.B.B.B.B.B.B.B.B.B.B.B.B.B.B.B.B.B.B.B.B.B.B.B.B.B.B.B.B.B.B.B.B.B.B.B.B.B.B.B.B.B.B.B.B.B.B.B.B.B.B.B.B.B.B.B.B.B.B.B.B.B.B.B.B.B.B.B.B.B.B.B.B.B.B.B.B.B.B.B.B.B.B.B.B.B.B.B.B.B.B.B.B.B.B.B.B.B.B.B.B.B.B.B.B.B.B.B.B.B.B.B.B.B.B.B.B.B.B.B.B.B.B.B.B.B.B.B.B.B.B.B.B.B.B.B.B.B.B.B.B.B.B.B.B.B.B.B.B.B.B.B.B.B.B.B.B.B.B.B.B.B.B.B.B.B.B.B.B.B.B.B.B.B.B.B.B.B.B.B.B.B.B.B.B.B.B.B.B.B.B.B.B.B.B.B.B.B.B.B.B.B.B.B.B.B.B.B.B.B.B.B.B.B.B.B.B.B.B.B.B.B.B.B.B.B.B.B.B.B.B.B.B.B.B.B.B.B.B.B.B.B.B.B.B.B.B.B.B.B.B.B.B.B.B.B.B.B.B.B.B.B.B.B.B.B.B.B.B.B.B.B.B.B.B.B.B.B.B.B.B.B.B.B.B.B.B.B.B.B.B.B.B.B.B.B.B.B.B.B.B.B.B.B.B.B.B.B.B.B.B.B.B.B.B.B.B.B.B.B.B.B.B.B.B.B.B.B.B.B.N.N.N.N.N.N.N.N.B.B.B.B.B.B.B.B.B.B.N.N.N.N.N.N.N.B.B.B.B.B.B.B.B.B.B.B.B.B.B.B.B.B.B.B.B.N.N.N.N.B.B.B.B.B.B.B.B.B.B.B.B.B.B.B.B.B.B.B.B.B.B.B.B.B.B.B.B.B.B.B.B.N.N.N.B.B.B.B.B.B.B.B.B.N.N.N.B.B.B.B.N.N.N.N.N.N.N.N.N.N.N.N.N.N.N.N.N.N.N.N.N.N.N.N.N.N.N.N.N.N.N.N.N.N.N.N.N.N.N.B.B.B.B.B.B.B.B.B.B.B.B.B.B.B.B.B.B.B.B.B.B.B.B.B.B.B.B.B.B.B.B.B.B.B.B.B.B.B.B.B.B.B.B.B.B.B.B.B.B.B.B.B.B.B.B.B.B.B.B.B.B.B.B.B.B.B.B.B.B.B.B.B.B.B.B.B.B.B.B.B.B.B.B.B.B.B.B.B.B.B.B.B.B.B.B.B.B.B.B.B.B.B.B.B.B.B.B.B.B.B.B.B.B.B.B.B.B.B.B.B.B.B.B.B.B.B.B.B.B.B.B.B.B.B.B.B.B.B.B.B.B.B.B.B.B.B.B.B.B.B.B.B.B.B.B.B.B.B.B.B.B.B.B.B.B.B.B.B.B.B.B.B.B.B.B.B.B.B.B.B.B.B.B.B.B.B.B.B.B.B.B.B.B.B.B.B.B.B.B.B.B.B.B.B.B.B.B.B.B.B.B.B.B.B.B.B.B.B.B.B.B.B.B.B.B.B.B.B.B.B.B.B.B.B.B.B.B.B.B.B.B.B.B.B.B.B.B.B.B.B.B.B.B.B.B.B.B.B.B.B.B.B.B.B.B.B.B.B.B.B.B.B.B.B.B.B.B.B.B.B.B.B.B.B.B.B.B.B.B.B.B.B.B.B.B.B.B.B.B.B.B.B.B.B.B.B.B.B.B.B.B.B.B.B.B.B.B.B.B.B.B.B.B.B.B.B.B.B.B.B.B.B.B.B.B.B.B.B.B.B.B.B.B.B.B.B.B.B.B.B.B.B.B.B.B.B.B.B.B.B.B.B.B.B.B.B.B.B.B.B.B.B.B.B.B.B.B.B.B.B.B.B.B.B.B.B.B.B.B.B.B.B.B.B.B.B.B.B.B.B.B.B.B.B.B.B.B.B.B.B.B.B.B.B.B.B.B.B.B.B.B.B.B.",
"B.B.B.B.B.B.B.B.B.B.B.B.B.B.B.B.B.B.B.B.B.B.B.B.B.B.B.B.B.B.B.B.B.B.B.B.B.B.B.B.B.B.B.B.B.B.B.B.B.B.B.B.B.B.B.B.B.B.B.B.B.B.B.B.B.B.B.B.B.B.B.B.B.B.B.B.B.B.B.B.B.B.B.B.B.B.B.B.B.B.B.B.B.B.B.B.B.B.B.B.B.B.B.B.B.B.B.B.B.B.B.B.B.B.B.B.B.B.B.B.B.B.B.B.B.B.B.B.B.B.B.B.B.B.B.B.B.B.B.B.B.B.B.B.B.B.B.B.B.B.B.B.B.B.B.B.B.B.B.B.B.B.B.B.B.B.B.B.B.B.B.B.B.B.B.B.B.B.B.B.B.B.B.B.B.B.B.B.B.B.B.B.B.B.B.B.B.B.B.B.B.B.B.B.B.B.B.B.B.B.B.B.B.B.B.B.B.B.B.B.B.B.B.B.B.B.B.B.B.B.B.B.B.B.B.B.B.B.B.B.B.B.B.B.B.B.B.B.B.B.B.B.B.B.B.B.B.B.B.B.B.B.B.B.B.B.B.B.B.B.B.B.B.B.B.B.B.B.B.B.B.B.B.B.B.B.B.B.B.B.B.B.B.B.B.B.B.B.B.B.B.B.B.B.B.B.B.B.B.B.B.B.B.B.B.B.B.B.B.B.B.B.B.B.B.B.B.B.B.B.B.B.B.B.B.B.B.B.B.B.B.B.B.B.B.B.B.B.B.B.B.B.B.B.B.B.B.B.B.B.B.B.B.B.B.B.B.B.B.B.B.B.B.B.B.B.B.B.B.B.B.B.B.B.B.B.B.B.B.B.B.B.B.B.B.B.B.B.B.B.B.B.B.B.B.B.B.B.B.B.B.B.B.B.B.B.B.B.B.B.B.B.B.B.B.B.B.B.B.B.B.B.B.B.B.B.N.N.N.N.N.N.B.B.B.B.B.B.B.B.B.B.B.B.B.B.B.B.N.N.N.N.N.N.B.B.B.B.B.B.B.B.B.B.B.B.B.B.B.B.B.B.N.N.N.B.B.B.B.B.B.B.B.B.B.B.B.B.B.B.B.B.B.B.B.B.B.B.B.B.B.B.B.B.B.B.B.B.N.N.N.B.B.B.B.B.B.B.B.B.N.N.N.B.B.B.B.B.B.B.B.B.B.B.B.B.B.B.B.B.B.B.B.B.B.N.N.N.B.B.B.B.B.B.B.B.B.B.B.B.B.B.B.B.B.B.B.B.B.B.B.B.B.B.B.B.B.B.B.B.B.B.B.B.B.B.B.B.B.B.B.B.B.B.B.B.B.B.B.B.B.B.B.B.B.B.B.B.B.B.B.B.B.B.B.B.B.B.B.B.B.B.B.B.B.B.B.B.B.B.B.B.B.B.B.B.B.B.B.B.B.B.B.B.B.B.B.B.B.B.B.B.B.B.B.B.B.B.B.B.B.B.B.B.B.B.B.B.B.B.B.B.B.B.B.B.B.B.B.B.B.B.B.B.B.B.B.B.B.B.B.B.B.B.B.B.B.B.B.B.B.B.B.B.B.B.B.B.B.B.B.B.B.B.B.B.B.B.B.B.B.B.B.B.B.B.B.B.B.B.B.B.B.B.B.B.B.B.B.B.B.B.B.B.B.B.B.B.B.B.B.B.B.B.B.B.B.B.B.B.B.B.B.B.B.B.B.B.B.B.B.B.B.B.B.B.B.B.B.B.B.B.B.B.B.B.B.B.B.B.B.B.B.B.B.B.B.B.B.B.B.B.B.B.B.B.B.B.B.B.B.B.B.B.B.B.B.B.B.B.B.B.B.B.B.B.B.B.B.B.B.B.B.B.B.B.B.B.B.B.B.B.B.B.B.B.B.B.B.B.B.B.B.B.B.B.B.B.B.B.B.B.B.B.B.B.B.B.B.B.B.B.B.B.B.B.B.B.B.B.B.B.B.B.B.B.B.B.B.B.B.B.B.B.B.B.B.B.B.B.B.B.B.B.B.B.B.B.B.B.B.B.B.B.B.B.B.B.B.B.B.B.B.B.B.B.B.B.B.B.B.B.B.B.B.B.B.B.B.B.B.B.B.B.B.B.B.B.B.B.B.B.B.B.B.B.B.B.B.B.B.B.B.B.B.B.B.B.B.B.B.B.B.B.B.B.B.B.B.B.B.B.B.B.B.B.B.B.B.B.",
"B.B.B.B.B.B.B.B.B.B.B.B.B.B.B.B.B.B.B.B.B.B.B.B.B.B.B.B.B.B.B.B.B.B.B.B.B.B.B.B.B.B.B.B.B.B.B.B.B.B.B.B.B.B.B.B.B.B.B.B.B.B.B.B.B.B.B.B.B.B.B.B.B.B.B.B.B.B.B.B.B.B.B.B.B.B.B.B.B.B.B.B.B.B.B.B.B.B.B.B.B.B.B.B.B.B.B.B.B.B.B.B.B.B.B.B.B.B.B.B.B.B.B.B.B.B.B.B.B.B.B.B.B.B.B.B.B.B.B.B.B.B.B.B.B.B.B.B.B.B.B.B.B.B.B.B.B.B.B.B.B.B.B.B.B.B.B.B.B.B.B.B.B.B.B.B.B.B.B.B.B.B.B.B.B.B.B.B.B.B.B.B.B.B.B.B.B.B.B.B.B.B.B.B.B.B.B.B.B.B.B.B.B.B.B.B.B.B.B.B.B.B.B.B.B.B.B.B.B.B.B.B.B.B.B.B.B.B.B.B.B.B.B.B.B.B.B.B.B.B.B.B.B.B.B.B.B.B.B.B.B.B.B.B.B.B.B.B.B.B.B.B.B.B.B.B.B.B.B.B.B.B.B.B.B.B.B.B.B.B.B.B.B.B.B.B.B.B.B.B.B.B.B.B.B.B.B.B.B.B.B.B.B.B.B.B.B.B.B.B.B.B.B.B.B.B.B.B.B.B.B.B.B.B.B.B.B.B.B.B.B.B.B.B.B.B.B.B.B.B.B.B.B.B.B.B.B.B.B.B.B.B.B.B.B.B.B.B.B.B.B.B.B.B.B.B.B.B.B.B.B.B.B.B.B.B.B.B.B.B.B.B.B.B.B.B.B.B.B.B.B.B.B.B.B.B.B.B.B.B.B.B.B.B.B.B.B.B.B.B.B.B.B.B.B.B.B.B.B.B.B.B.B.B.N.N.N.N.N.N.B.B.B.B.B.B.B.B.B.B.B.B.B.B.B.B.B.B.B.B.N.N.N.N.N.B.B.B.B.B.B.B.B.B.B.B.B.B.B.B.B.B.N.N.N.B.B.B.B.B.B.B.B.B.B.B.B.B.B.B.B.B.B.B.B.B.B.B.B.B.B.B.B.B.B.B.B.N.N.N.N.B.B.B.B.B.B.B.B.B.N.N.N.B.B.B.B.B.B.B.B.B.B.B.B.B.B.B.B.B.B.B.B.B.B.N.N.N.B.B.B.B.B.B.B.B.B.B.B.B.B.B.B.B.B.B.B.B.B.B.B.B.B.B.B.B.B.B.B.B.B.B.B.B.B.B.B.B.B.B.B.B.B.B.B.B.B.B.B.B.B.B.B.B.B.B.B.B.B.B.B.B.B.B.B.B.B.B.B.B.B.B.B.B.B.B.B.B.B.B.B.B.B.B.B.B.B.B.B.B.B.B.B.B.B.B.B.B.B.B.B.B.B.B.B.B.B.B.B.B.B.B.B.B.B.B.B.B.B.B.B.B.B.B.B.B.B.B.B.B.B.B.B.B.B.B.B.B.B.B.B.B.B.B.B.B.B.B.B.B.B.B.B.B.B.B.B.B.B.B.B.B.B.B.B.B.B.B.B.B.B.B.B.B.B.B.B.B.B.B.B.B.B.B.B.B.B.B.B.B.B.B.B.B.B.B.B.B.B.B.B.B.B.B.B.B.B.B.B.B.B.B.B.B.B.B.B.B.B.B.B.B.B.B.B.B.B.B.B.B.B.B.B.B.B.B.B.B.B.B.B.B.B.B.B.B.B.B.B.B.B.B.B.B.B.B.B.B.B.B.B.B.B.B.B.B.B.B.B.B.B.B.B.B.B.B.B.B.B.B.B.B.B.B.B.B.B.B.B.B.B.B.B.B.B.B.B.B.B.B.B.B.B.B.B.B.B.B.B.B.B.B.B.B.B.B.B.B.B.B.B.B.B.B.B.B.B.B.B.B.B.B.B.B.B.B.B.B.B.B.B.B.B.B.B.B.B.B.B.B.B.B.B.B.B.B.B.B.B.B.B.B.B.B.B.B.B.B.B.B.B.B.B.B.B.B.B.B.B.B.B.B.B.B.B.B.B.B.B.B.B.B.B.B.B.B.B.B.B.B.B.B.B.B.B.B.B.B.B.B.B.B.B.B.B.B.B.B.B.B.B.B.B.B.B.B.B.B.B.B.B.B.B.B.B.B.B.B.B.B.",
"B.B.B.B.B.B.B.B.B.B.B.B.B.B.B.B.B.B.B.B.B.B.B.B.B.B.B.B.B.B.B.B.B.B.B.B.B.B.B.B.B.B.B.B.B.B.B.B.B.B.B.B.B.B.B.B.B.B.B.B.B.B.B.B.B.B.B.B.B.B.B.B.B.B.B.B.B.B.B.B.B.B.B.B.B.B.B.B.B.B.B.B.B.B.B.B.B.B.B.B.B.B.B.B.B.B.B.B.B.B.B.B.B.B.B.B.B.B.B.B.B.B.B.B.B.B.B.B.B.B.B.B.B.B.B.B.B.B.B.B.B.B.B.B.B.B.B.B.B.B.B.B.B.B.B.B.B.B.B.B.B.B.B.B.B.B.B.B.B.B.B.B.B.B.B.B.B.B.B.B.B.B.B.B.B.B.B.B.B.B.B.B.B.B.B.B.B.B.B.B.B.B.B.B.B.B.B.B.B.B.B.B.B.B.B.B.B.B.B.B.B.B.B.B.B.B.B.B.B.B.B.B.B.B.B.B.B.B.B.B.B.B.B.B.B.B.B.B.B.B.B.B.B.B.B.B.B.B.B.B.B.B.B.B.B.B.B.B.B.B.B.B.B.B.B.B.B.B.B.B.B.B.B.B.B.B.B.B.B.B.B.B.B.B.B.B.B.B.B.B.B.B.B.B.B.B.B.B.B.B.B.B.B.B.B.B.B.B.B.B.B.B.B.B.B.B.B.B.B.B.B.B.B.B.B.B.B.B.B.B.B.B.B.B.B.B.B.B.B.B.B.B.B.B.B.B.B.B.B.B.B.B.B.B.B.B.B.B.B.B.B.B.B.B.B.B.B.B.B.B.B.B.B.B.B.B.B.B.B.B.B.B.B.B.B.B.B.B.B.B.B.B.B.B.B.B.B.B.B.B.B.B.B.B.B.B.B.B.B.B.B.B.B.B.B.B.B.B.B.B.B.B.B.N.N.N.N.N.B.B.B.B.B.B.B.B.B.B.B.B.B.B.B.B.B.B.B.B.B.B.B.N.N.N.N.N.B.B.B.B.B.B.B.B.B.B.B.B.B.B.B.B.N.N.N.B.B.B.B.B.B.B.B.B.B.B.B.B.B.B.B.B.B.B.B.B.B.B.B.B.B.B.B.B.B.B.B.N.N.N.B.B.B.B.B.B.B.B.B.B.N.N.N.B.B.B.B.B.B.B.B.B.B.B.B.B.B.B.B.B.B.B.B.B.B.N.N.N.B.B.B.B.B.B.B.B.B.B.B.B.B.B.B.B.B.B.B.B.B.B.B.B.B.B.B.B.B.B.B.B.B.B.B.B.B.B.B.B.B.B.B.B.B.B.B.B.B.B.B.B.B.B.B.B.B.B.B.B.B.B.B.B.B.B.B.B.B.B.B.B.B.B.B.B.B.B.B.B.B.B.B.B.B.B.B.B.B.B.B.B.B.B.B.B.B.B.B.B.B.B.B.B.B.B.B.B.B.B.B.B.B.B.B.B.B.B.B.B.B.B.B.B.B.B.B.B.B.B.B.B.B.B.B.B.B.B.B.B.B.B.B.B.B.B.B.B.B.B.B.B.B.B.B.B.B.B.B.B.B.B.B.B.B.B.B.B.B.B.B.B.B.B.B.B.B.B.B.B.B.B.B.B.B.B.B.B.B.B.B.B.B.B.B.B.B.B.B.B.B.B.B.B.B.B.B.B.B.B.B.B.B.B.B.B.B.B.B.B.B.B.B.B.B.B.B.B.B.B.B.B.B.B.B.B.B.B.B.B.B.B.B.B.B.B.B.B.B.B.B.B.B.B.B.B.B.B.B.B.B.B.B.B.B.B.B.B.B.B.B.B.B.B.B.B.B.B.B.B.B.B.B.B.B.B.B.B.B.B.B.B.B.B.B.B.B.B.B.B.B.B.B.B.B.B.B.B.B.B.B.B.B.B.B.B.B.B.B.B.B.B.B.B.B.B.B.B.B.B.B.B.B.B.B.B.B.B.B.B.B.B.B.B.B.B.B.B.B.B.B.B.B.B.B.B.B.B.B.B.B.B.B.B.B.B.B.B.B.B.B.B.B.B.B.B.B.B.B.B.B.B.B.B.B.B.B.B.B.B.B.B.B.B.B.B.B.B.B.B.B.B.B.B.B.B.B.B.B.B.B.B.B.B.B.B.B.B.B.B.B.B.B.B.B.B.B.B.B.B.B.B.B.B.B.B.B.B.B.B.B.B.",
"B.B.B.B.B.B.B.B.B.B.B.B.B.B.B.B.B.B.B.B.B.B.B.B.B.B.B.B.B.B.B.B.B.B.B.B.B.B.B.B.B.B.B.B.B.B.B.B.B.B.B.B.B.B.B.B.B.B.B.B.B.B.B.B.B.B.B.B.B.B.B.B.B.B.B.B.B.B.B.B.B.B.B.B.B.B.B.B.B.B.B.B.B.B.B.B.B.B.B.B.B.B.B.B.B.B.B.B.B.B.B.B.B.B.B.B.B.B.B.B.B.B.B.B.B.B.B.B.B.B.B.B.B.B.B.B.B.B.B.B.B.B.B.B.B.B.B.B.B.B.B.B.B.B.B.B.B.B.B.B.B.B.B.B.B.B.B.B.B.B.B.B.B.B.B.B.B.B.B.B.B.B.B.B.B.B.B.B.B.B.B.B.B.B.B.B.B.B.B.B.B.B.B.B.B.B.B.B.B.B.B.B.B.B.B.B.B.B.B.B.B.B.B.B.B.B.B.B.B.B.B.B.B.B.B.B.B.B.B.B.B.B.B.B.B.B.B.B.B.B.B.B.B.B.B.B.B.B.B.B.B.B.B.B.B.B.B.B.B.B.B.B.B.B.B.B.B.B.B.B.B.B.B.B.B.B.B.B.B.B.B.B.B.B.B.B.B.B.B.B.B.B.B.B.B.B.B.B.B.B.B.B.B.B.B.B.B.B.B.B.B.B.B.B.B.B.B.B.B.B.B.B.B.B.B.B.B.B.B.B.B.B.B.B.B.B.B.B.B.B.B.B.B.B.B.B.B.B.B.B.B.B.B.B.B.B.B.B.B.B.B.B.B.B.B.B.B.B.B.B.B.B.B.B.B.B.B.B.B.B.B.B.B.B.B.B.B.B.B.B.B.B.B.B.B.B.B.B.B.B.B.B.B.B.B.B.B.B.B.B.B.B.B.B.B.B.B.B.B.B.B.B.N.N.N.N.N.B.B.B.B.B.B.B.B.B.B.B.B.B.B.B.B.B.B.B.B.B.B.B.B.B.N.N.N.N.N.B.B.B.B.B.B.B.B.B.B.B.B.B.B.B.N.N.N.B.B.B.B.B.B.B.B.B.B.B.B.B.B.B.B.B.B.B.B.B.B.B.B.B.B.B.B.B.B.B.B.N.N.N.B.B.B.B.B.B.B.B.B.N.N.N.B.B.B.B.B.B.B.B.B.B.B.B.B.B.B.B.B.B.B.B.B.B.N.N.N.B.B.B.B.B.B.B.B.B.B.B.B.B.B.B.B.B.B.B.B.B.B.B.B.B.B.B.B.B.B.B.B.B.B.B.B.B.B.B.B.B.B.B.B.B.B.B.B.B.B.B.B.B.B.B.B.B.B.B.B.B.B.B.B.B.B.B.B.B.B.B.B.B.B.B.B.B.B.B.B.B.B.B.B.B.B.B.B.B.B.B.B.B.B.B.B.B.B.B.B.B.B.B.B.B.B.B.B.B.B.B.B.B.B.B.B.B.B.B.B.B.B.B.B.B.B.B.B.B.B.B.B.B.B.B.B.B.B.B.B.B.B.B.B.B.B.B.B.B.B.B.B.B.B.B.B.B.B.B.B.B.B.B.B.B.B.B.B.B.B.B.B.B.B.B.B.B.B.B.B.B.B.B.B.B.B.B.B.B.B.B.B.B.B.B.B.B.B.B.B.B.B.B.B.B.B.B.B.B.B.B.B.B.B.B.B.B.B.B.B.B.B.B.B.B.B.B.B.B.B.B.B.B.B.B.B.B.B.B.B.B.B.B.B.B.B.B.B.B.B.B.B.B.B.B.B.B.B.B.B.B.B.B.B.B.B.B.B.B.B.B.B.B.B.B.B.B.B.B.B.B.B.B.B.B.B.B.B.B.B.B.B.B.B.B.B.B.B.B.B.B.B.B.B.B.B.B.B.B.B.B.B.B.B.B.B.B.B.B.B.B.B.B.B.B.B.B.B.B.B.B.B.B.B.B.B.B.B.B.B.B.B.B.B.B.B.B.B.B.B.B.B.B.B.B.B.B.B.B.B.B.B.B.B.B.B.B.B.B.B.B.B.B.B.B.B.B.B.B.B.B.B.B.B.B.B.B.B.B.B.B.B.B.B.B.B.B.B.B.B.B.B.B.B.B.B.B.B.B.B.B.B.B.B.B.B.B.B.B.B.B.B.B.B.B.B.B.B.B.B.B.B.B.B.B.B.B.B.B.B.B.B.B.",
". . . . . . . . . . . . . . % % . % % % . % % % % % % % % % $ $ + % + + + X + % % + % + + % X + + + + % + + X X X X + + # + # + # + # # + # + + + # # # # # + # # # # # # # # O # O @ # # @ @ @ # @ @ @ @ @ # @ @ o o @ @ o @ o @ @ 6 @ 6 @ 5 o o 6 6 6 6 @ 6 6 6 6 6 5 5 5 6 6 - 6 - 6 & 6 & 5 & - - - - - - - : & & : - & : - - & - : : & : : : : : : : : 3 : : : 3 : 3 : * = 3 3 3 = 3 3 ; 3 ; 3 ; ; 2 ; * 2 * 3 * < 2 3 3 < 3 2 2 2 < < 4 < 2 2 4 4 2 2 1 2 < 4 1 1 4 , 4 4 1 4 4 1 4 > 4 4 1 , > , 1 , , , B > B , B > > B B B , B m B B m m m B m B m n B B N n N n n n n n n n n N N 7 N n N N V N V M n V V V V M V 7 M M V M 8 V 7 7 7 7 7 7 7 8 7 7 7 8 8 w 8 8 w w 8 t 8 w w w t t t q w w r t q q q t q q q q q r e r r r e e r e e e e e e e e e e y 9 e y 9 y y 9 9 9 y z 9 9 z 0 j z z j z f f f z f f j f f j f f h j h f h h h g f g f h h h l l g g g g g g l g g g g c g b v.N.N.N.r.c k v k c c c c c a c c c a c a u c u u u u c d u u a b.N.N.N.,.d p p p p p p p i p i i p z.N.N.u.p i i i i i ` ` ` _ _ _ _ ` _ _ _ _ _ _ _ _ / _ / _ _ _ _ _ / :.N.N.M./ ) _ ) ) ) / ) ) M.N.N.;.[ ) ) [ ) ) ) [ ) [ ) [ [ ) [ ( ( ( [ [ ] m.N.N.2.] ] ] ] [ ] ] ] [ C ] ] ] C C ] ] C { { ] { { { { { { C C C { C C { C C C C C C S C C S C S C C S S S S S S S S S A S S A S A A A A S A A A A A A D A D A D A D D D D D D D D Z Z D D Z D Z D Z D Z Z Z Z Z Z Z Z Z Z Z G Z G Z G G G G G G G G G G G G G G J J G J F F F F J H F F F F H F H J H H H H H F H H H H H H ! H U H H H ! ! ! ! ! ! ! ! ! U ! U ! U ! U U U U U U U U U U U U U U U U T T U T T T T T T T T T T Y T T Y Y T Y Y Y T Y Y Y Y Y Y Y Q Y Y Y Y Q Y Y Q Q Q Q Q Q Q Q Q Q Q Q R Q R Q R R Q R Q R R R R R R R R W R R W R R W W W W R W W R W W W W W W W W W E W E E E W E E E W E E E E E E E E E E ~ E E ^ E E E ^ E E ~ ~ E ~ ~ ~ ~ ~ ~ ^ ~ ~ ^ ^ ~ ~ ~ ~ ^ ~ ~ ~ ^ ^ ^ ~ K K ^ K K ^ ^ ^ K L ^ L K L L K K K L K L L K L L L L L L L I L L I L L I L I L I L I L I L I I I L I I I I I I L I I I I P P I I P I I P I P P I P P P I P I P P P P P P P P P P P P P P P P P P P P P P P P ",
". . . . . . . . . . . . . . $ . . . % . . % % % % % % % % % $ $ % % % % + % % + % + % + + % + + + + + + + + X + X X + # + + + + + + # + # + # # # # + # # # # # # # O # @ # # O # @ # @ O @ @ O @ @ # @ @ # o @ @ @ 6 o @ o 6 @ @ 6 @ 6 @ 6 o 6 6 6 @ 6 6 6 6 6 6 6 6 6 5 6 - 6 6 6 6 & & 6 - - - - - 5 5 - - - - - - : : & - - - 3 : - & : : : : & : : : : : : : * = ; : * : ; 3 = ; * 3 3 * * * 3 2 2 * ; 3 ; * 2 < * 2 2 2 < 2 2 2 2 < < < < 4 1 2 < 1 1 4 4 4 4 4 1 1 1 1 , 4 4 4 , > 4 , > 1 , , > , , , , > > , , > > m > , B , B , B B , m m m B m m n m B n B n B n n n n n N n n N N N N V n V N V V M V M V M V M M V V 7 M 7 7 7 7 V 7 7 8 8 8 8 8 w 8 w 8 w w 8 t w w w w w t w t q w r t q q t t q q q q q q q r q r e r r r e r e r e r e e x e e 9 q y y 9 z y 9 9 y x z 0 z z f f x f z f f 0 f f j f j j j f h f f f f h h h f f g j g h g l g l g h h g l g g g g g g k k l.N.N.N.q.v c c c c k c v v c c u c u c d c c u u u u u u c u d u O.M.N.N.m.u u p p p p p p p p d p s m.N.N.%.i i p ` i i ` ` ` i _ ` ` ` _ _ ` _ _ _ _ _ _ _ _ / _ ) _ ) _ y.N.N.c./ / _ ) _ ) ) / o.N.N.N.) ) ) ) [ ) ) ) ) [ [ ) [ [ [ [ ) [ ( ] ] X.N.N.N.X.] ] ] [ ] ] ] ] ] ] ] ] ] ] ] ] { ] { { { { { { { C C { { C { C C C C C C C C C C C C C C C S S C S C S S S S S S S S A A A S S A A A A A A A A A A D D D A A D A D D A D D A D D D D D Z D D Z Z Z Z Z Z Z Z Z G Z G Z Z G G Z G Z G G G G G G G G G J J G G G G J F F F F F F F H F H F H J H H J H H H H H H ! H H H ! H H ! U H ! H ! ! ! ! ! U ! ! ! ! U ! U ! U U U U U U U U U U T U T T T U T T T U T T T T T T T T T T Y T T Y T Y Y Y Y Y Y Y Y Y Y Y Q Y Q Y Y Q Q Y Y Q Q Y Q Q Q Q Q Q Q Q R Q R Q R R Q R R R R R R R R R R R R R W W R R R R R W W R W W W W W W W W W W W W W W E E W E E W E E E E E E E E E E E ~ E E E ^ E E ~ E E ^ E ^ ~ ~ ~ ~ ~ ~ ~ ~ ~ ~ ^ ~ ^ ~ ^ ^ ^ ~ ~ ^ ^ ^ ^ ^ K K K ^ ^ K K K ^ K ^ K K L L L L L ^ L L L L L K L L L L L L L L I I L L L I L I I I L I L I I I I I I I I I I P I I I P I I P I P P P P P P I P P P P P P P P P P P P P P P P P P P P P P P P P P P P ",
". . . . . . . . . . . . . . . . % . . % % % % % % % % + % + + $ % + % % + % % % + + X % % % + + + + + + + + + + # + # X + + X # + + + # + # + # + # # # # # # # # # # # # # # @ # @ O # # @ # @ O @ @ @ @ o @ @ o o @ o @ o @ o 6 @ @ 6 @ 6 6 @ o 6 6 @ 6 6 6 @ 6 6 5 6 6 6 - 6 - 5 - 6 6 & - & 5 5 - - - - - - - : - - - : - : : - - : & : : : & : : : : : : : = : : ; ; = 3 : = 3 = ; 3 * * ; 3 * * 3 2 2 * 2 < < < 2 3 2 2 * 2 2 2 2 < < 2 4 < 1 4 < 1 < 2 4 < 4 4 < 1 4 4 1 1 > 4 > 4 > > , , , > > > , , , , > > > B B > m m m B B B B B B m m m B n m m n m n n n N n n n N N n n 8 n n M V V V n V n V M V M V V M V V V M V V 8 8 M V 8 8 8 7 7 7 8 7 8 w 8 w 8 w 8 8 w t 8 w t w w t w w t t q q w q q r q q t r q r r q q e r e r e e e e y y e e x e y 9 y 9 e y 9 y y 9 z 9 9 x 9 f x j z j f f f f f f j f f j f f f h l h h f h j l g g l l h l g g h g g l g g g g g g g g s.N.N.N.q.g g g c g g v c c c c u c c c u c c u u c d u u c d c d d u 0.N.N.N.0.p u p p p p p p p p i O.N.N.N.' i i i p ` i ` ` ` _ i ` _ _ _ _ _ _ _ _ _ _ _ / _ _ / _ / / _ d.N.N.g.) _ / ) ) / ) ) 4.N.N.b.) ) ) ) ) ) ) [ ( ) ( [ [ [ ) ( [ [ [ ] [ 3.N.N.b.[ [ ] ] ] ] ] ] ] ] ] { ] ] ] ] C C ] { { { { { { { { { { { { C C C C C C C C C C S S C S C S S S S S S S S S S S S A S S S A A A A S A A A A A A A A A A D D D A D D D D D D D Z Z D Z Z Z D D Z D Z Z Z Z Z Z G Z G Z G G Z Z G Z G G G Z G G G G J G J G J G J J G G F F J F F J F H F H J J H H H H H H H H H H H H H H U ! H U H ! ! ! ! ! ! ! ! ! U ! U ! U ! U U U U ! U U U U T U U T U T U T T U U T T U T T T T Y T Y T T T Y T Y Y Y Y Y Y Y Y Y Q Y Y Y Y Q Y Q Y Q Q Y Q Y Q Q Q Q Q R Q Q Q Q Q Q Q R Q R R Q R R R R R R R R R R R W R R R W W W W W W W W W W W W W W W E E W E E W E W E W E W E E E E ~ E E ~ E E E ^ E ^ E ^ ^ E ^ ~ ^ E E ~ ~ ~ ~ ~ ~ ^ ~ ~ ~ ~ E ~ ^ ~ ^ ^ ~ ^ ^ K K ^ ^ K K ^ L L K K L K L ^ L L L L K L L K L L L L L L L L L L L L I L L L I I L L I L I I L I I L I I I I I I I I I I I I I I I P I I P I I I I P P P P P P P P P P P P P P P P P P P P P P P P P P P P P P ",
". . . . . . . . . . . . . . . . . % . % . % % % % % % % % $ $ % % % % % + % % % % + + X + + + + + + + + + + + + + + + + # + # + # # + + # + # + # # + # # + # # # # # # # # # # O # # @ @ # @ # @ O # @ @ o @ @ @ @ @ @ @ 6 @ 6 @ o 6 o @ 6 @ 6 o 6 6 6 @ 6 6 5 6 6 6 5 6 - 6 6 6 5 6 - 6 6 - - - - - - - & - - - - - - - & : - - - & 3 : & : & : : & : : : : 3 : : ; : : : ; : ; * ; * ; ; ; * 3 3 * 3 * 3 2 ; * 3 3 2 < 2 2 2 2 2 2 2 < < < < 2 2 < 2 4 4 2 1 1 1 1 4 1 1 4 1 1 4 4 1 , 4 4 , 4 > , 4 > > , , , B , B > , m , , , m > B , B B B m m m B m m B m n B B m n n n N N N N n N n n n N n V V V V n n M V V M M M M 8 M 8 M V 7 7 7 7 7 8 8 8 7 8 w 8 8 8 w 8 w w t w w 8 w t w w w w q q w w q t r t q q q r q q r e r r e r r e r e r r e e e e e e e 9 y 9 9 9 9 9 9 0 9 z x 9 z z z j z 9 z z j f z f f f j h f f j l j f l h g j f f h h h h h g l l l g g g g g g g g *.N.N.N.s.c g c c v v c v v c c u k u c c c c u c u u u u u d u u u d u u x.N.N.b.p p p p p p p p d s p 1.N.N.b.p i i i ` ` ` i i ` _ i _ ` ` O._ _ _ / _ _ / _ _ _ / _ / _ / / b.N.N.4._ _ ) / _ ) / ) g.N.N.g.) / ) ) ) ) ) ) ) ) ) ( [ ) [ [ [ [ [ ( ( i.N.N.h.] [ ] ] ] ] ] ] ] ] ] ] ] ] C ] ] ] C ] { { { { C { { { C C C C { { C C C C C C C C C C S S C S S C S S C S S S A S S S A S A A A A D A A A A A A D D A A A A A D D D A D D D A Z D D Z D D Z Z Z D Z Z Z Z Z Z Z Z Z G Z Z G G Z G G G G G G G G G G G J G J J J J J F F F F F F H F F H H J H H J H H H H H H H H ! H H H H H H H U H ! H ! ! ! ! ! ! ! U ! U ! U U U U U U U U U U U T U U T U U T U T T T T T T T T T T T T T Y T T Y T Y T Y Y T Y Y Y Y Y Q Y Q Y Q Y Q Y Q Q Q Q Q Q Q Q Q Q Q Q Q R R Q R Q R Q Q R R R R R R R R R W R W R R W W W R W R R W R W W W W W W W W W W W W W E W E W E E E E E E E E E E E E ~ ~ E E E E E E ~ E E ~ ~ ~ ~ ~ ~ ~ ~ ~ ~ ~ ^ ~ ~ ^ ~ ^ ~ ~ ^ ^ ~ ^ ~ ^ ^ ^ K ^ K K K K K K K ^ L ^ K L ^ L K L L L L L L L L L L L I L L L L L I L I L I L I I L I L I I I I I I I I I I I I I P I I I I P P I P P P P I P I P P P P P P P P P P P P P P P P P P P P P P P P P P P ",
". . . . . . . . % . . % % . . % . . % . % . % % $ % % $ % % % % % % + % + % % % + % X % X % X + + + + + + + + + X % + + + + + + + # + # + # X # # + # # + # # + # # # # # # # @ # @ # # @ # @ @ @ @ O @ @ @ o @ @ 6 @ @ o @ 6 @ @ @ 6 @ o 6 o @ 6 @ 6 6 6 6 6 6 5 6 6 5 6 6 - 6 5 - - 5 & - - 6 6 - - & - - - - - & & : - & - & - : : - : : : = & : : - : : = = 3 = 3 3 3 3 = 3 : ; ; ; ; = ; ; ; * ; 2 < * < * ; ; ; 2 ; 2 < 2 2 2 2 2 2 1 2 4 2 2 1 < 1 < 4 4 4 1 2 1 1 1 , 4 < 4 4 < 4 4 , 4 , 1 > , > , , , B > B > , B > > B , > B m B m B N m N > N N n > 7 > 7 , n N n n N n n 7 N n M n N V V n N V V n V M M M M 7 M M M V 7 V 7 7 M 7 7 V 7 7 7 8 t 7 8 7 8 8 w 7 8 w w w w w w w w t q t q t t q t q r r r q q r r q q q r e r q x q x q x e e e e e e y e x e x e z 9 9 9 z 9 9 9 z j x 0 f f f 9 f 9 f j j l f f f f f f h j h l f h h h h h h l h h g g l l g g g g g g g n.N.N.v.c k g c u k c c k c k u c c u k a c d c c c u u c d c d d c u d u 0.N.N.N.=.p p p p p p i p p i d.N.N.d.p _ i i i i i i i _ i _ ` ` ` ` _ _ _ _ _ _ / _ _ _ _ / _ ) _  .N.N.N.$.) _ ) ) ) _ ) _ b.N.N.3./ ( ) ) ) ) ( ) ) ( [ ) ) [ [ [ [ [ ( ( ] k.N.N.i.] ( ] [ ] ] ] ] ] ] ] ] ] C ] C ] ] ] { { ] { { { { { C { { C C C { C C C C C C C C C S C S C S C S S S S S S S S S A S A S A A S A A A A A A A A D A A A D A A D D D D D D D D D D D D Z D Z D Z Z Z Z Z Z Z G Z G Z Z G Z G G Z Z G Z G G G F G G G G G G F G F F F F J J F F F J F H F J H F F H H F H H H H H H ! H H H ! ! H U H U H H U ! H H U H U U U ! U U U U ! ! U U U U T U U U U T U T T U T U T T T T T T T T T T Y Y Y Y T T Q T Y T Y Y Y Y Y Q Y Y Q Y Y Q Y Y Q Q Q Y Q Y Q Q Q Q Q Q Q R Q Q R Q Q R Q R R R R R R R R R R W R R W R W R W W W W W W W W W W W W W W W E E W E E W E W E E E E E E E E E E E E E E ~ E E ~ ~ ~ ~ E E ~ ~ ~ E ~ ~ ~ ~ ~ ~ ^ ^ ~ ~ ^ ^ ~ ~ ^ ~ ^ ^ ~ ^ ^ K K K K K K K ^ ^ ^ ^ L K L L K L L ^ L ^ L L L L L L L L L L L L L I L I L L L I I L I I L I I L I I I I I I I I I I I P I I I P I I I I P P I P P P P P P P P P P P P P P P P P P P P P P P P P P P P P P ",
". . . . . . . . . . . . . . . . % . . % % . % % % % % % % % % % % + % + + % X % + % X X % + + + + + + + + + + + # + + # X + # + X + # + # + + # # + # # O # # # # O # # # # # # # # # @ # @ # @ O O o @ # @ @ @ @ @ @ @ @ @ @ @ @ 6 @ 6 o 6 6 6 @ 6 @ 6 @ 6 5 @ 6 6 6 6 6 6 6 6 6 5 o - 6 6 - 6 - - - - - - - - - & & - : & : : - - - : = - : - = : = = = : : : = = : : = = = = * ; ; 3 * * * ; ; ; ; * ; * * * 2 2 2 < 2 ; 2 2 2 4 2 2 2 < < 2 2 4 < 2 < 4 < 4 1 1 1 1 1 1 < 4 , , , , > > > 4 , , , , , , , > > , , , , > B B , m m B B , , m > m > N N , n , 7 , > N N n 7 > N N N N n n n N V N N M M V n V M M V M V M V M M 7 7 M M 7 8 7 7 7 7 7 8 7 8 8 w 8 w w 7 w w 8 8 w 8 w w w w w w q t t t q q q r q q q q q q q r e e q q e x q q x r e e e y e z e y z x e y z y 9 9 9 z 9 0 f 0 f x 9 9 9 f f l f j f 9 l f f h f f h h f f g l h h h h h h l g l h l g g g g g g g r.N.N.M.@.k g c c k c k c u k u c c c u u u c c u c d u u d p u u u u d p u d M.N.N.e.p p p p p d d p p i z.N.N.w.p p i i i _ i i ` i ` i ` _ _ _ ` _ _ _ _ _ _ _ _ / _ / _ / _ <.N.N.M._ / / ) _ ) _ ) ) M.N.N.;.) / ) ) ) ) ) ) ) ) ) ( ) ( [ [ [ [ ( ( ] M.N.N.>.] ] ] ] ] [ ] ] ] ] { ] ] ] ] ] ] C ] { { { { { { { C { C { C C { C S C C C C C S S C { S C S C S C S S S S S S S S S S S S A A S A S A A A A A A A A A D A A D A D A D D D D D D D D D Z Z D D Z D Z Z Z Z Z Z Z G Z G Z G Z G G G G G G G G G G G F G G F G J F G F G J F F F F J H H J F H H H H H H F H H H H H H ! H H ! ! H ! H H H U H U U ! H U U H H ! ! ! ! ! U U U U U U U T U T U U T U T T U T T T T T T Y T T Y T T T T T T Y T Q T Q Y Y Y Y Q Y Y Y Y Y Q Y Q Q Y Y Q Q Q Q Q Q Q Q Q Q R Q R Q Q R Q R R R Q R R R R R W R R R R R R W R W R Q R W R W W W W W W W W W E W W W E E W E E W E E E E E E E E E E ~ ~ E E ~ E E E E ~ ~ ~ ~ E ~ ~ ~ ~ ~ ~ ~ ~ ~ ~ ~ ^ ~ ^ ~ ~ ^ ^ ~ ^ ^ ^ K ~ K ^ K ^ ^ K L K L K L L ^ ^ L ^ K L L L L L L L L L L L L L I I L L L L I I L I L L I L I I I I I I I I I I I I I P I I I P P I I P P P I P P I I P I P P P P P P P P P P P P P P P P P P P P P P P P P P ",
". . . . . . . . . . . . % . . % . % % % % % % $ % % % % + % + % X % % % % % % + % + + % + % + + % + + + + + + + # + + + # + + # # + + + + # # # # # X O # # # # # # # O # # @ # # @ @ # # @ # # @ # @ @ @ @ @ o @ @ @ @ 6 @ 6 @ o 6 @ 6 6 o 6 @ 6 6 o 6 6 @ 5 5 5 6 6 5 - 6 6 - 5 - - - & & & 6 - - & - - - - - - - & & & & - : : & = - : & - 3 : = : : = : = : : 3 3 : = = 3 3 ; : ; : ; ; ; ; * ; ; ; * ; * 2 2 ; < ; 2 2 ; < 2 2 2 2 4 2 < 1 4 < 4 4 < 4 4 < < 1 > < 1 , < 4 , , 4 4 > 4 4 , , 4 , 1 , > > , , > B > > B , B B B B , m m m m > N > N N N N n , > 7 , N N , 7 n n n n N N 8 n n M V N N M M V V M V V V V V M 7 M M 7 8 V M 7 8 8 7 8 7 7 7 w 7 w w 7 w w 7 w w w w w w w t t q w t q q q q t w r r q e r r e r r r e e e q e q r q x e x e e e x e e z e x z 0 9 x z z 9 z x j 9 x f f f f f 9 f f l f f f f f f h f l l g j h l l h h h g h h h g h g g l g g g b M.N.N.r.k c g k k c k k c k u c c c u u c c c c c u c u u u u u u u u u u d u a.N.N.v.u p d u d d p p i p M.N.M.,.i i ` i i ` i i i i _ i _ _ ` _ _ _ _ _ _ _ _ _ _ _ _ / _ _ _ y.N.N.k.) ) / / ) / ) ) :.N.N.M./ ) ) ) ) ) [ ) [ ) ( ) [ ( ( [ ( ( ( ( ( >.N.N.M.] ( ] ] ( ] ] ] ] ] ] ] ] ] ] ] C C ] ] ] { C { C { { { { C { { { { C { C { C C S C C S S C S C C S S S S C S S S S S S A S A S S A A A A A A A A A A D A D D D A D D D D D D D D D D D D D D Z Z Z Z Z D Z Z Z Z Z Z Z Z G Z G Z Z G Z G G G G G G G G J F G F G J G J F F F F J H F F F F H F H J F H H H H H H H H H H H H ! H H H ! U H H U H U U U U H U U U ! U U U U ! U U U U U U U U U U U U U T U T T T T U T T T T T Y T Y T Y Y Y Y T Q Y Y Y Y Y Y Y Y Y Q Q Y Q Y Y Q Q Q Q Q Q Q Q Q Q Q Q Q R Q R Q R R R R R R R R R R R R W R R R R W Q W W W W W W W R W W W W W W W W W W E W E W E E E W E W E E W E E E E E E E E E ~ E ~ ~ E E ~ ~ E ~ ~ ~ ~ ~ ~ ~ ^ ~ ~ ^ ~ ^ ~ ~ ~ ^ ^ ^ ^ ^ ^ ~ K K K K K K ^ ^ ^ L ^ K K K K L K L L L L L L L K L L L L L L L L L L L L L I L I I L L L I I L I I I I I I L I I I I I I I I I I I P I P I P P I P P I P P P P P P P P P P P P P P P P P P P P P P P P P P P ",
". . . . . . . . . . . . . . . . . . % . . % % $ % % % % % % % % % % X X + + + % + % + + + + % + + + + + + + # X + + + # X + # + + # # # # + # + + # # # O + O # # # # # @ O # # # O @ @ @ # @ @ o @ @ # @ @ @ # @ @ @ 6 @ @ @ @ @ @ o 6 o 6 @ 6 6 6 @ 6 6 6 6 5 6 5 6 6 o - 6 5 5 6 - 6 6 & 6 & 5 6 & - - - - - & : & & : - : - - 3 & = & & & 3 : - = : = = : 3 : : = = : 3 = 3 * : ; * : ; ; ; ; * 2 ; ; < * * ; 2 ; < ; 2 2 2 2 2 2 2 2 2 < 2 2 < 2 4 4 < 4 4 4 < 4 , 1 1 1 , < < 4 , 4 > 4 4 , , > > , > , , , > , B , > B m m , , B , , B m N , N N N > , N N N > 7 , , 7 , n n n n N n N N n N n M M N n M M V V V V V M 8 M M M 7 M 8 7 8 8 8 8 7 t 8 7 7 7 8 w 8 8 w w w 8 w w w w w q q t t q t q t t q q q r q q q q q q e e q r q e r x q e e q e e e y y e z e z y z 9 9 9 z z x z x f x 0 f 9 9 f 9 f f f f f f f l f l f l f h f j h f h h g h h h g h h g g g g g l l s.N.N.m.k k g c c g c c c c u k c c u k c c d c c u u u c u u u u u u p p u u d 8.N.N.N.p p p p p i i p p %.N.N.M.p p i ` p i i i i _ _ i _ ` _ _ ` _ _ _ _ _ _ _ _ / / _ _ ) _ / k.N.N.y._ _ / ) _ ) _ ) y.N.N.k.) ) ) ) / ) ) ) ) ( ) ) [ ) ( [ ) [ ( ( ] 5.N.N.b.( ] ( ] ] ] ] ] ] ] ] ] ] ] C ] ] ] C ] ] { ] { { { C { { { C { C C C { C C C C C C C C C S C S S S S C S S S S S S S S S S A S S A A S A A A A D A A A A D A D D D A D D D D D D D D Z D Z Z D D Z Z Z Z Z Z Z G Z Z G Z G Z G G G G G Z G G G G G G G G G G F J G F F F F F F F J F H J H F H H H F H H H H H H H H H H H ! H H U ! H U H U H U H H U U U U U ! U U ! U U U U U U U U T U U T T T T T U T T U T T T T T Y T T T T Y T T Y T Y T T Y Y Y Y Y Y Q Y Y Q Y Q Y Q Q Q Y Q Q Y Q Q Q Q Q Q Q Q Q Q R Q R Q Q Q R R R R R R R R R R R W R R W W R W R W R W W W R W W W W W W E W W E W W E W E E E E E E E ~ E E E E ~ ~ E ~ E ~ ~ E ~ E ~ ~ ~ ~ E ~ ~ ~ ~ ~ ~ ~ ~ ~ ~ ~ ~ ~ ^ ~ ~ ~ ~ ^ ^ ^ ^ ^ K ^ K K L ^ L K K L K L ^ L L ^ L L ^ K L L L L L L L L I L L I L I I L L I L I I I I I L I I L I I I I I I I I P I I P I I P P I I P I P P P P P I P I P P P P P P P P P P P P P P P P P P P P P P P P P ",
". . . . . . . . . . . . . % % . % % % % . % . % % % % % % % % + + % % % + % % % % + + + + + + % + + + + + # % % + % X X + # + + X # + # + O + # # X # O + # # # # # # # # # # # # @ @ # # @ # @ # @ # @ @ @ @ o @ @ @ @ @ @ o 6 @ 6 6 @ 6 @ 6 o 6 @ 6 6 6 5 5 5 6 6 6 6 6 - 6 6 6 6 6 6 - 6 6 & - 5 - - - & - - & - - - - : - - & : & : : : : : - : : : : : : = : : ; = 3 = : * : * ; : 3 3 ; * * ; < ; * * * 2 2 2 2 ; 2 < ; 2 2 2 2 2 < < 2 2 < 2 4 < < 4 < 4 4 < 4 < 1 > 1 1 , 4 4 4 4 , 4 > > > > 4 , , , > > B , , , B , , B , m m m , m m > m N , m m N > > n n > 7 , N N N N N n N N n n M N V N n M n M n M M M M M V M M 7 M 7 M 8 M 8 7 8 7 7 8 7 8 8 w 8 w w w 8 w 8 w w t t t t t t q w q w q t q q r w r r q q r q r e e q q e e q r e e e x e y y e y e y e x x e 0 0 9 z 9 z 9 j 9 0 z f 9 f f f f f f f f f f f l h l h f h f g l f l l l h h h g l g g h g h g k b M.N.N.q.c g c c k c k k u c k c c v c c c u c c c c c c d c u d c c u u u d u p O.N.N.N.=.p p p d d p p p 0.N.N.z.i _ p i i i ` i ` _ i _ i ` _ ` ` _ _ _ _ _ _ _ / _ _ / / _ / / M.N.N.4./ ) _ ) ) _ ) ) d.N.N.g.) ) ) ) ) ) ) ) ) ) [ ) [ [ ( ) ( ( [ [ [ g.N.N.g.] [ ] ( ] [ ] ] ] ] ] ] ] ] ] ] C ] C ] { { ] C { { { { { { C { C C { C C C C C C C C C C C C S S S S C S S C S S S S A A S S A A S A D A A A A A A D D A D A D D D A D D D D D D Z D D D Z D Z Z D D Z Z Z Z Z Z Z Z G Z G Z Z Z G G G G G G G G G G G G F G G G J J G F F F J F J F J H F F H F H H F H H H H H H H H H ! ! H H H H U H H U H H U U H H U U U U ! U U U U U U ! U U U U U T U U T U T T U T T U T T T T T T Y T T T Y Y Y T Y Y Y Y Y Y Y Y Q Y Y Q Y Y Q Y Q Y Q Y Q Y Q Q Q Q Q Q Q Q Q Q R R Q Q R R R R Q R R R R R R W R W Q W W Q Q W W W W W W W W W W W W W W W W W W W E E W W E E E E E E E E E E ~ E ~ E ~ E ~ E ~ ~ E ~ ~ E ~ ~ ~ ~ ~ ~ ~ ~ ~ ~ ~ ~ ^ ~ ^ ~ K ^ ~ ^ ^ ~ ^ K ^ ^ K ^ ^ K K K K K L ^ K L L ^ L K L L L L K L L L L L L L L L L L L L I L L I L I L I L L I I L I I I I I I I I I I I I I I P P I P P I P I I I P P P P P P P P P P P P P P P P P P P P P P P P P P P P P P ",
". . . . . . . . . . . . . . . % . . . % % % % % + % % % % % % % % % + % % + % + + % X X % % + + + + + % + X X # + # + # + # + # O + # + # X O O # # # + # # # # # # # X # # # @ # # O # @ # @ # @ @ o o # @ @ @ @ @ @ @ @ 6 o @ 6 @ @ @ @ 6 @ 6 5 6 @ @ @ 5 @ 6 6 6 6 6 6 & & & 6 - - 6 6 5 & & - 5 & - & & - & - & - - - & - : & & : & : & : & : : : : : : : : ; : = = = 3 ; : ; ; 3 3 3 ; * ; ; ; ; ; * 2 2 * 2 ; ; 2 2 < 2 2 2 2 < < < 2 2 2 2 4 2 4 4 < 4 4 4 4 4 4 1 4 4 4 < , 4 , , 4 > > 4 , , , > , , > > > B > > B , B , m , , m B m m N > > N m N m n N N N N , 7 N N N n N n n N 7 n V n N V V V M V M V V M V M 8 M M M 8 8 M 8 7 8 8 7 7 8 7 7 8 w 7 8 8 7 8 w 8 w w 8 t w w t t t q w t w q t t q r r r r r q e q r q q e e q e e x r q e e r y y e e z x z e e x x z 9 y 9 9 9 9 x j j 0 f 9 0 f f 9 f f f l l 9 f f j l h f g f h l l h h h h k l h g h g g g g k r.N.N.n.g c k g k c k u k k c c c c c c c c u c c d c u u c d c d d u p u u u u u u M.N.N.8.p p p d d p i p d.N.N.a.i p ` i i i i i ` ` i i _ _ i _ ` ` _ _ _ _ _ / _ _ / / _ / _ ..N.N.N.../ _ ) _ ) / / ) b.N.N.3.) ) / ) ) ) ) ( ) ) ( ) ( ) ( [ ( ( ) [ [ b.N.N.5.[ ] [ ] ] ] ] ] ] ] ] ] ] ] C ] ] ] ] C { { C ] { { { C { C C C C { C C C C C C C C S C S S C S C S S S S S S S S S S S S A A S S A S A A A A A A D A A D A A A A D D D D D D D D D Z D D Z D Z Z Z Z Z D D G D Z Z Z Z Z G Z G G G Z Z G G G G G G G F F G G F G F F F F G F F J F F F F H F H H F H H H H F H H H H U H H H ! ! ! ! H H U H U U H H U U H U H U ! ! ! ! ! U U U U U T U U U T U U T T U T T U T T T T T T T T T Y T T T T T Y T Y T Y Y Y Y Y Y Y Y Y Q Y Q Y Y Q Q Q Y Q Q Q Q Q Q R Q R Q R Q Q Q Q Q R R R R R R R R R R R Q W W R W W R W R W R W W W W W W W W W W E W E W W E W E E W E E W E E E E E E E E E E E E ~ E E ~ ~ E ~ ~ E ~ ~ ~ E ~ ~ ~ ~ ^ ~ ~ ~ ~ ^ ~ ~ ^ ~ ^ ^ ~ K K ~ K ^ ^ L K L K L K ^ L K K K L ^ L K L L L L L L L L L L L I L L I L L L I L I L I L I I L I I I L I L I I I I I I I P I I I I I I I I I P P P P I I P P P P P P P P P P P P P P P P P P P P P P P P P P P ",
". . . . . . . . . . . . . . . . % % % % % % . . + % % % % % % % % + % % $ + % + + % + % + # % % + + + + + % + + + # X + + + + # + + + # # # + # # + # # # # # # # # @ @ # # # # @ O O @ @ O @ @ @ # # @ @ o @ @ @ @ @ @ @ @ o @ @ 6 @ 6 6 6 @ 6 @ 6 6 6 6 6 6 5 5 6 6 6 6 6 6 6 6 - 6 - 6 6 - & - & - - - - - - - & : - - : & : 3 & & : & 3 : : : : : : : : : 3 = : = ; = = : * ; = : 3 3 * * ; * * ; 2 2 * * ; * 2 2 2 < ; 2 < 2 < < < < 2 4 1 4 < < < < 4 < 4 4 < 4 4 < , 4 4 , , 4 4 4 4 , , , > , > > , > > , > > > m , , B m , , N m m , m m N m m m m n N N N N n n n N n n N N N n n N n n M M N V N M V V V V M M M M M 7 7 V V M V 7 7 8 7 7 8 7 7 8 7 7 w w 8 w 8 w w w w w 8 t t t t w q t q t q t q t q q r q q r q r e q q e r r e q e q e e e r x z e e y y 9 z y y y 9 9 x 9 0 x f z z f f f 9 f 0 f f f f f f f f j h f f l h f h h h h l h l h h g l g g l g g k m.N.N.q.k k k g c k c u k c k k c c c u c u k c d c d c d c d u u u u u u u p p p p c.N.N.e.d p p p p p i i b.N.N.1.i ` p i i p _ _ p i _ i _ i _ _ _ _ _ _ _ _ _ _ _ _ _ _ / / / 4.N.N.b./ / ) ) _ _ ) /  .N.N.N. .) ) ) / ) ) ) ) [ ( ) [ ( [ ( ( [ [ ( [ [ M.N.N.;.] ( ] [ ] ] ] ] ] ] ] ] C ] ] C ] C { ] C ] ] C { { { C { { { C { C { C C C C C C C C C S C S C C S C S S S S S S S S S S S A A A A A S A A A A A A A D A A D D A D D A D D D D D D D D Z D D D D Z D Z G D Z G Z Z G Z Z Z Z Z Z G G G Z G Z G F G G G G J G J G F F G F F F F J F F H F F H F F H J H H H H H H H H H ! ! H H ! H ! ! H H H ! H U U U ! ! U H U ! U U U U U U U U U U U T T U T U U T T T T T T T U T T T T T Y T T Y Y T Y Y Y Y Y T Y Y Y Y Y Q Q Y Y Y Q Q Q Q Y Y Q Q Q Q Q Q Q Q Q Q Q R Q R R R R R R R R R R R R W W R Q W W Q Q W W W R W W W R W W W W W W W W W W E E W E E W E E E W E E E E E E E E ~ ~ E E E E ~ E ~ E ~ ~ ~ ~ ~ ~ ~ ~ ~ ~ ~ ~ ~ ^ ~ ^ ^ ~ ^ ^ ~ ^ ^ ^ ^ ^ ~ K ~ ^ K K K ^ K K K ^ L ^ L K L L L L L K L L L L L L L L L L L L L L L I L I L L I I L I I L I I I I I I I I I I I I I I I I P P I P P I P P I P I P P P P P P P P P P P P P P P P P P P P P P P P P P P P ",
". . . . . . . . . . . . . % % . % . . . . % % % %   % % % % % + % % X % + % + % % + % X % X + + % + + + + + # + + X % # + # + X + # + # + + # + + # + O + # # # # # # # # # # # O @ # O @ # # @ @ o @ # @ @ o @ @ @ @ @ @ 6 @ 6 @ @ 6 @ @ 6 6 @ @ 5 6 6 @ 5 @ 6 6 6 6 6 - 6 6 6 - 6 - 6 6 & & 6 - & - 5 - - & - - - : - & : & - & & : & & : : & - : : : : : : : : : 3 : ; * = * * : ; ; ; = ; * * ; ; ; * 2 * * 2 2 ; 2 2 2 ; < 2 * < < 2 2 < < 4 < 4 4 < 4 4 < 4 < 4 4 4 4 1 1 4 4 4 , , 4 > 4 4 , , 4 > > > B , > B > , > B , , m , N , , B m m m m m m N > N N > n > N n n N m N N N 8 N 7 n n N n V n V M N M V M M M M 7 M V V M 7 8 7 V 8 7 8 8 7 7 7 7 w 8 w 7 w 8 w 8 w w 8 w w t w t t w q t t q t r q q q q r q q q y r r r e q e r e x r e e e e x e z y 9 e z x e z 9 9 9 9 9 z 0 9 9 0 f 0 9 f f f f f 9 l l f f f h f f l h j j g f l l h h h h g g l g l g g l g -.N.N.M.b k k c g c g c k k u c u k u c c c c u c c c d c c c u u u u u u p u u u u u z.N.N.e.d p p p p p p d N.N.N.O.i p i i p _ i i _ i i _ i _ i i _ ` _ _ _ _ _ _ _ / / _ _ _ _ p.N.N.h./ / ) _ ) ) / ) :.N.N.M./ ) ) ) ) ( ) ) ) ) ) ) ) ) [ ) ( ( [ ] [ >.N.N.M.] [ ] ] ] ] [ ] ] ] ] ] { ] ] ] ] ] ( ] C ] ] C ] { { { { C { C { C C C C C C C C C S C S S C C S S C S S S S S S S S S S S A S A A S S D S A A A A A D A A D D A A D D D D D D D D D Z D D D Z Z D Z Z Z D G Z Z Z Z G Z G Z G G Z G Z G G G G G G G G G F G G F F G F F F F F F J H F J F H J F H F H H H H H H H H H H H H ! H H ! ! H U U H U U H U ! ! ! ! ! U H U ! U U U U U U U U U U U U U T U T U U U T U T T T T Y T T T Y Y T T Y Y Y T Y Y Y Q T Q Y Y Y Y Y Q Y Q Y Y Q Q Q Q Q Q Q Q Q Q Q Q R Q R R Q Q R Q R Q R R Q R R R R R R W Q W W W W W Q W W Q W W W W W W W W W W E W W W E W E W E W E E E E E E E E E E E E E ~ E ~ ~ ~ E ~ ~ E ~ E ~ E ~ ~ ~ ~ ~ ~ ~ ~ ~ ~ ^ ~ ~ ^ ~ ~ ~ ^ ~ ^ ^ K ^ ^ ^ K K ^ K L ^ ^ K L ^ L K L ^ K L L L L K L L L L L L L L L I L I L I L I L L I I L I L I I I L I I I P I I I I P P I I I P I I I P I P P P P P I P I P P P P P P P P P P P P P P P P P P P P P P P P ",
". . . . . . . .   . . . . . . % % . . %   % % % % % % % + % % % % + % % + % % + % + + + % + + % + + + + + + + + + + + # + + # + # # X # + # O # X + # # # + # # # @ X # # # # # # # # @ O # @ # # @ # o @ o o # @ @ @ @ o o @ @ @ 6 6 @ 6 o 6 6 6 @ 6 6 o 6 o 6 6 6 6 - 6 6 6 - - 6 6 6 & - 6 & - - - - - - - - - : & & & & : & - - 3 & - : & & 3 : : : = = : : : = : = = : ; : * ; * ; = * * ; 2 ; * ; ; 2 * 3 2 ; 2 < 2 2 ; < 2 < 2 2 < < < 4 2 < < 4 < < < 4 4 < 4 4 4 1 4 1 4 4 1 > 1 > 4 4 > , > 4 > , , , > , m > , B , B m m , N , m B B m , N B > N n N N N N N n n m N N N N n n 7 N n n M N M M n M M N M V V M M M 7 8 V V 8 M 7 7 8 V 7 7 7 t 8 7 7 8 8 w 8 w w w 8 w w w 7 t t t t t t q q w q w t q q r q r q q q q q q e e e q r x q e x e e y y e x e e y 9 9 y 9 z z z z j 9 f 9 x z f j f z j f 9 f f f f f f l f f h f h l h h h h h h h l h l g l g g l g g s.N.N.j.k g c g g c k k c c c c c c c c c c u c c c d c c u c c u u u u d c d u p u p j.N.N.e.p p p p p p i %.N.N.m.i p i i p i i ` i ` p ` _ i _ i i _ i _ _ _ _ _ _ / _ _ / _ _ _ c.N.N.y./ / ) _ ) / ) _ y.N.N.k.) ) ) ) ) ) ) ) ) ) ( ) [ ) ) [ [ [ ( ( ( i.N.N.k.] ] [ ] ( ] ] ] ] ] ] ] { ] ] ] { ] { ] ] C ] ] C ] ] C C { C { { C { C C C C C C C C S C C S C S C C S S C S S S S S S A A S A S S S A A A A A A A A A D A D A A A D A D A D D D D D D D D D D Z Z Z Z Z D G D G D G D G D D G G Z G G G G G G G G G G G G G F F G J G F F F F F H F F H F H J H H H F H H H F H H H H H U H H H H H H H H U U H U ! U U ! U ! U ! U U U ! ! U U U U U U U U U T U T U T T T U T T T T T T T T T T Y T T Y T Y Y T Y Y Y Y Y Y Q Y Y Q Y Q Y Y Q Y Q Q Q Q Q Q Q Q Q Q Q Q Q Q R Q Q R Q R R R R R R R R R R R R W W R R W W R W W W W R W W R W W W W W W W W E W E E W E E E E E E E E E E E E E E ~ ~ ~ W E ~ E ~ ~ ~ ~ ~ E ~ ~ ~ ~ ~ ~ ~ ~ ~ ~ ~ ~ ^ K ~ ^ ^ ~ K K ^ ~ K K ^ ^ K ^ ^ K K K K K L L ^ K L K L L L L ^ L L L L L L L L L L L L L L I L I I L I I L I I I L I I I I L I I I I I I I P I P I P P I I P P P P P P P P P P P P P P P P P P P P P P P P P P P P P P P P P P ",
". . . . . . . . . . . . . % . . . % % . % % % % % % % %   % % % % + % % % + + + + + % % + + + + + + + + + + + + + + + + + # + + + + # + # X + # # # + # # O # # # # # # # O # # @ # O @ @ @ # @ # @ o @ @ @ @ @ @ @ 6 @ @ @ @ 6 @ o @ 6 @ 6 o @ 6 5 o 6 6 6 6 6 6 6 6 5 6 5 6 6 6 - 6 & 6 6 & - 5 - - - 6 - - - - - - : - - & & 3 & - - = : : = & 3 : = : : = : * ; ; : ; = = ; : ; * ; ; * ; ; ; * 2 ; 2 ; * 2 ; < 2 ; 2 ; 2 < 2 2 < 2 < 2 2 2 < 4 4 < 4 4 < 4 1 4 4 4 1 1 4 1 4 4 , 4 1 4 > , , 4 > , > , , > , > , , B > , B B , , , B m B m , N N B n N > N N > m n N n n n N n n N n n N N M n M N n M n V V V M M V V M V M 7 V 7 8 M 8 8 8 7 7 8 7 7 7 t w 8 8 w w 8 w w 8 w w w t t t t t t t w q w q t w r q r q r r r x q e r q q e e r e e e e e x e e e y x e 9 e 9 e z 9 z 0 z 9 z 9 f f z z j z j j f f f f f l f f f l f h l f h f h h h h h h g l g g l g g g l n.N.N.7.v g g c g c c c c c c g k c c c c c c c c u c u d c d u u u d u u u u d p u u j.N.N.e.p p p p p p p e.N.N.z.i p i i i i i i ` i ` ` i _ i _ _ _ _ _ _ _ _ _ _ _ / _ _ / ) _ M.N.N.:./ _ _ ) _ ) ) ) k.N.N.y./ ) ) / ) ) ) ) [ ) ) [ ) [ [ [ ) [ ( ( ( h.N.N.y.] [ ] ( ] ] [ [ ] ] ] ] ] ] { ] ] { ] C ] ] C C ] C C C ] { C C C { C { C C C C C S C C C C C S C S S S S S S S S S S S A S S A S A A A A A A A A A D A A A D D A D D D D D D D D D D D Z Z D D Z D Z D Z G D Z Z G D G Z G G D G G Z Z G G G G G G G G G F G G G G F F F G F F F F F F F F J F H F H H H H H H H H H H H H H H H H H U U U H ! H H ! U H ! ! ! U ! U ! U U U U U U U U U U T U U T U U T U T T T T T T T T T T T T Y T Y Y Y T Y Y Y T Y Y Y Y Y Y Y Y Y Y Y Q Q Q Y Q Y Q Q Q Q Q Q Q Q Q R R Q Q R Q R Q Q R Q R R R R R R R R R R R W W R W R Q W W W W W W W W W W W W E W W W E W E E W W E E E E E E E E E E E E E E E E ~ ~ ~ E ~ ~ E ~ ~ ~ ~ ~ ~ ~ ~ ~ ^ ~ ^ ~ ~ ^ ~ ~ ^ K ~ ^ ~ ^ K ^ K ^ ^ ^ L K L K ^ ^ K ^ L L K L L K L L L L L L K L L L L I L L I L I L I L L L I I L L I I I L I I I I I I I I I I P I I I I I I I P P I P P P P P P P P P P P P P P P P P P P P P P P P P P P P P P P P ",
". . . . . . . . . . % . . . . . % . % % . % %   % %   % % % % + % % % + + + % % % + + + + + + + % + + + + + + + # + + # + + + # + # + # + # + # # # # # X # # # # # # # # @ # O # # @ O # # @ @ @ @ @ @ O @ @ @ @ @ @ o 6 @ @ @ 6 @ 6 @ o 6 @ 6 6 5 6 6 6 6 6 o o 6 6 6 6 5 6 6 6 6 & 6 6 & 6 - - - - 5 - - - 5 & & - - : : - : - - 3 - - = : : = : : - : = : = : : = = ; 3 : ; 3 ; = ; 3 ; * ; * ; ; ; 2 3 * 2 < ; 2 ; 2 2 2 < < 2 2 2 2 4 2 1 < 4 < < < 4 4 4 1 2 1 1 1 4 1 4 , 1 , 1 > 4 1 > , , , , , , > > , > m , > , > , , , N , B B m m m N , N n > N > N N N N n m n n N n N n N n N 7 N V N V N M V V V V V M M V M M M 7 8 V M 7 M 7 7 8 8 7 8 7 7 7 w 8 8 w 8 w w 7 w w w w t q w w q w t q q q t q q q r q q q q r e r q q x q r x e r r e e e e e e 9 x y e 9 9 9 9 z 9 9 x x 9 j 0 z f j z f f f 9 f f f l f f f l f f l h f h f h f l l h h h g g l h g g l g *.N.N.N.b k g g g c g g k k c c c c c v v c c c c c c u c d c c d u u u u d u u u u p u j.N.N.e.p p p p p d d k.N.N.e.i i p i i i i ` i ` ` i _ i _ i i _ _ _ _ _ _ _ _ _ _ / _ / _ :.N.N.M./ / ) ) _ ) _ _ ) m.N.N.<.[ / ) ) ) ) ) ) ) [ [ ) ) ) [ ) [ [ ) ( ] b.N.N.5.] ] [ [ ] ] ] ] ] ] ] ] ] { ] { ] ] { { ] ] C ] C { { ] C C { { { { C C C C C C C C C C C C S C S C S S C C S S S S S S S S A S A A A A S A A A A A A A D D A D A A D D D D A D D D Z D D D D Z D Z D Z D D D Z D Z G Z G Z Z G G G G G Z G G G G G G G G G F G F F G F G F J F F F F F F H F J H F H F H F H H H H H H U H H H U H H H H H H U H U H H U ! U ! U U U U U U U U U U U U T U T T U T U U T U T T T T T T U T T T T T T T Y T Y T Y Y Y Y Y Y Y Y Y Q Y Q Y Y Y Y Y Q Q Q Q Q T Q Q Y Q Q Q Q Q Q Q R R Q R R Q R R Q R R R R R W W W R W R W R W W W W W W W W W W W W W W W W E W E W E W W E E E E E E E E E E ~ E ~ E ~ ~ E ~ E ~ ~ E E ~ ~ ~ ~ ~ ~ ~ ~ ~ ~ ~ ~ ^ ~ ~ K ~ K ^ ~ ~ ^ ^ ~ ~ K ^ K K K K K L ^ ^ L K L ^ K ^ L L L K L L L K L L L L L L I L L L L I L L L L I I L L I I I I I I I I I I I I I I I I I I P P I I P I P I P P P P P P P P P P P P P P P P P P P P P P P P P P P P P P P P P ",
". . . . . . . . . .   . . % . % . % . % % % % % % % % % % % % + % + % % % % + $ + $ + % + % + + + + + + + + + + + + + + + # + # X X O + # + # # + # + # # # # # # X @ # # # # @ # # @ # # O @ @ # @ # @ @ @ @ @ @ @ @ o @ o 6 o 6 o o o 6 o 6 o @ @ 6 o o 6 6 6 6 6 5 5 6 6 6 6 & - 6 6 & 6 6 - - 6 - - - & - & & : - - - - - : - 3 - - : & : - & : = : : = = = * : ; : : : ; = = : 3 * 3 ; ; * * ; 2 * * * 2 * ; < ; < ; 2 ; < < 2 2 2 2 < < < 4 < < 4 < 4 4 < 4 1 4 1 4 4 4 4 4 4 4 4 4 > , 4 > 4 > 4 , , > , , , , , , m B m m N , m m , B m , , m m n > n N > N N > N n m n n n n n N N N n V N V N V V n V n M M V V 8 M 8 M M V 8 V 8 7 7 8 M 8 7 7 t 7 7 8 8 w 8 w 8 8 w w 8 w w w q w w q q t q q t q q r r r q r q q e r q r e q e q r e e e e e e y e e y z y 9 e 9 z y z y 9 9 9 9 z j 9 0 z f z f f f f f f f f f f f f l f l f f h l h l h h h h h l g l g g g g 9.N.N.b.g g g g c g c k c c k c g k c c c u c c u c c c d c c u u a u u u c d u d u u p j.N.N.e.u p p p p p p b.N.N.%.i i i i i i i i ` i _ i i _ _ _ _ i _ _ _ _ _ / / _ / _ _ / _ y.N.N.b./ / / / ) / / ) ..N.N.N. .) ) ) ) ) ) ) ) ) ) ) [ ( [ [ [ [ [ [ [ X.N.N.N.X.[ ( ] ] [ ] [ ] ] ] { ] ] ] ] { ] { ] { { C ] C ] ] { C ] { { C C C C { C C C C C C C C S S C S C S C S S S S S S S A S S S S A S A S A A A A A A A D A A A A A D A D D A D D D D D D D Z D Z D Z D Z Z Z G Z Z G Z G D Z G G Z Z Z G Z G Z G G Z G G G J G F G F G F F F G F F F F F H F F H H F H H H J H H H H H H H H H H H U H U U H H U H U H U H U U ! ! ! H U ! U U ! U U U U U U U U U U U T U U U T U T T T T T T T T T Y T T T T Y Y Y T Y Y Y Q Y Y Y Y Y Y Q Y Q Q Y Q Y Y Q Q Q Q Q Q Q Q Q Q Q R R Q Q R Q Q R R R R R R R R R R R R R W R R W R R R W R W W W R W W W W W W E W W E W W E E E W E E E E E E E E E E ~ E E E ~ E ~ E ~ E ~ E ~ ~ ~ ~ E ~ ~ K ~ ~ ^ ~ ~ ~ ~ K ~ ~ K K ~ K K ^ ^ ^ K ^ K K K ^ K ^ L K ^ L K L K ^ K L L ^ L L L L L L L L L L L L I L L I L L I L I I I L I L L I I L I I I I I I I I I I I I P P I P I P I P P P P P P P P P P P P P P P P P P P P P P P P P P P P P P P P ",
". . . . . . . . . . . . . % . . % . % %   % %   % % % % % % % + % + % + % + % + $ % + + % + + + + + + + + + + + + + + + X % + # # + # + # + + # # O # + # # # O # # # # @ O # @ # @ @ O # # # @ # @ @ O @ @ o @ o @ @ o @ @ 6 @ o 6 @ 6 6 @ 6 6 6 6 6 6 6 o - o 6 6 6 - 6 6 6 - 6 - 6 6 & 6 - & - 6 - - & - - & : & - : - & & = - 3 = = - : - : : : : : - 3 3 : : : ; : = * ; ; ; 3 * 3 3 ; * ; * * * * * * * 2 ; 2 ; < 2 2 < ; 2 < 2 2 2 < 4 2 2 < 4 2 4 < 4 4 4 4 < 4 4 4 4 1 > , 1 4 1 , 1 > > 4 , 4 > > , , m , , > > B m , , N > , N m m m N , , N N , , N n N n N n N n n n n N N N n N N n n M n n M M n V V M M V V 7 M 8 V V 8 V 8 M 8 7 8 7 7 7 7 t 8 8 w 8 w w w w 8 w 8 w w w w w w w q q t q w q q t q q r q r q y r r e r e r e e e q e e e e e x y y e x 9 e z z z x z z x 9 0 z 9 f 0 9 f j 0 f f f f f f l f f l f f l f h h h l l l l l h h g h h l l g g g s.N.N.s.g k g g g k k c g c g c c c v v c c c c c d c u c d c u c u u u a u u d u p p p k.N.N.0.p p p p p i O.N.N.N.O.i p p i i i i i i i i i _ i i i _ _ _ _ _ _ _ _ _ _ _ _ / _ / p.N.N.p._ / / / / / / _ 3.N.N.b.) ) / / ) ) ) ) ) ) ) ) ) ) ) [ ) ) ( ( [ 2.N.N.m.[ ] ] ] ] ( ] [ ] ] ] ] ] ] ] ] ] ] { { ] { ] C { { C C C ] C { C { C C S { C C C C C C S S C C C S S S S S C S S S S S S A A A S A S A A A A A A A A D A A A D A A A D D D D D D D D D D D Z D Z D Z Z Z Z D Z Z G D G G Z Z G G Z G G Z G Z G G G G G G G G F G G F J F F J J F F F F J J F H F H F H H F F H H H H H H H U H H H H H H U U H H U U H U U ! ! U ! ! U ! U U U U U U U U U U T U U T T U T T T U T T T T T T T T T Y T T Y Y T Y Y Y Y Y Y Y Y Y Y Y Y Y Y Q Y Q Y Q Y Q Q Q Q Y Q Q Q Q Q Q Q Q Q R R Q Q R R Q R R R R R R R R R R R R W R W W W R W W W R W W W W W W W E W W E W E E W W E E E E E W E E E ~ E E ~ ~ E E E E ~ ~ E ~ ~ ~ ~ ~ ~ ~ ~ ~ ~ ~ ~ ~ ~ ~ K ~ ^ ^ ~ K ~ ^ ^ ^ ~ ~ K K K ^ ^ K K K L ^ L ^ K L L L K L L L L L ^ K L L L L L L L I L L L L I L I L I I L I L I L I I I I I I I I I I I I I I I P I I I P P P I P P P P P P P P P P P P P P P P P P P P P P P P P P P P P P P P P ",
". . . . . . . . . . . . . . . % . % % .   % % % % % % % % + % % % % % % % + $ + + + + % + + % + % + + % + + X X + # + # X # + X # + X + X # # + # X O # # # + # # # # # # # # # # # @ # @ # # O @ @ @ @ @ @ # @ 6 @ @ @ @ @ @ o @ @ o @ o 6 @ 6 6 o 6 o 6 6 6 6 6 - 5 6 & 6 6 6 6 6 6 & 6 & 6 - 6 - - - & & - & - & - & - - = - - - & & 3 - : : : = : 3 : = = : * : : * * = : : ; = * ; = ; * * ; * 2 * 3 2 * 2 2 < < ; ; < < 2 2 2 < 2 < 2 < < 4 4 2 4 4 < 4 4 4 < 4 4 1 4 4 , 1 1 4 , > 4 > , > , , , , , > > , > , B , , , B , , N , N , , m m N N , N N n n > n N N n > N m N n N 7 n N N 7 M M N V M M n M V n V V V M V M M 8 7 M 8 8 8 7 8 8 7 7 7 7 8 t 8 w w 8 w 8 8 w w w w w w w w w w w q t q w q t r q q q r r q r q x r e q e q e e e r e e e y e y 9 e y x y y y x x x y 9 z z z 9 0 f f 9 j z f f f f f f f f f f l f l l f f h l l l l h k h l g h g g l l g x.N.N.q.g g c c g c c g c c c g c c c c c c u c c c c c a u u u u u u d a u d a u p u u b.N.N.1.p d d p p p 1.N.N.v.p i i i i i i i _ i _ i _ i i _ _ i _ _ _ _ _ _ _ _ / _ / _ / _ b.N.N.4./ / ) / ) / / ) y.N.N.j./ ) ) ) ) ) ) ) ) ) ( ] ( ) [ ) [ [ [ [ [ i.N.N.k.[ ] [ [ ] ] ] ] ] ] ] ] ] ] { ] { ] { ] { { { ] { ] ] C ] C { { { C { { { C C { C C C C C C S S C C C S C S S S S S S S S S S S S A S A A A A A D A A A A D A D D D D D A D A D D D D D D Z Z D D Z D Z D Z D Z Z Z Z Z Z Z Z Z Z G Z G G G G G G G G G G J G G G F G G G F J J F J F F H F H J F H H F H H H H H H H H H H H H U H H U ! ! H U H U H U U H ! U ! U U ! U U U ! U ! U U U U U U U T U U T T T U T T U T T U T T T T Y T T T Y Y T T Y T Y Y Y Y Y Y Q Y Q Q Y Q Y Q Y Q Q Q Q Y R Q Q Q R R R Q R Q Q Q R R R R R R R R R R R R W R R W W R W R R R W W R R W W W W W W W W W W W W E E E W E E W E E E E E E E E E E E E E ~ ~ E ~ E ~ ~ E E ~ E ~ ~ ~ ~ ~ ~ ~ ~ ^ ~ ~ ~ K ~ ^ ~ K ~ K K K ^ ^ K K ^ K K ^ K K ^ ^ L K ^ K K L K K ^ L L L L L L L L L L L L L I L L L I L I L I L L I I L L I L I I L I I I I I I P I I I I P I I I P P I P P P P P P P P P P P P P P P P P P P P P P P P P P P P P P P P ",
". . . . . . . . . . . . . . . . % . % .   % % % % % % % % + $ % % % % % + % $ $ % + + % + % + % + + + + + + + X + + % + X # X # # # # + # + O # # # + + # # # # # # @ # @ # # # # # @ @ @ @ @ @ @ # o @ # @ @ @ @ @ @ o @ @ @ @ - o 6 o 6 @ 6 @ o @ o 6 - o o 6 & 6 6 6 6 6 6 6 6 - 6 & & 6 6 - - 6 - - - - & & - - : - : - & : - & 3 3 & = : & = : : & - = : : : : ; : : 3 : 3 = * ; : ; ; ; ; ; ; 2 * 2 ; * 2 ; ; 2 ; 2 2 2 2 2 < < 2 4 < 2 4 < 2 2 2 2 4 < 4 4 1 1 1 1 4 4 1 4 1 1 > 4 > 4 1 , 4 > , , , , > , > , , > m m > N m , m > , m m m , N N , > n N N m N N N N n N N N N n n 7 N n V n M n N M M M V M M M M M V V 7 M M 7 8 V 8 7 8 M 8 7 7 t 8 7 w 8 w w 8 8 w 8 w t w w w w w q w t w w q t q q t q q q q q q r q e q r e e r q e e e e e e y y y e 9 9 e z 9 z y z 0 z 9 z z f 9 f j z 9 f j f f f f f f f f f f l f l f h l f l l h h h h g h l g h h g g g M.N.N.6.g g g g g g v c g g c c c c c u c v c c u u u c c c c u c c u u u u u d d u u p M.N.N.&.u p p p p p e.N.N.d.i p i i p i i i i ` i _ i i _ _ _ _ _ _ _ _ _ _ _ _ _ _ _ _ / ' N.N.N.:./ / / / / / ) / k.N.N.y.) ) / ) ) ) ) ) [ ) ) [ [ [ [ [ [ ) ( [ [ k.N.N.i.] ( ( ( ] [ ] ] ( ] ] ] ] ] ] ] { { ] { { ] { ] { C ] C C { { C { C C C C C C C C C C C C S C C C S C S C S S S S S S S S A A S A S S A A A A A A A A D A D A A A D A D D D D D D D D D D D Z Z D Z Z D Z Z G G Z Z Z Z G G G Z G G Z G Z Z G G G G G G G F G F F G F F G J F F F F H F F H F H F J F H J H H H H H H H H H H H H U H ! H H H U H H ! ! H H ! ! ! ! ! U U ! U U U U U U T U U U U U T U T U U T U T T T T T T T T T T Y T Y T Y T Y T Y T Y Y Y Y Y Y Y Y Y Q Y Q Q Y Q Q Q Y Q Q Q Q R Y R Q Q R Q Q R Q R Q R R R R R R R R R R W W R R R R W W R R W W W W R W W W W W W E W E W E W W E W E E E W E E E E E ~ E E ~ E ~ E ~ ~ E ~ E E ~ ~ ~ ~ ~ ~ ~ ~ ~ K ~ ~ ~ K ~ ~ ~ K ~ ^ ~ K K ~ K K K ^ ^ ^ K ^ ^ K K K L K L K L L ^ ^ L L K L L L L L L L L L L L L L L L I L L L I L I I L I I I L I I I I I I I I I I I I P P P I P I I P P I P P P P P P P P P P P P P P P P P P P P P P P P P P P P P P P P ",
". . . . . . . . . . . . % % % . % % . % %   % % % % % % % % % % + % + + % + + $ + + % + + % + + + + + + + + + # + # X # + # + + + + X # X # # + + # # # + # # # # # X # O # # # @ # O # # @ O @ O @ # @ @ @ @ @ @ @ @ o o 6 o o @ o 6 @ @ 6 @ 6 6 6 6 6 o 6 6 6 6 6 6 6 6 6 6 & 6 6 - 6 - 6 - 6 6 6 - - - - - - - & - & : & - : 3 - - - = - : : - = : : 3 = : : : : : : 3 : : ; : ; * ; ; ; ; ; ; 3 ; * * * 2 3 < ; ; < 2 ; 2 < 2 2 < 2 2 2 2 2 2 4 4 2 4 2 4 4 < 1 1 4 1 1 4 1 1 , 4 1 , 4 , , , > > , , > > , > > B > B , , B , , N , m m m m , N N , N N N > N N N > N N N n N N n n n n N n n V N M V N V M V V M M V V V M M 7 M M M 8 V 7 7 8 8 8 7 7 7 7 8 8 8 w t 8 w w w t 8 8 w w w q t t w q q q t w q r r q r e q q r r e r e q e e r e e e e e e y e 9 e y z e e y z z 9 9 9 z z z z z z f z f f z f f f f f f f h f f f h l l f h h l l h h l h h h g h g g g l N.N.N.@.g g k c k v g c g c g c c c c k c c c u k c c a u u u c d d u a u u d u u u p O.N.N.N.p p u p p p p k.N.N.0.i i p i i i i i i i i i _ _ i i i _ _ _ _ _ _ _ / _ _ / / _ / <.N.N.N./ / / / / ) / / ) M.N.N.;.) ) / ) / ) ) ) ) ) ) ) ) ) [ ) [ ( ( [ [ M.N.N.>.] [ ] ] ( ] ] ] ] ] ] ] ] ] ] ] ] ] { ] ] { ] C { ] C ] C { { { C { { C { C C C C C C S C C C S S C S C S S S S S S S S S S S S S A A A S S A A A A A A A A D A D A D A D D D D D D D D D D D D Z D D Z Z Z D D Z Z Z Z Z Z Z G Z Z G G G G G G G G G G G G F G G F G G F F G F F F J F F F F F H H J H F H H H H H H H H H U H H H H U H U H H U ! ! ! ! ! ! ! U U ! ! U ! ! U U U U U U U U T T U U T U T T T T T T T T T T T T Y T T Y T T Y Y Y Y Y Y Y Y Y Y Q Y Y Q Y Y Q Y Y Q Q Y Y R Y Q Q Q Y Q Q R Q Q Q R Q Q R R R Q R R R R R R R R R R R W R R W R W R W W R W W W W W W W W W W E E W W E W E W W E E E E E E E E E ~ E E E E E E E ~ ~ E ~ E ~ ~ E ~ ~ ~ ~ ~ ~ ~ ~ ~ ~ K ~ ~ ^ ~ ^ ~ ~ ^ K ~ ^ ^ K K K ^ L K K ^ ^ K ^ L K ^ L L K L L ^ L L L L L L L I L I L I L I L L I I L I L L I L I I I I I I I I L I P I I I I I I I P I P P I I P P P P P P P P P P P P P P P P P P P P P P P P P P P P P P P P P ",
". . . . . . . . . . . . . . . . . % . % . % % % % % % % % % + % % $ % % % + + % + + + + + + + + + + % + + + # % X + + # + + # # + # + # # + # + # # X # # # # # # # # # O O O @ # @ o # @ # @ # @ @ @ @ # @ @ @ @ @ @ @ @ 6 @ 6 o 6 @ 6 @ 6 @ 6 6 @ 6 6 6 6 6 6 6 6 5 6 5 5 - 6 - 6 - 6 - 6 - - 6 - - 5 - - - - - - & - & - : - : & - - - : : : = : : : = : = : * : = ; ; = = ; : * 3 * ; ; 3 * ; 3 * 3 3 2 ; 3 2 2 * 2 3 2 2 2 2 2 2 2 1 2 2 2 < 2 4 < 4 < 4 < 4 4 4 4 4 1 1 > < > , 1 , 1 , 1 > , 1 , , , , , , > > B , > B > m > > m > B B B m B B m m B m m N m m V m V m V m V V n N N N n n V N M N M n M 8 n M 8 M M M M 8 8 M 8 8 M 8 8 8 8 7 7 8 7 7 8 7 7 w 8 t t 7 7 q t t w w t t t q w t q r w q q q q w q r q r r r r q e q q q e q e y q e e y y y z 9 y e 9 9 y y z 9 9 z 0 f z f 9 f z z f f 9 f f f f f f f f f l f l f l h h h f h h h h g h k g h h g l @.N.N.N.g v g k v k k k c u c c k u k c c c u c c u c u u a a c a c d u u u u d d p u p 1.N.N.v.p p p p p p p M.N.N.%.i p i i i i i p _ _ i _ p p _ _ _ _ i _ _ _ _ _ _ / _ _ / / _ y.N.N.k./ / / / ) / / / $.N.N.N.) ) / ) ) ) ) ) ) ) [ / ) [ ) [ [ [ [ [ ] X.N.N.N.X.[ [ [ ( [ ( [ ] [ ] ] ] ] ] { ] ] ] { ] { { { C ] C ] C C C ] C ] C C C C ] C C C C C S { S C S { S { S S S S S S S S S S S S A A S A S A A A A A A A A A A D A A D D D A A D D D D D D D Z Z D Z D D Z Z Z D Z Z D Z Z G D D Z G Z Z G Z G G G G G G G G G G G G J F G G J H F F F F J H J H F F J H H H H H H H H H H ! H ! ! H ! H ! H U ! H ! H ! ! ! ! ! U U ! U U U U U U U U U U U T U T U T U U U T U T T U T T T T T T T T T Y Y Y Y T Y T Y Y Y Y T Y Y Y Y Y Q Y Y Q Q Y Q Q Y Q Q Q Q Q Q Q Q Q Q Q Q Q Q R Q R R R Q R R R R R W R R R W R W R W W R W W W R W R W W W W W W W E W W W ~ W W W E E E W E E E E E E E E E E ~ E ~ E ~ E ~ ~ ~ E E ~ ~ E ~ ~ ~ ~ ~ ~ ~ ~ ^ ~ ~ ~ ^ ~ ~ K ~ ~ ^ ~ K K K K K K L ^ ^ K K L K L ^ L ^ L K L L L L ^ L L K L L L L L L L L L L I L I I L L L L I I L I I L I I I I I I P I I I I I I I P I P I P I P P I P P P P P I P P P P P P P P P P P P P P P P P P P P P P P P ",
". . . . . . . . . . . . . . . . % . . $ . % % % $ % % $ % % % % + + % % % + % + % % % % % + + % + + % + X + + + # + + + # + + + + + # + X # + + X X # # # X # # # # # # # @ # # # # # @ # # @ o @ # o # @ @ @ @ o @ @ o @ @ @ 6 o @ @ o 6 @ 6 @ 6 6 @ 6 6 @ 6 6 6 6 6 6 5 5 6 6 5 5 6 - 6 - 6 - - - - - - - - - : - & : : - - - & : : = : - : : = : - = = = : : : : : : = = ; ; ; ; : * ; ; 3 ; ; * * 2 ; * 3 2 ; ; 2 2 2 2 2 2 2 2 2 2 2 2 1 < < 1 2 4 < 4 4 4 4 4 1 4 4 > 4 1 4 , 1 1 1 , 1 , 4 , > , , , , , > > > m , m > B > B m > B B B m m B m m m m N B N m N N m N m n V m V N N n M N n M V N V M M V n 8 8 n 8 M M M M M V 8 7 M 8 V M 7 8 7 7 7 7 t t w 8 w t 7 t t 7 t 7 w w t w t w w r w t q q w q q r q r r e q e y q q y e e q y e e 9 y y e y e y e y 9 e 9 e z z y 9 0 9 9 x 9 0 9 j f x f f f f f f f f h f l f l f f l h l l h h h h h h g h h h g g l *.N.N.M.g k g g v k g c k k c k u k c c c c k c u c c c u c c a u u c u u u c c d u p u e.N.N.a.p p p d d p #.N.N.M.i p i i i i p i _ p p _ _ _ _ _ _ i _ _ _ _ _ _ _ _ _ _ _ _ / / k.N.N.u./ _ / / / / / ) 4.N.N.b.) / ) / ) ) ) ) ) ) [ [ ) ) ) ( ( ) [ ) [ 5.N.N.b.[ [ ( [ ] ] ] ] ] ] ] ] ] { ] ] ] { { { { ] ] { ] C ] C ] ] C ] C C C C C C C { S C C C C S C C S C S S S C S S S S S S S A S S S S S S S A A A A A A A D A D A D A D A D D D D D D D D D D D D Z D Z Z D Z Z G G D G Z G D Z G G Z G G G G G Z G G G Z G G G F G G G G F J G F F G F F F F F F H F H H J H F H F H H H H H H H H ! H ! ! H ! ! ! ! ! ! ! ! ! ! ! ! U U ! ! U U U ! U U U U U U U U U U T T U T U T T T T T T T T T Y T T T T T Y Y Y Y T Y Y Y Y Y Y Y Q Q Y Y Y Y Q Q Y Q Q Y Q Q Q Q R Y R R Q Q R Q R R Q Q R R R R R R Q R R R R R R R W R R W W R W W W W W W W W W W W W W E W W W E ~ W E W E W E E E E E ~ E ~ E E ~ ~ E E ~ ~ E ~ ~ ~ ~ ~ ~ ~ ~ ~ ~ ~ ~ ^ ~ ~ ~ ~ ^ ^ ~ K ~ K ^ K K ~ ^ K ^ ^ ^ K K K K ^ L ^ L ^ L K ^ L L K L L L L L L L L L L L L L I I L L L I L L I I I L I I L I I I L I I I I I I I I I P I I I I I P I P I P P I P I P P P P P P P P P P P P P P P P P P P P P P P P P P P ",
". . . . . . . . . . . . . . . . . % . % % % % % % % % % % % % $ % + + % + % + % + + + X + X + + + + + + + + % # + + + + # + + + # + + # # + # # # # X # # # # # # # # # # # # # # @ # O @ # # @ @ o # o @ @ O @ o o o o @ @ @ @ o o 6 6 6 o 6 @ @ 6 o @ 6 6 6 6 6 6 6 6 6 6 6 6 5 - 6 - - 5 - 6 - - - - - - - - - - = - - - : : : - - : - : : - - : : : : : = : : : : : : 3 ; ; ; : : ; 3 3 ; 3 ; * ; 3 * 2 ; 2 2 ; 2 * 2 * * 2 2 2 < 2 2 < 1 2 < < < < 4 < 4 4 4 < < 4 4 < < 4 < , 4 , 4 , , 1 , 4 4 > , > , , > B , , > B > m m B B B B B > m m m B B N B n N N B m n m N m m m m N N V V n M V V n M M M N V 8 n M 8 n V V M M 8 M 8 8 M 8 8 7 7 M 8 8 8 8 7 7 7 8 w 7 7 w t w 7 w w w w w t w t q q r r q r t q r q r q y q r q q y y q e e y q e y y e y e e x 9 y e z 9 9 z 9 9 9 9 9 0 9 0 f f 9 9 f 0 f 0 f f f f f f f f l f l l f h f h l l l h h g h g g g g g g -.N.N.n.g g g g k k c c u k c k k c k c k u c u k u a a c a a u u u d c u u d u p u u p x.N.N.1.d p p p p d 1.N.N.z.p i p i i i i i p _ p ` p i i p _ p _ ` i _ _ _ _ _ _ _ _ / _ _ M.N.N.4./ _ ) / / / / / g.N.N.g./ / ) ) ) ) ) ) [ ) ) ) [ [ ) [ ) [ ( ( [ p.N.N.g.] [ [ [ [ ] ] ] ] ] ] ] ] ] ] ] ] ] { ] ] { { ] { ] C ] C { C C ] C C C ] C C C { C S C S C S C C S C C S S S S S S S A S S A A S A A A A S A A A A A A A A A A A A D D A A D D D D D D D D D D Z Z D D Z D Z D D G D G D Z G G Z G Z Z G G Z G G G G J G G F F G G F F F F G J G J J F F H J F F F H H H H F H H H H H H H H H H H ! H H ! ! H ! ! ! ! ! ! ! ! U ! ! ! U ! ! ! U U U U U U U U U T U T U U T T U U T U T T T T T T T T T T T T Y Y T Y Y Y Y Y Y Y Y Y Y Y Y Y Q Q Y Q Y Q Y Q Q Q Q Q Y Q Y Q R Q Q R Q Q R R Q R R R R R R R R R R W R R R R W R W R W W W W W W W W W W W W W W E W W W W E W E E E E E E E E E E E E ~ E E E ~ E E ~ E ~ ~ E ~ ~ ~ ~ E ~ ~ ~ ~ ~ ~ ^ ^ ~ ~ K ~ ^ K ~ K ^ K K ^ ^ K ^ ^ K ^ K K K ^ K L ^ L L K K ^ L L ^ L L L L L L L L L L L L I L I L I L L I I L I I I I I I I I I I I I I I I P I P I P P I I P I P I P P P P P P P P P P P P P P P P P P P P P P P P P P P P P P P ",
". . . . . . . . . . . . . . . . % . % . % . % . % $ % % % % % + % % % + % + %   % + % + % + + % + + + + + # % X + # X + + + # + + # # # + # + # # X # # X # X # # # # # # @ # # # # @ # # @ @ # # @ @ @ O @ @ @ @ @ o o @ 6 @ @ o 6 @ o @ 6 @ 6 6 6 6 6 6 @ 6 6 6 6 6 6 6 6 - 6 6 6 - 6 6 5 - - 5 - - 5 - - - - - - - & - = - & - = : - = : : = : = : : : : : : = * : 3 : = : ; 3 ; ; ; ; = ; * ; ; ; 2 * ; 2 * ; 2 2 2 2 2 2 2 2 2 2 2 2 2 2 < 4 4 < 4 < < 4 < 4 4 4 1 4 1 , , > 4 < , 1 1 , , , > > , , , , , , > > > , , B , B , > B > B B B m B B m N m m m N B N m n N V N N N n m m V n V n N N V n N V V n 8 N N 8 M 8 M V M M 8 7 M 8 7 7 7 7 8 8 7 8 w w 7 8 7 7 w w 7 w t t w w t w w t r w t w t q w r q w r q r r r e q q e r e q r e y q e 9 q 9 y e y y z e y 9 z 9 9 0 9 9 z 9 f 9 x f z j 9 f j j f j j j f h j f l f l f h f l f l h h h h h h f l g g g l -.N.N.n.g g g g c k k k k c g c c c u c u k u k u c c v a c u u u u u u d u u u u u u O.N.N.N.O.u p d d p p d.N.N.d.i p i p p i i i _ p _ _ _ _ _ _ _ _ _ ` _ _ _ _ _ _ _ _ / _ / } N.N.N..._ ) / / _ / / ) b.N.N.4.) ) ) ) ) ) / ) ) ) ) ( ) ) [ ) ) ( ( ( ( c.N.N.t.] ] ] ] ] [ ] [ ] ] ] ] ] ] { { ] { ] ] { { ] { { { ] C { { { C C C ] C C C C C C { { S { C C S S C S S S C C S C S S S S S S S A S A S S A A A A A A A A A A D D A D D D D D A D D D D D Z Z D D D Z D Z Z Z Z G D G D G G Z Z G Z G G Z Z G Z G G G G G G G G G F G F F G F F F F F F F F F F H H F F F H H H H H H H H H H ! H ! H H ! ! H ! ! ! H ! ! ! ! ! ! U U U ! U U U U U U U U U U U T U T U T U T T T T T T T T T Y T T T T Y Y T Y T Y Y Y T Y Y Y Y Y Y Y Y Y Q Q Y Y Q Y Q Q Q Y Q Q Y Q Q R R Q Q Q R R Q R Q Q R R R R R R R R R R W R W R W W R R W W R W R R W W W W W W W E W W W E E W ~ E E E W E E E E E E ~ E E E E E E ~ E ~ E ~ E ~ ~ E ~ ~ ~ ~ ~ ~ ~ ~ ~ ^ ~ ~ ~ ~ K ~ ^ ~ ^ ^ K ~ K ~ ^ K ^ ^ ^ K K L K K L K ^ L L K L L L L L L K L L L L L L L L I L I L L L L L I I L I I L I I L I L I I I L I I I I I I I P I I P I I P P I P I P I I P I P P P P P P P P P P P P P P P P P P P P P P P P P ",
". . . . . . . . . . . . . . . . . % . % % % % % % % % % % % + % X % % + % % + + $ % % + + + + % + % X + # X + + + + + + + # + # + # + # # # + + X X # # # # # # # # # # # # # @ # o o # O @ # @ # @ @ @ @ @ @ @ @ @ @ o @ @ @ @ @ 6 @ 6 @ 6 @ 6 o 6 @ 6 o 6 o 6 6 6 6 5 5 5 6 - - 6 5 - 5 - 6 - - 5 - - - - - - - - : - - - = - : : : & : = - - = : = : : : : : : ; = 3 : : ; : : : ; ; 3 = ; * ; 3 * 2 * 2 * 2 2 * 2 2 * * 2 2 2 2 2 2 < < < < < < 4 4 < 4 4 4 4 < < 4 4 4 1 4 1 , 1 4 , , , 1 , , > , > , > , > , B , > m , m , , B , B B B B m B m m m N B B m N m N n N V n N m V V N n V n n M V n V M N V M V M V V M 8 n 8 M 8 8 M 8 M 7 7 8 7 7 8 8 w 7 7 t 7 t 8 t w w t t w w w w t w w q w r q q t q q r q r q r q y q e r y q q e y e q e e e e e y y e 9 e 9 e y y 9 y z z j 9 9 z f 9 f 9 j z 0 f f f f j f f h f f f l f f h h f l h f h h h g h g g k h h g -.N.N.n.g g g g c g g g k k c k c k k u u k u c u u c c v a u c u u d d c u c u u u u 0.N.N.x.p d p p p p p b.N.N.1.p i i p i i i i ` p _ p i _ _ _ _ i i _ _ i _ _ _ _ _ _ _ / / 4.N.N.b./ _ ) _ ) ) / _ ) M.N.N.:./ / ) / / ) ) ) ) ) ) ) ) ) ) [ [ [ ( ( [ M.N.N.>.( ] ( [ ] ] [ ] ] ] ] ] ] ] ] ] ] ] { ] { { { ] C { { { ] { { ] C { { C C C C C C C S C C S C C C S S S { S S S S S S S S S A A S S S A A A A A A A A A A A D A D D A D A A D D D D D D D Z D Z D D Z Z D Z Z Z D G D Z Z G Z Z Z G G Z G G G G G G G G G G G G F G F F F G F G J F F F F H F F H F H H F H H H H H H H H H U H H H H U H ! ! ! H H ! ! ! U ! ! ! ! ! ! U ! U ! U U U U U U U U U T U T U U T U U T T T U T T T T T T Y T Y T T Y Y T Y Y Y T Y Y Y Y Q Y Q Y Y Q Y Q Q Y Q Q Q Q Q Q Q Q Q Q Q Q Q Q R Q R R R Q Q R R R R R R R R R R R R R R W W W R W W W W W R W W W W E W W W ~ W E W W W E E E E E E E E E E E E E E E E ~ E ~ ~ ~ ~ E E ~ ~ ~ ~ ~ ~ ~ ~ ~ ~ ~ ^ ~ ~ ^ K ~ ^ ~ ~ ~ K K ^ ^ ^ K ^ L K K K K ^ L ^ K L ^ L ^ L L K L ^ L L L L L L L L L L I L L L L I L L I L I I I L L I I I I I I I I I I I I I I I I P I P I P I P P I P P P P P I P P P P P P P P P P P P P P P P P P P P P P P P P ",
". . . . . . . . . . . . . . . . % . % % % % % % % % $ % % % % % % % + % % + % + % + + + + % + X + + # + + % + # # + # + + + # + # + # + # X # # # # # X X # # # # + # # # # @ # # # @ # # @ @ # @ O @ @ @ @ # @ 6 @ o @ @ @ @ @ @ @ o 6 @ 6 6 @ 6 6 6 o 6 6 6 6 6 6 5 5 6 5 5 5 6 6 - 6 6 6 - 6 5 - - - - - - - - - - - : & - : - - & : - : : : - = : : = 3 : : : : = = 3 : : ; ; * * ; * * ; ; 3 ; * ; * * ; 2 * 2 * * 2 2 < 2 2 2 2 2 < < < < < < < < 4 < < 4 4 4 4 4 4 1 1 4 4 1 1 , 1 1 1 , > 4 1 > > , , > , B , > > , B , B B B B > B B B B m B B m m m n m N N m n N m m n V V m N M N n n n n M n M V V V N n 8 V M M 8 8 M M 8 8 M 7 7 8 8 7 7 7 7 7 7 7 w 7 w t t 7 8 7 t 7 w w w w w q t t q t r r r w q q q r q q q r r q q y y q z y y q e e e 9 q e x z y y 9 z x 9 9 9 z z 9 0 x j z 9 0 f f f f f f f f f f f l f l l f h f l l h h h h h h h h g f h h g g @.N.N.N.g g g c g g g c k c c k c c u k k c k u k u a u c u c u u u c u u d d d p d d x.N.N.e.p u d p p p p M.N.N.%.p p i i i p i i p ` ` ` i i i i ` _ _ _ _ _ _ _ _ _ _ / _ _ _ d.N.N.k._ _ _ ) _ _ / ) :.N.N.M.) ) ) ) ) ) ) / ) ) ) ) ) [ ] ) ) ) [ [ ) >.N.N.M.] ( ( ] ( ] [ ] [ ] ] ] ] ] { ] ] { ] ] { ] ] { { ] { ] { C { C C { C C C ] C C C { C C C S { C C S { S S S C S C S S S S S S S S S A A A S A S A A A A A A A A A A A D D D D D D D D D D Z D D D Z Z D D Z Z Z D G G D Z G D G G Z G Z G Z G Z G Z G G G G J G J G F G G G F F J J F F F F J F F F H F F H H F H F H H H H H H H ! H ! ! H H ! H ! ! ! ! ! ! U ! U U ! U ! U U U ! U U U U U U T U T U U T U T T T T U T T T T T T T Y T T T Y T Y Y Y T Y Y Y Y Y Y Q Y Y Y Q Y Q Q Y Q Q Y Y Q Q Q Q Q Q Q Q Q Q R Q R Q Q R R Q R R R R R R W R R R W R W W W R R W R W R W W W W W W W W W W W W W E W E W E W E E E E E E ~ E E E ~ E ~ E E E ~ E E ~ ~ ~ ~ ~ ~ E E ~ ~ ~ E ^ ~ ~ ^ ~ ^ ~ ~ K ~ K ^ K ~ ^ ^ K ~ K ^ K K K ^ L ^ ^ K L K L ^ L ^ ^ L L K L K L L L L L L I L L I L I L L I I L L I L I I I I L I L I I I I I I I I I I P I P I I I I P I P P P I I P P P P P P P P P P P P P P P P P P P P P P P P P P P P ",
". . . . . . . . . . . . . . . . % . % % % % . % % % % % % % + % + + % % + X % % + + + % % + + + + + + + + + % X + + + + # % X # + # + # + X + # # # # # # # # # # # # # # # @ # # # # @ # @ # @ @ O O @ o @ @ @ o @ @ @ @ 6 @ 6 6 @ @ @ 6 @ 6 6 @ 6 6 6 6 6 6 6 6 6 5 6 - 6 6 5 - 6 - 5 - - 5 - - - 5 - - - - - - - - = - - & - = - = = : - = : : : : - = : = : 3 : : 3 : ; : 3 * : : ; = * 3 * 2 * ; ; 3 2 ; * * < * 2 2 2 2 < 2 2 < < < 4 < 1 4 4 < 4 < 4 < 4 < 4 < 4 1 1 4 1 4 1 , 1 1 , , 1 > > 1 , > , > , > > , , B , , m m , > m > m m B m B B m m n N n m N m m m m m m V m m V N n n n V n n M N V n M n 8 n M M 8 V M M M 8 M M M 8 M M 8 8 t 7 7 7 w 8 7 w 7 t 8 w w w t t t t w w w 7 r q w w r t r q r r r q r r q e q q y q e q e y q e e q 9 e e y e y 9 y 9 z y z z 9 9 0 z 9 9 0 z j f 9 f j f f f j f f j f f l f l l f h f h f h l h h h g h l l g g k g k N.N.N.b c g g c g k c c c k u c c k c c c u c c c u u u a u u u u u u u u c u u d +.N.N.N.O.d p p p p p #.N.N.M.i i i i p i p i i _ ` p _ i _ i _ _ _ _ _ _ _ _ _ _ _ _ _ _ / / c.N.N.y._ ) _ ) / ) _ ) y.N.N.k.) / ) ) / ) ) ) ) ) ) ) ) ) ) ) [ ( [ [ [ t.N.N.c.[ [ ( ] ( ] [ ] ] [ [ ] ] ] ] ] { ] { ] ] { ] { ] ] C C C ] C { { C C { C C C C { S C C C S C S S S S S S C S S S S S S S S S S S A A S A A A A A A D A D A D A D A A A A D D D D A D D D D D D D Z D Z D Z D Z D G D G Z Z Z Z G Z Z G G G Z G Z G G G G G G G J G F G F G J J G F F F F F J F H F F H F H H F H H H H H H ! H H H ! H H H H ! ! ! ! ! ! ! ! ! ! ! ! ! ! U U ! U ! U U U U U U U U U U U U U T U T T T T T T T T T T T Y T T T Y T Y T Y Y T Y Y Y Y Y Q Y Y Q Q Y Y Q Y Q Q Q Y Q Q Q Q Q Q Q Q R Q R Q R Q R R R R R R R R R R R R R R W W R R R R R W W R W R W W W W W W W W W W W W E W W E E E W E E E E E E E E E E ~ E ~ E E ~ E ~ E ~ E ~ ~ ~ ~ ~ ~ ~ ~ ^ ^ ~ ~ ~ ^ ~ K ~ K ~ ^ ~ ^ ~ K K K ^ ^ ^ ^ ^ K ^ K L L L K K L K L L L L L L L L L L L L L L L L L L I L L I I L I L L I L I L I I L I I I I I I I I I I I I I P I P P I P P I P P P P P P P P P P P P P P P P P P P P P P P P P P P P P P P ",
". . . . . . . . . . . . . . . . % . . . % . % % % % % % % % % % % % % + % % + + + % + % + + + + X % + + + + # X + + X # + # # + + + # + # + # # + # # X X # # # # # # # # # # # # @ # # @ # @ # @ @ @ O @ @ @ @ o o 6 @ @ @ o o @ 6 6 @ @ 6 @ 6 o 6 6 o 6 o 6 6 6 6 6 5 6 6 6 - 6 6 5 - - 6 - 5 - - - - - - - - - - - - - = : - = & : - & = : : - - = 3 : : : = : : = : 3 : ; : ; : * ; 3 ; ; 3 * ; 3 2 2 3 3 2 * 2 2 2 * * 2 2 2 2 2 2 < 2 < 1 < < 4 < < 4 4 < 4 4 4 4 4 1 4 4 1 1 , 1 1 1 , , 1 , > , > , , , > B , m , B m > B > B B B B B B B m B B B m B m B N m V m V n V m V m m V N n V n V N V M M n M 8 n 8 M M M M 8 M 8 M 8 8 8 7 8 7 8 7 7 7 7 7 8 w 7 7 w 7 w 8 w t 7 w t w w w w t q t r w r t r r q r q r r e r q q e q e q y q y y y e 9 q y 9 9 e 9 e 9 y 9 z y y 9 9 9 x z 9 9 z f z z j 0 f z f j j f f l f f f f f l l f l h h h h h h h h g g l l h g h m.N.N.*.k g c k g c k g k c c k c u c c c c c u c c c c c u u c u u u u u d c d c d.N.N.j.d a p p d d p ,.N.N.b.p p i i p i i i i p ` ` p _ i _ i O.i i _ i _ _ _ / _ _ / _ _ } M.N.N.:./ _ ) _ ) / ) / p.N.N.g./ ) / ) ) ) / ) ) ) ) ) ) ] ) ) ) [ [ ) [ g.N.N.p.] ( ( ] ( ] ] ] ] ] ] ] ] ] ] ] ] ] { ] { ] { ] C { ] { ] C { { { { { C { C ] C C C C { S { C C { S { S C S S S S S S S S S A S S A S A S A A A A A A A A A A A A D D D D A D A D D D D D Z D D Z D Z D Z D Z Z D D D G Z Z G Z Z G Z Z Z G G G G G G G F G G G G G G F G F G F F F H F F F J H F H H F H F H H F H H H H H H H H ! H ! H U U H ! ! ! ! ! ! ! U ! ! U U ! U ! U U U ! U U U U T U U T U T U T T T T U T U T T T T T Y T T T Y Y T Y Y Y Y Y Y Y Y Y Y Y Y Y Y Y Y Y Q Y Q Y Q Y Q Q Y Q Q Q Q Q Q R Q Q R Q R Q Q R R R R R R R R R W R R R R R W W W W R W W W W W W W W W W W W ~ W W W E E E W W E E E E E E E E E ~ E ~ E E ~ E ~ E ~ E ~ E ~ ~ E ~ ~ ~ ~ ~ ~ ~ ~ ~ ~ ~ ~ ~ ~ K ~ K ~ K ^ K ~ ^ ^ K K ~ ^ ^ K L K K ^ ^ K L ^ L K L ^ L ^ L L L L L L L L L L L I L L I L L L I L I L I I L I I I I L I I I I I I P I P I I I I P I I P I I I P I P P P I P P P P P P P P P P P P P P P P P P P P P P P P P ",
". . . . . . . . . . . . . % . . . % % % . % % % % % % % % % % % % % + + % + + % % + + % + + % X + + + + + + X X + + # + + # % # # + # # + # + # # + # # # # # # # # # O # # # @ O # @ # @ # @ # # @ @ @ @ @ @ @ @ @ @ @ o 6 @ @ @ 6 6 o @ 6 @ 6 6 @ 6 6 6 @ 6 5 6 5 6 6 6 6 6 5 - 6 - 6 6 5 5 5 - - - - - - - - - - - & - & = & - - = - - : = : = - : = : : = = : ; = : : * : * = ; ; ; ; 3 * ; * * * * ; ; 2 3 < * 2 3 2 2 * < 2 2 2 2 < < 2 < 2 < < 1 1 2 4 1 1 1 4 4 4 4 4 4 , 4 , 1 1 , , , , 1 , , > > , > > , > , , > , B > B > B B B B B B B B m B m m m N m N m n N N m N n n N n N V N N V N M V V M M M V V M V M V V M 8 M 8 M 8 M 8 7 8 7 7 7 7 7 w 8 w 7 t 8 t 7 t t 8 w w w t w t 7 q t r r w q r r q q q r q r r q e r y y e y q q y e y q e e y y e e e z 9 y z z z z 0 y z 9 j f z j j 9 f j j f j f f f f f f f h l f f h l l f h h h h g g f g l l g g g g v.N.N.q.g g g v g k c c k k c c c c k c c c c c c u c u c u u u u u c d a u d d O.M.N.N.=.p u p p p p p 0.N.N.x.p p p i p i i i i i i i i _ i i _ _ i i _ _ _ _ _ _ _ _ _ _ _ 3.M.N.M./ _ ) _ _ / ) / ) b.N.N.4.) / / ) ) ) ) ) ) ) ) ) ) [ ) ) ] ( ) ( [ b.N.N.3.( ] ( [ ] ] ] [ ] ] ] ] [ ] ] ] { ] ] { ] { { { C ] C ] ] ] ] C { C C C C C C C { S C C C C C S C C S C C S S S S S S S S S S S S A A A S A A S A A A A A A A D D A A D A D D A D A D D D D D D Z D Z Z D Z D Z Z G Z G D G Z G Z G Z G G G G Z G Z G G G G G F F F G G G F F F F F F F J F H F F H F H J J H H H H H H H H H H ! H H H ! H H ! H ! H ! ! ! ! ! U U ! ! U U U U U U U U U U U U U U T T U T T U T U T T T T U T T T T T T T T T Y T Y Y Y T Y Y Y Y Y Y Y Q Y Q Q Y Y Q Y Q Q Q Q Q Q Q Q Q Q Q Q Q Q R Q R Q R R R R R R R R R R R R R R W R W W R W R W W W W W W W R W W W W W E W E W W W W E W W E W E E E E E E E ~ E E E ~ ~ E ~ ~ ~ E E ~ ~ E ~ ~ ~ ~ ~ ~ ~ ~ ~ ~ ~ ~ ^ ^ ~ ^ ~ K K K ^ ^ ~ K K ^ K K L L K ^ L L K K ^ L ^ L K ^ L L L L L L L L L L L L L L L I I L L L L I I L I I I I L L I I I I I I I I I I I P I I I I P I P P P P P I P P P P P P P P P P P P P P P P P P P P P P P P P P P P P ",
". . . . . . . . . . . . . . . % . % % % . % % % % % % % % % % % + $ % $ + % % + + % + + % + + + + + + + + + + + + + + + + # X + # + + + # + # + # + # + # # X # # # # O # # # # # o # @ # @ @ @ @ # O @ @ @ @ @ @ @ @ @ o 6 @ 6 @ o @ 6 5 @ 6 6 @ 6 @ 6 6 6 6 6 6 6 6 6 6 6 6 6 6 5 6 - - - - - 5 - 5 - - & - - - = - - - = & = - : - = : - - = : : : = : = 3 : = = ; ; * : ; ; ; ; = * : * * ; * * 2 2 3 ; 2 ; 3 < 2 2 2 * 2 2 2 2 < 2 2 1 1 < < 4 < 1 2 4 2 2 4 4 4 4 4 4 4 , 2 , 1 1 , 1 , 1 , 1 , > , 1 > , , , B m m m , B , > m > > B > m B N B m m m B m N m N n m n N N N N N V V n n N V n M n N M n V V V V M V M 8 M M M 8 M 8 8 8 M M 8 7 7 7 7 7 7 7 7 t 8 7 t t w t w t t t t w w r w t w q q w q 7 q q q e q q q q r y q q q q y e y e e e e e e e e y 9 9 e x e y 9 9 0 z x 9 9 9 z 9 z f f 9 0 f f f f f f f h f l l f h f h h h h h g h f g g h l g h g l h f.N.N.s.g g g g v c k k c c c c k c c c u v a c u a v c u u c u u u u u u u u u j.N.N.c.u d d p p u p p e.N.N.k.i i i i i p i i i i i i _ _ i _ i i _ _ _ _ _ _ _ _ _ / _ / _ p.M.N.k._ ) ) _ ) / _ / ..N.N.N...) ) ) ) ) ) / ) ) ) ) ) ) ) ) ( ) [ [ ( X.N.N.N.| ( ] [ ] [ [ [ ] [ ] ] ] ] ] ] ] ] ] ] { { ] ] { ] C ] C C C C C C { ] C C ] C C C C C C { S S { S S C S S C S C S S S S S S S A S A A S A A A A A A A A A A A A A A D D D A D D D D D D D D D D D D D Z Z D Z Z Z D Z Z G D G Z G Z G D G Z G G G G G G G J G G G G G F G F F G F F F F F F F J F F F H H H F H F H H H H H H H H H ! ! H ! ! ! ! ! ! ! ! ! ! ! ! ! ! U ! U ! ! U U U U ! U U U U T U U T U U T U T T U T T T T T T Y T T Y Y T T Y T Y T Y Y Y Y Y Y Q Y Y Y Y Y Q Q Y Y Q Q Y Q Q Q Q Q Q Q Q R Q R Q R Q R R Q Q R Q R R R R R R R R R R W R W R R W Q W W R W W W W W W W W W W W W W ~ ~ W E E E E E E E E E ~ E E E E E ~ E E ~ E E ~ E ~ ~ ~ ~ ~ E ~ ~ ~ ~ ~ ^ ~ ~ ^ ~ ~ K ~ K ~ K ~ ^ ^ ^ K K K K K K K ^ K ^ K ^ ^ L L ^ L L L L L L ^ ^ L L L L L L I L I L L L L L I I L L I I L L I I I I I I I I L I I I I I I I I P I P I I I I P I I P P I P I P P P P P P P P P P P P P P P P P P P P P P P P P ",
". . . . . . . . . . . . . . . % % . . % . % % . % % % % % $ % + % % % % % % % % + + % % + + % + + % + + + + + X # + X # + # # + + + # # + # # + # # # X # # # # # # # # # @ # @ # # @ # # @ @ @ @ @ @ @ @ # O @ @ @ @ o @ @ 6 @ 6 @ @ o @ 6 6 @ 6 6 6 6 o 6 6 6 6 6 6 5 6 6 6 - - 6 - 5 - 6 - - - - - - - & - & - - - - - - : - - : - : = - - : - = : = : : = : : = : : = ; = ; ; = : ; ; ; ; ; ; * * * 2 * ; 2 * < 3 3 * 2 2 2 2 2 2 2 2 < < 2 2 1 1 2 4 4 1 1 1 4 4 2 4 4 < 4 1 1 1 , , , 1 1 , , , 1 , > , > > B , , , m B , B , m m , m B m m m m m m m N N m N N m n m n n N n n n N M n N N n N V n V V V V n M N M V 8 n M 8 8 M 8 M 7 8 7 7 7 7 t 7 8 t 8 w w 7 w 7 w t w t w w w w w r r 7 q q q q r 7 q q r q r q q y q q q q r y e e q e y e e y y e 9 y z e e z e z y z 9 z z 9 z f 9 9 f 9 f 9 f j f f f f f l f f f f f l f f h f h h g f g f g l g h g g g g g r.N.N.n.g g g g v g k c c c c c c v k u k c c u c c u c u u u u a c d d u u d &.N.N.N.=.p d u d u d p d e.N.N.j.i p i i p i i i i i ` i i ` i _ ` _ _ i _ _ _ _ _ _ _ / _ / / M.M.N.4./ / _ / / / / ) :.N.N.M.) / ) / ) / ) ) ) ) ) ) [ ) ) [ ) ) ) [ [ >.N.N.M.] ( [ ( ( ] ( [ ] ] ( ] ] ] ] ] { ] { ] { ] { ] { ] C C ( ] C ] C ] C ] { C C C C C C S C S { S S C C S C C S S S S S S S S S S S S A S A A A A A A A A A D A D D D A D A D A A D D D D D D D Z D D Z D D Z Z Z Z Z D G D Z Z D G G Z Z G Z G G Z G G G G G G G G G F G J F F F F F F F J J J H F J H F H F F H H H H H H H H H H H H H H ! H ! H ! H ! ! ! ! ! ! ! U ! U ! ! ! U ! U U U U U U U U U U T U U T U T T T T U T T T T T T T T T Y T Y T T Y Y Y Y Y Y Y Y Y Y Y Q Y Q Y Q Q Q Q Q Q Y Q Q Q Q Q Q Q Q Q Q Q Q R R Q R Q R R R R R R R R R R R R W R W R W R W W W W R W W W W W W W W W W W W W W W W E E E E E E E E E E ~ E E E ~ E ~ E ~ E ~ E ~ E ~ ~ E ~ ~ ~ ~ ~ ~ ~ ~ ~ ^ ^ ~ ~ K ~ K K K ^ ^ ^ ~ ~ ^ K K L K ^ K ^ K ^ L ^ L L K K L K L L L L L L L L L L L L L L I L L L I I I L I I I I I I I I I I I I I I I I I P I P I I P P I P I I I P I P P I P P P P P P P P P P P P P P P P P P P P P P P P P P P ",
". . . . . . . . . . . . % % . . % . % % % % % % % % % % % + % % + % % X % + X $ % + + + % % + + + + + + + + + X + + + # X % + # + # # + O X # # # + # # O + # # # # # O # # # # # # # o @ # # # O # @ @ @ @ @ @ @ @ @ o @ o o @ 6 o 6 @ 6 @ @ 6 6 @ 5 @ 6 6 6 6 6 6 6 6 5 - 6 5 6 6 6 6 - - 5 5 5 5 - - - - - & - - - - : - - - = - = - = = = : = = : : : : : : = ; : : : : ; : ; ; ; = ; ; * ; ; ; ; ; 2 ; 2 3 2 3 2 < 2 2 2 2 2 < 2 2 2 2 1 2 2 4 2 4 2 < 2 4 2 1 4 4 4 4 , , 1 1 , 1 1 1 , , , 4 , > > , , > > , > B > > , , , B m B B B m m m m m m m m N m m m m n V m V N M N n N n n N M M V n M M V N n M 8 N 8 M M M 8 M M 8 M M 8 8 8 7 8 8 7 7 7 8 8 8 t 7 w 7 t w 8 t 7 t w t w t t r r q 7 7 q r q r q r r q q q r y q e y q q y q e e q e e e 9 e y e y 9 9 e 9 9 9 9 9 9 f 9 x z z j x f 9 j 0 f x j j f j j f f h f f h h l f h l h j g f g j g h h l h g h g b N.N.N.*.g v g g c k g k k c g k c u k v v u c v c 8.&.u k v u u u u u u d u v.N.N.j.p a d d p p p p p 0.N.N.c.p i p i i p i i p i i ` i ` i i ` _ i _ _ _ i i _ _ _ _ _ _ w.M.M.M..._ / ) _ / / _ / y.N.N.k./ ) / ) / ) ) ) ) ) ) [ ) ) [ ) ) ] [ ) [ y.N.N.k.( ( ( ] ] ] ] ] [ ] ] ] ] ] ] ] ] ] ] { ] { ] { { C ] ] C ( C C ] C C C C { C C ] C { C C { S { S C S C S C S S C S S S S S S S A S A S S S A S A A A A A A A A A D A A D A D D D D A D D D D D D Z D Z Z D Z Z D D G D G Z Z Z Z Z Z G Z G Z G G Z G G G G G G G G G G F J G G J F F F F F J F F H J H J H H H F F H H H H H H H H ! ! H H ! ! ! ! ! ! ! ! ! ! ! ! ! ! U U ! U U U U ! U U T U U U U T U U T U T T U U T T T T T T T T Y Y T T Y T Y Y T Y Y Y Y Y Y Y Y Y Q Y Y Y Y Y Y Y Q Q Y Q Q Q Q Q Q Q Q Q Q R Q Q R Q R Q R R R Q R R R R R W R W R R W R W W Q W W R R W W W W W W W W W ~ W W W E ~ W E W E E W E E E E W ~ E ~ W ~ E E E ~ E E ~ ~ ~ ~ ~ ~ ~ ~ ~ ~ ~ ~ ~ ~ ^ ^ ~ ~ ~ K ~ K ~ ^ ~ ~ ^ ^ K K ^ ^ K ^ ^ K K L K K ^ ^ L K L ^ L L L K L L ^ L L L L L L L I L L L I L L L I L I L L I L L I L I I I I I I I P I I I I I I I I P I P P I P P P I P P P P P P P P P P P P P P P P P P P P P P P P P P P P ",
". . . . . . . . . . . . . . . . % . % % . % % . % % % % % % % + % + % + + % + + + + % X + + + + + + + + + + + + + + + + % X # + + + + # + # O + # # + # # # # # # # # # # # # @ # @ # # # # @ @ @ o @ @ @ @ @ @ @ @ o o @ o @ 6 @ 6 @ 6 o 6 o 6 6 6 o 6 6 6 6 6 6 6 6 5 6 6 6 - - 6 5 - - - - - - - - - - = - & = - - = - - & : - - - - - = - - = : & : : : : = : * = ; ; : * : 3 = * ; ; * * * * * * 3 2 3 ; * 2 * 2 3 * < < < 2 2 2 2 1 2 < 2 2 < 4 < < 4 2 2 4 1 < 4 , 4 < < < 4 , , 1 , , 1 > > , , > , > m > , m , > , B m B > B , B > B B B m m m m B B B m m N N m N N N N N n N m V m V N V n V V N V M V V M M M V n 8 8 7 M 8 8 8 M 8 8 8 7 8 8 8 7 t 8 8 t 8 7 w 8 w w 7 t w t t w w t w 7 q q r q r w q r q q r q r q e e q e e q e e q y e y y 9 e y 9 9 y y z y z z x z 9 9 9 x x 9 9 j z j j f j 0 f f f f f f j f f h f h f h f h h h l h h l g l l g h g g g l x.N.N.f.g g g c g c g g k u u k k u k u c u c a q.N.M.&.a u u u u u u u u e.N.N.M.O.u p d u p p d d p 1.N.N.b.i p i p p ` i i i i ` i ` i _ ` ` _ _ i _ _ _ _ _ _ _ _ _ / b.M.M.h._ / _ _ / / / ) / k.N.N.y.) ) ) ) ) ) ) ) / ) ) ) ) ) [ [ ) ) ) [ ] k.N.N.i.] ( ] [ [ [ ] ( ] ] ] ] ] ] ] ] ] { ] { ] ] ] ] { ] ] C ] C ] C C C C C ] C C C C C C C C S { C C C S C S S S S S S S S S S S A S S A S S A A A A A A A A A A D A A A D A D A D D D D D D D D D D D D Z D Z D D Z Z G G D G Z G Z G Z G G G G G Z G G G G G G G F F G G G F F J G F F F F F F F F F F H F H H F H H H H F H H H H H H ! H ! H U H ! ! H ! ! ! ! ! ! ! ! ! U U ! U U U U U U U U U U U T U U T T U T T T U T T T T T T T T T Y T Y Y Y T Y Y T Y Y Y Y Y Y Y Y Q Y Y Y Q Q Y Q Q Q Q Q Q Q Q Q Q Q Q Q Q Q R Q R Q R R R R R R R R R R R R W Q W W R W R W W W R W W W W W W W W W W W E E W E W E W E E W E W E E E E E E E E E E E ~ E ~ E E ~ E ~ E ~ ~ ~ ~ ~ ~ ~ ~ K ~ ~ ~ ~ K ~ ~ ~ K ~ K ^ K K K ^ ^ K K ^ ^ L ^ K K L ^ L K K L L K L L L K L ^ ^ L L L L L I L L I I I L I I L I L I L L I I I I I I I I I I I I I I P I I I I P I I P I I P I I P P P P I P P P P P P P P P P P P P P P P P P P P P P P P ",
". . . . . . . . . % . % . . . % % % . % % % % % % % % % % % % % % % % % % % % + % % + + + % + % % + + + + + + # + # + + + # # + # # + + # + + # + # # # # + # # # # O # # # # # # # # @ @ @ # # @ # O @ O @ @ @ @ @ o o @ @ @ @ @ o o @ 6 o 6 o 6 o 6 6 6 o 6 6 6 6 6 6 5 6 5 6 6 - - 6 5 - 5 - 5 - 5 - - 5 & - & = - - - - - = - : : = - 3 - 3 & : : : : : = = = : : : : * ; ; ; ; 3 ; * 3 3 3 * 3 * 2 * * 2 2 3 * 2 < < * < < 2 2 2 2 2 < < 2 2 4 < 1 1 < 4 4 4 1 4 1 < , , 4 , 4 4 1 , 1 , , 4 , > > , , > > > , , > B , > B > m , m B B B m B B B m m N m N m B N m m N N N n N N n n m V V M n M N N V M n n M 8 n V M 8 8 M M M M M 8 8 M 7 8 8 8 7 7 8 7 w 7 8 w t t t 7 t t t t w w w w 7 r q t q 7 t r r q q r q q r r q q q r q e q e q y y e y y e e y y y y y x y 9 y y 9 9 9 0 f z f 9 z j 0 f 9 j f f f f j j j h l j j h f h h h h f h h h h g f g g l g g f g g 9.N.N.N.@.v g g c c c c k k k c u k c c v c v v c.N.N.N.-.u u u u u d u =.N.N.N.0.u p u u d p p p p p =.N.N.N.O.p p p p i i i i ` i ` ` i i _ ` i _ i _ _ i _ _ _ _ / _ <.M.N.N.<._ / / / / / / / / m.N.N.<.) _ ) / / ) ) / ) ) ) ) [ [ [ ) ) ) [ [ [ b.N.N.3.[ ( [ [ ] [ [ ] ] [ ] ] ] ] ] ] { ] ] ] { { { { ] ] C ] C C ] ] C ] ] C C ] C C C C C C C C S C S S C S C C S C S S S S S S S S S S S A A S S A A A A A A A A A A A D A D A D D A D D D D D D D D D Z D Z D Z Z Z D D D G Z Z G Z Z Z Z G Z Z G G Z G G G G G G G F G F F F G G F F G F F F F J H J H F H F H F H H H H H H H H ! ! H H U ! H H ! H ! ! ! ! ! ! ! ! U U ! U ! U U ! ! U U U U U U U U U T T U U T T U T T T T T T T T Y T T T Y T T Y Y Y Y Y Y Y Y Y Q Y Q Y Y Y Y Q Q Y Q Q Y Y Y Q Y Q Q Y Q Q Q R Q R R R R Q Q R Q R R R R R R R W W R W Q Q W R W W R W W W W W W W W W W W E W W W W W E W ~ W E E E E E E E ~ E E E ~ E ~ ~ E ~ E ~ E ~ E ~ ~ ~ ~ ~ ~ ~ ~ ~ ~ ~ ~ ^ ~ ~ K K ^ K ~ ^ ~ K ~ K ~ ^ K ^ ^ ^ L ^ ^ ^ L K L ^ L ^ L ^ L L K L L L L L L L L L I L L L L L L I L L I L I L I I I L I L I L I I I I I I I I I I I P I P I P I P P P P P P P P P P P P P P P P P P P P P P P P P P P P P P P P P P ",
". . . . . . . . . . . . . % . % . . . % % % % % % % % % + + $ $ % + + % X + % % + % + % + % X % + + + + + + + X X + + # + + + # + # X # + # O + # # + # # X O # O # # # # O # # @ # @ # # @ @ @ # @ O @ @ @ @ @ @ o o o @ @ @ @ @ 6 o 6 @ 6 o 6 @ 6 6 6 6 6 5 o 6 6 - 6 - 6 6 6 6 6 6 6 5 6 - 6 - - 5 - - - - - - - - - = - & - 3 - - : = - : = : : : : : : : : : 3 ; = : 3 : ; : ; 3 ; ; * 3 * * ; 3 2 2 * * 2 2 * 2 * 2 2 * 2 2 2 2 2 2 2 2 4 < 4 2 4 2 4 4 < < 4 4 1 4 < 4 4 < , < , , , 4 , 4 > 1 > , 4 > > , > B , , B , > B B > B m B B B B B B B N B N m N N m N m N N m N N N M n n V m n V N M M V V V 8 N V 8 V n 8 n 8 M 7 7 8 8 8 8 8 8 8 8 8 7 7 t 8 7 t 7 8 t w t w w w w w w w t q t t r r 7 q q r r r w r r q r q e q e e e e y y y y y e y e e 9 e e y 9 x x y 9 9 0 9 z z z x f 0 f 9 f 0 f 9 j f f f f f f f f h l h h h f h f h h h f g h g h h l g g g l g g M.N.N.f.g v g u k k c c c k c c c k u c c c u u l.N.N.N.-.u a u u u +.M.N.N.z.u p p p p u p p p p p p M.N.N.0.p p ` i i i i i i i i i ` ` ` i _ i _ _ _ _ _ _ _ _ _ _ b.N.N.c./ / / _ ) _ _ / )  .N.N.N. .) ) / / ) ) ) ) ) ) ) ) ) ) ) ) [ ) ) ( X.N.N.N.X.( ( ] [ ] ] ] ] [ ] ] [ ] ] ] ] ] ] { ] ] ] { { { C ] C ] ] C ] C C C C C C C C C C { C S C C C C C S C S S C S S S C S S S S A S A S S A A A A A A A A D A D A D A D D A D A D A D D D D D D Z D Z D D Z Z Z G D G D G D D Z Z D Z G D G G Z G G G G G G G G G G G G F G G G F F J G F F J H F H H J F H H F H H H F H H H H H H H H H H H ! H ! ! ! H ! ! ! ! ! ! ! U U ! U ! U U U U U U T U U U T T U U T T U T T T U T T T U T T T T T T T Y Y T T Y Y Y Y Y Y Y Y Y Y Y Q Y Y Q Y Q Q Y Q Q Q Y Q Q Q R R Q Q Q R Q Q Q R R R R R Q R R R R R R R R W R W W R W R W W W R W W W W W W W W W W W W W E W W E W W E E E W E E E E E E E E E E E E E ~ E E ~ ~ E ~ ~ E E ~ ~ ~ ~ ~ ~ ~ ~ K ~ ~ ~ K ~ K ~ ~ ~ K ^ ^ ^ K ^ K ^ K ^ ^ K ^ ^ K ^ L L K L L L L L L L L L L L L L L L L L L L I L I L L L I I I I L I I I I I I I I I P I I P I I I P I P I P I I P I P P P I P P P P P P P P P P P P P P P P P P P P P P P P P P P ",
". . . . . . . . . . . . . . . % . % % % % . % % % % % % $ $ $ $ % % % + % % + + + + + % + + + X + + + + + + + + + + + + # + + + # + # + O + # # + # # # # # # + # # # O # # @ # # O # # @ # # @ @ @ @ @ @ @ @ @ o @ o o @ 6 @ 6 o @ 6 o 6 o 6 o 6 o o 6 o 6 6 6 6 6 6 5 6 6 6 - 5 & 6 - - 5 - - - - - - - - - - - - - = - = - : : - - 3 - = - = = : : = : : = : : = : : : = ; : ; ; : : ; 3 3 3 ; 2 3 ; ; 2 3 3 2 < 2 3 2 3 2 < 2 2 2 1 2 < 2 2 1 2 4 < 1 4 2 4 1 1 1 < 4 , < 4 4 , 4 , 4 < , 4 , > > , , > > > , > > B > > m B B , B m , > m B B B B B N B m m N m V m N N m N N n n n n n m V V n V n M n M N N 8 M V V 8 M 8 M M 8 M M M 7 M 8 8 8 t 7 8 8 8 w 7 8 w 8 w 7 t 8 t 8 w t w t w w q q t q r q q r r r r q r q r y q e q q q e q e q e e y e e e e e 9 y 9 y 9 x 9 9 0 9 x x z z 9 z 9 f 0 j 0 l 0 j f f f f f h f f f f f l h h l l h h g f g l g g h g g g g g g r.N.N.N.7.g v k k c k k c u k c c c c c v a c c u j.N.N.N.0.u u u +.m.N.N.v.O.u d u u p p p u p p p p j.N.N.b.p ` i i i i i i i i i i ` i i _ _ _ _ i _ _ _ _ _ / _ u.N.N.N.<./ _ / ) _ / ) / _ 4.N.N.b./ / / ) ) / ) ) ) ) ) ) [ ) ) ) [ ) [ ( ( 5.N.N.b.[ [ ( ( [ [ ] [ ] ] [ ] ] ] { ] ] ] ] ] { { ] { ] { ] { ] C C ] C C ] C C ] C ] C C C C C { C S C S C C S C S C S C S S S S S S S S A S A S A S S A A A A A A A A A D A A D A D D D D D D D D Z D D D Z D Z Z D D Z Z Z D Z G G Z G G Z G G Z G Z G G G Z G G G G J G G G J F F G F F F F F F F F F F H F H J H H F H H H H H ! H ! H H U H ! H ! H ! ! ! ! ! ! ! ! U ! ! ! ! U U ! U U U U U U U U U U U T U U U T U T T T U U T T T T Y T T Y Y T T Y T Y Y Y Y Y Y Y Y Y Q Y Y Q Y Y Q Y Q Q Y Q Q Q Q Q Q Q Q Q R Q R Q R Q Q Q R Q Q R R R R R R R R W R R Q W R R W R R W W W R W W W W W W W W W E E W E E W E E E E E E E E E E E E E ~ ~ E E ~ ~ ~ ~ ~ E ~ ~ ~ ~ ~ ~ ~ ~ ~ ~ ~ ~ K ~ ~ K ^ ~ ~ K ~ K ^ ^ ^ K K ~ ^ ^ ^ ^ K K L K K L K K ^ K L L ^ ^ L L K L L L L L L L L L L L I L L L L I L I L I L L I I L I L I I I I I I I I I I I I I I I P P I P P I P I P P P I P P P P P P P P P P P P P P P P P P P P P P P P P ",
". . . . . . . . . . . . . . . . . . . . . % % % % % % . . $ $ $ % % % % % + + % % + + % + + + + + $ + + + + X X X X X X X X # # + # + # + # # # + # X # # # # + # # # # # # # # @ # # @ # @ # @ # @ @ # @ @ @ @ @ @ 6 o @ @ @ @ o 6 @ o 6 o 6 o 6 6 o 6 6 6 6 6 5 5 5 5 5 5 5 5 5 - 5 - - 6 6 - 5 - - - - & - - - - = - - - - - = = - - - 3 - 3 = - = = : : = 3 3 = = 3 = = 3 3 = : : 3 3 3 3 3 ; ; 3 * * * 3 3 2 3 3 < < * 2 < 2 < < < < 2 2 < 4 2 2 1 < 1 4 < 1 2 2 4 4 4 4 4 4 , 1 1 4 , 1 > , , 4 > , , , , , B , , > B , m m > B m , B m B B m B B m m n B m N m N N N m V m N V m N V V N N N V V V M N M V V M M M M V M M 8 M 8 V 8 8 8 8 8 8 8 8 7 7 7 8 7 7 w t 8 t w 7 w t w t w w w t r t q q t w r q r r q r r y q r y q y q r e y y q y q y e e e y y x y z y x 9 9 9 9 z x 9 9 z 0 f z z f x j f j z f j f f f h f h f h f l f l l h j h h h g h h g g g h l g g g g v.N.N.M.*.k k c k c c v g v c v v c c c v v c a v e.N.N.N.e.u +.n.N.N.m.+.u a d d d u p d d d d d p ,.N.N.N.u.p p i p i i i i ` i ` ` ` ` ` i ` ` ` _ _ ` _ _ _ 4.N.N.N.k._ _ / _ / / / / / / y.N.N.h./ ) ) / ) ) / ) ) ) ) ) ( ) ) ) [ [ [ ) ( y.N.N.h.] [ ] [ ] [ ] [ ] [ ] ] ] ] ] ] ] ] ] { ] ] { ] { { ] C { { { { { { C { C { C { C C C C C C C C C C S C S C S S S S S S C S S S S S A S S A A S A A A A A A A A A A A D A D D A D D D D D D D D D D D D D Z Z D Z Z Z Z Z Z Z Z G Z G Z Z G Z G G G G G G G G G G G G G F G F G F F F G J J J J J H F H H J H H H J H H H H F H H H ! H H ! ! H ! ! H ! ! ! ! ! ! ! ! U ! ! U U ! U U U U ! U U U U U T U U T U T U T T T U T T T T T T T T T T T T T Y Y T Y Y Y Y Y Y Y Y Y Y Y Y Y Y Q Q Y Q Q Y Q Q Q Q Q Q Q Q Q Q R Q Q R R R Q R R R Q R R R R R R R R R R W R W W W W R R W W W W W W W W W W W W W W W ~ W E W E E E W E ~ W E E ~ E ~ E E E ~ E ~ E ~ E ~ ~ E ~ ~ ~ ~ ~ ~ ~ ^ ~ ~ ^ ~ ^ ^ ~ ^ ^ ^ ~ ^ ^ ^ ^ ^ ^ ^ K K K K K K K L ^ K L L ^ L K L L K L L L L L L L L L L L L L I L L L I L I L I L I L I I I I I I I I I I I I I I I I I P I I I P I I P P I P P P P I P P P P P P P P P P P P P P P P P P P P P P P P P ",
"B.B.B.B.B.B.B.B.B.B.B.B.B.B.B.B.B.B.B.B.B.B.B.B.B.B.B.B.B.B.B.B.B.B.B.B.B.B.B.B.B.B.B.B.B.B.B.B.B.B.B.B.B.B.B.B.B.B.B.B.B.B.B.B.B.B.B.B.B.B.B.B.B.B.B.B.B.B.B.B.B.B.B.B.B.B.B.B.B.B.B.B.B.B.B.B.B.B.B.B.B.B.B.B.B.B.B.B.B.B.B.B.B.B.B.B.B.B.B.B.B.B.B.B.B.B.B.B.B.B.B.B.B.B.B.B.B.B.B.B.B.B.B.B.B.B.B.B.B.B.B.B.B.B.B.B.B.B.B.B.B.B.B.B.B.B.B.B.B.B.B.B.B.B.B.B.B.B.B.B.B.B.B.B.B.B.B.B.B.B.B.B.B.B.B.B.B.B.B.B.B.B.B.B.B.B.B.B.B.B.B.B.B.B.B.B.B.B.B.B.B.B.B.B.B.B.B.B.B.B.B.B.B.B.B.B.B.B.B.B.B.B.B.B.B.B.B.B.B.B.B.B.B.B.B.B.B.B.B.B.B.B.B.B.B.B.B.B.B.B.B.B.B.B.B.B.B.B.B.B.B.B.B.B.B.B.B.B.B.B.B.B.B.B.B.B.B.B.B.B.B.B.B.B.B.B.B.B.B.B.B.B.B.B.B.B.B.B.B.B.B.B.B.B.B.B.B.B.B.B.B.B.B.B.B.B.B.B.B.B.B.B.B.B.B.B.B.B.B.B.B.B.B.B.B.B.B.B.B.B.B.B.B.B.B.B.B.B.B.B.B.B.B.B.B.B.B.B.B.B.B.B.B.B.B.B.B.B.B.B.B.B.B.B.B.B.B.B.B.B.B.B.B.B.B.B.B.B.B.B.B.B.B.B.B.B.B.B.B.B.B.B.B.B.B.B.B.N.N.N.N.B.B.B.B.B.B.B.B.B.B.B.B.B.B.B.B.B.B.B.B.B.B.N.N.N.N.N.N.N.N.B.B.B.B.B.B.B.B.B.B.B.B.B.B.B.B.N.N.N.N.B.B.B.B.B.B.B.B.B.B.B.B.B.B.B.B.B.B.B.B.B.B.B.B.B.N.N.N.N.B.B.B.B.B.B.B.B.B.B.B.N.N.N.B.B.B.B.B.B.B.B.B.B.B.B.B.B.B.B.B.B.B.B.B.B.N.N.N.B.B.B.B.B.B.B.B.B.B.B.B.B.B.B.B.B.B.B.B.B.B.B.B.B.B.B.B.B.B.B.B.B.B.B.B.B.B.B.B.B.B.B.B.B.B.B.B.B.B.B.B.B.B.B.B.B.B.B.B.B.B.B.B.B.B.B.B.B.B.B.B.B.B.B.B.B.B.B.B.B.B.B.B.B.B.B.B.B.B.B.B.B.B.B.B.B.B.B.B.B.B.B.B.B.B.B.B.B.B.B.B.B.B.B.B.B.B.B.B.B.B.B.B.B.B.B.B.B.B.B.B.B.B.B.B.B.B.B.B.B.B.B.B.B.B.B.B.B.B.B.B.B.B.B.B.B.B.B.B.B.B.B.B.B.B.B.B.B.B.B.B.B.B.B.B.B.B.B.B.B.B.B.B.B.B.B.B.B.B.B.B.B.B.B.B.B.B.B.B.B.B.B.B.B.B.B.B.B.B.B.B.B.B.B.B.B.B.B.B.B.B.B.B.B.B.B.B.B.B.B.B.B.B.B.B.B.B.B.B.B.B.B.B.B.B.B.B.B.B.B.B.B.B.B.B.B.B.B.B.B.B.B.B.B.B.B.B.B.B.B.B.B.B.B.B.B.B.B.B.B.B.B.B.B.B.B.B.B.B.B.B.B.B.B.B.B.B.B.B.B.B.B.B.B.B.B.B.B.B.B.B.B.B.B.B.B.B.B.B.B.B.B.B.B.B.B.B.B.B.B.B.B.B.B.B.B.B.B.B.B.B.B.B.B.B.B.B.B.B.B.B.B.B.B.B.B.B.B.B.B.B.B.B.B.B.B.B.B.B.B.B.B.B.B.B.B.B.B.B.B.B.B.B.B.B.B.B.B.B.B.B.B.B.B.B.B.B.B.B.B.B.B.B.B.B.B.B.B.B.B.B.B.B.B.B.B.B.B.B.B.B.B.B.B.B.B.B.B.B.B.B.B.B.B.B.B.B.B.B.B.B.B.B.B.B.B.B.B.B.B.",
"B.B.B.B.B.B.B.B.B.B.B.B.B.B.B.B.B.B.B.B.B.B.B.B.B.B.B.B.B.B.B.B.B.B.B.B.B.B.B.B.B.B.B.B.B.B.B.B.B.B.B.B.B.B.B.B.B.B.B.B.B.B.B.B.B.B.B.B.B.B.B.B.B.B.B.B.B.B.B.B.B.B.B.B.B.B.B.B.B.B.B.B.B.B.B.B.B.B.B.B.B.B.B.B.B.B.B.B.B.B.B.B.B.B.B.B.B.B.B.B.B.B.B.B.B.B.B.B.B.B.B.B.B.B.B.B.B.B.B.B.B.B.B.B.B.B.B.B.B.B.B.B.B.B.B.B.B.B.B.B.B.B.B.B.B.B.B.B.B.B.B.B.B.B.B.B.B.B.B.B.B.B.B.B.B.B.B.B.B.B.B.B.B.B.B.B.B.B.B.B.B.B.B.B.B.B.B.B.B.B.B.B.B.B.B.B.B.B.B.B.B.B.B.B.B.B.B.B.B.B.B.B.B.B.B.B.B.B.B.B.B.B.B.B.B.B.B.B.B.B.B.B.B.B.B.B.B.B.B.B.B.B.B.B.B.B.B.B.B.B.B.B.B.B.B.B.B.B.B.B.B.B.B.B.B.B.B.B.B.B.B.B.B.B.B.B.B.B.B.B.B.B.B.B.B.B.B.B.B.B.B.B.B.B.B.B.B.B.B.B.B.B.B.B.B.B.B.B.B.B.B.B.B.B.B.B.B.B.B.B.B.B.B.B.B.B.B.B.B.B.B.B.B.B.B.B.B.B.B.B.B.B.B.B.B.B.B.B.B.B.B.B.B.B.B.B.B.B.B.B.B.B.B.B.B.B.B.B.B.B.B.B.B.B.B.B.B.B.B.B.B.B.B.B.B.B.B.B.B.B.B.B.B.B.B.B.B.B.B.B.B.B.B.B.B.B.B.B.N.N.N.N.B.B.B.B.B.B.B.B.B.B.B.B.B.B.B.B.B.B.B.B.B.B.N.N.N.N.N.N.B.B.B.B.B.B.B.B.B.B.B.B.B.B.B.B.B.B.N.N.N.N.B.B.B.B.B.B.B.B.B.B.B.B.B.B.B.B.B.B.B.B.B.B.B.N.N.N.N.B.B.B.B.B.B.B.B.B.B.B.B.N.N.N.B.B.B.B.B.B.B.B.B.B.B.B.B.B.B.B.B.B.B.B.B.B.N.N.N.B.B.B.B.B.B.B.B.B.B.B.B.B.B.B.B.B.B.B.B.B.B.B.B.B.B.B.B.B.B.B.B.B.B.B.B.B.B.B.B.B.B.B.B.B.B.B.B.B.B.B.B.B.B.B.B.B.B.B.B.B.B.B.B.B.B.B.B.B.B.B.B.B.B.B.B.B.B.B.B.B.B.B.B.B.B.B.B.B.B.B.B.B.B.B.B.B.B.B.B.B.B.B.B.B.B.B.B.B.B.B.B.B.B.B.B.B.B.B.B.B.B.B.B.B.B.B.B.B.B.B.B.B.B.B.B.B.B.B.B.B.B.B.B.B.B.B.B.B.B.B.B.B.B.B.B.B.B.B.B.B.B.B.B.B.B.B.B.B.B.B.B.B.B.B.B.B.B.B.B.B.B.B.B.B.B.B.B.B.B.B.B.B.B.B.B.B.B.B.B.B.B.B.B.B.B.B.B.B.B.B.B.B.B.B.B.B.B.B.B.B.B.B.B.B.B.B.B.B.B.B.B.B.B.B.B.B.B.B.B.B.B.B.B.B.B.B.B.B.B.B.B.B.B.B.B.B.B.B.B.B.B.B.B.B.B.B.B.B.B.B.B.B.B.B.B.B.B.B.B.B.B.B.B.B.B.B.B.B.B.B.B.B.B.B.B.B.B.B.B.B.B.B.B.B.B.B.B.B.B.B.B.B.B.B.B.B.B.B.B.B.B.B.B.B.B.B.B.B.B.B.B.B.B.B.B.B.B.B.B.B.B.B.B.B.B.B.B.B.B.B.B.B.B.B.B.B.B.B.B.B.B.B.B.B.B.B.B.B.B.B.B.B.B.B.B.B.B.B.B.B.B.B.B.B.B.B.B.B.B.B.B.B.B.B.B.B.B.B.B.B.B.B.B.B.B.B.B.B.B.B.B.B.B.B.B.B.B.B.B.B.B.B.B.B.B.B.B.B.B.B.B.B.B.B.B.B.B.B.B.B.B.B.B.B.B.B.B.B.B.B.",
"B.B.B.B.B.B.B.B.B.B.B.B.B.B.B.B.B.B.B.B.B.B.B.B.B.B.B.B.B.B.B.B.B.B.B.B.B.B.B.B.B.B.B.B.B.B.B.B.B.B.B.B.B.B.B.B.B.B.B.B.B.B.B.B.B.B.B.B.B.B.B.B.B.B.B.B.B.B.B.B.B.B.B.B.B.B.B.B.B.B.B.B.B.B.B.B.B.B.B.B.B.B.B.B.B.B.B.B.B.B.B.B.B.B.B.B.B.B.B.B.B.B.B.B.B.B.B.B.B.B.B.B.B.B.B.B.B.B.B.B.B.B.B.B.B.B.B.B.B.B.B.B.B.B.B.B.B.B.B.B.B.B.B.B.B.B.B.B.B.B.B.B.B.B.B.B.B.B.B.B.B.B.B.B.B.B.B.B.B.B.B.B.B.B.B.B.B.B.B.B.B.B.B.B.B.B.B.B.B.B.B.B.B.B.B.B.B.B.B.B.B.B.B.B.B.B.B.B.B.B.B.B.B.B.B.B.B.B.B.B.B.B.B.B.B.B.B.B.B.B.B.B.B.B.B.B.B.B.B.B.B.B.B.B.B.B.B.B.B.B.B.B.B.B.B.B.B.B.B.B.B.B.B.B.B.B.B.B.B.B.B.B.B.B.B.B.B.B.B.B.B.B.B.B.B.B.B.B.B.B.B.B.B.B.B.B.B.B.B.B.B.B.B.B.B.B.B.B.B.B.B.B.B.B.B.B.B.B.B.B.B.B.B.B.B.B.B.B.B.B.B.B.B.B.B.B.B.B.B.B.B.B.B.B.B.B.B.B.B.B.B.B.B.B.B.B.B.B.B.B.B.B.B.B.B.B.B.B.B.B.B.B.B.B.B.B.B.B.B.B.B.B.B.B.B.B.B.B.B.B.B.B.B.B.B.B.B.B.B.B.B.B.B.B.B.B.B.B.B.N.N.N.N.N.B.B.B.B.B.B.B.B.B.B.B.B.B.B.B.B.B.B.B.B.N.N.N.N.N.B.B.B.B.B.B.B.B.B.B.B.B.B.B.B.B.B.B.B.B.N.N.N.N.B.B.B.B.B.B.B.B.B.B.B.B.B.B.B.B.B.B.B.B.N.N.N.N.N.B.B.B.B.B.B.B.B.B.B.B.B.B.N.N.N.B.B.B.B.B.B.B.B.B.B.B.B.B.B.B.B.B.B.B.B.B.B.N.N.N.B.B.B.B.B.B.B.B.B.B.B.B.B.B.B.B.B.B.B.B.B.B.B.B.B.B.B.B.B.B.B.B.B.B.B.B.B.B.B.B.B.B.B.B.B.B.B.B.B.B.B.B.B.B.B.B.B.B.B.B.B.B.B.B.B.B.B.B.B.B.B.B.B.B.B.B.B.B.B.B.B.B.B.B.B.B.B.B.B.B.B.B.B.B.B.B.B.B.B.B.B.B.B.B.B.B.B.B.B.B.B.B.B.B.B.B.B.B.B.B.B.B.B.B.B.B.B.B.B.B.B.B.B.B.B.B.B.B.B.B.B.B.B.B.B.B.B.B.B.B.B.B.B.B.B.B.B.B.B.B.B.B.B.B.B.B.B.B.B.B.B.B.B.B.B.B.B.B.B.B.B.B.B.B.B.B.B.B.B.B.B.B.B.B.B.B.B.B.B.B.B.B.B.B.B.B.B.B.B.B.B.B.B.B.B.B.B.B.B.B.B.B.B.B.B.B.B.B.B.B.B.B.B.B.B.B.B.B.B.B.B.B.B.B.B.B.B.B.B.B.B.B.B.B.B.B.B.B.B.B.B.B.B.B.B.B.B.B.B.B.B.B.B.B.B.B.B.B.B.B.B.B.B.B.B.B.B.B.B.B.B.B.B.B.B.B.B.B.B.B.B.B.B.B.B.B.B.B.B.B.B.B.B.B.B.B.B.B.B.B.B.B.B.B.B.B.B.B.B.B.B.B.B.B.B.B.B.B.B.B.B.B.B.B.B.B.B.B.B.B.B.B.B.B.B.B.B.B.B.B.B.B.B.B.B.B.B.B.B.B.B.B.B.B.B.B.B.B.B.B.B.B.B.B.B.B.B.B.B.B.B.B.B.B.B.B.B.B.B.B.B.B.B.B.B.B.B.B.B.B.B.B.B.B.B.B.B.B.B.B.B.B.B.B.B.B.B.B.B.B.B.B.B.B.B.B.B.B.B.B.B.B.B.B.B.B.B.B.B.B.B.",
"B.B.B.B.B.B.B.B.B.B.B.B.B.B.B.B.B.B.B.B.B.B.B.B.B.B.B.B.B.B.B.B.B.B.B.B.B.B.B.B.B.B.B.B.B.B.B.B.B.B.B.B.B.B.B.B.B.B.B.B.B.B.B.B.B.B.B.B.B.B.B.B.B.B.B.B.B.B.B.B.B.B.B.B.B.B.B.B.B.B.B.B.B.B.B.B.B.B.B.B.B.B.B.B.B.B.B.B.B.B.B.B.B.B.B.B.B.B.B.B.B.B.B.B.B.B.B.B.B.B.B.B.B.B.B.B.B.B.B.B.B.B.B.B.B.B.B.B.B.B.B.B.B.B.B.B.B.B.B.B.B.B.B.B.B.B.B.B.B.B.B.B.B.B.B.B.B.B.B.B.B.B.B.B.B.B.B.B.B.B.B.B.B.B.B.B.B.B.B.B.B.B.B.B.B.B.B.B.B.B.B.B.B.B.B.B.B.B.B.B.B.B.B.B.B.B.B.B.B.B.B.B.B.B.B.B.B.B.B.B.B.B.B.B.B.B.B.B.B.B.B.B.B.B.B.B.B.B.B.B.B.B.B.B.B.B.B.B.B.B.B.B.B.B.B.B.B.B.B.B.B.B.B.B.B.B.B.B.B.B.B.B.B.B.B.B.B.B.B.B.B.B.B.B.B.B.B.B.B.B.B.B.B.B.B.B.B.B.B.B.B.B.B.B.B.B.B.B.B.B.B.B.B.B.B.B.B.B.B.B.B.B.B.B.B.B.B.B.B.B.B.B.B.B.B.B.B.B.B.B.B.B.B.B.B.B.B.B.B.B.B.B.B.B.B.B.B.B.B.B.B.B.B.B.B.B.B.B.B.B.B.B.B.B.B.B.B.B.B.B.B.B.B.B.B.B.B.B.B.B.B.B.B.B.B.B.B.B.B.B.B.B.B.B.B.B.B.B.B.B.N.N.N.N.N.B.B.B.B.B.B.B.B.B.B.B.B.B.B.B.B.B.N.N.N.N.N.N.N.N.B.B.B.B.B.B.B.B.B.B.B.B.B.B.B.B.B.B.B.B.N.N.N.N.N.B.B.B.B.B.B.B.B.B.B.B.B.B.B.B.B.N.N.N.N.N.N.B.B.B.B.B.B.B.B.B.B.B.B.B.B.N.N.N.B.B.B.B.B.B.B.B.B.B.B.B.B.B.B.B.B.B.B.B.B.B.N.N.N.B.B.B.B.B.B.B.B.B.B.B.B.B.B.B.B.B.B.B.B.B.B.B.B.B.B.B.B.B.B.B.B.B.B.B.B.B.B.B.B.B.B.B.B.B.B.B.B.B.B.B.B.B.B.B.B.B.B.B.B.B.B.B.B.B.B.B.B.B.B.B.B.B.B.B.B.B.B.B.B.B.B.B.B.B.B.B.B.B.B.B.B.B.B.B.B.B.B.B.B.B.B.B.B.B.B.B.B.B.B.B.B.B.B.B.B.B.B.B.B.B.B.B.B.B.B.B.B.B.B.B.B.B.B.B.B.B.B.B.B.B.B.B.B.B.B.B.B.B.B.B.B.B.B.B.B.B.B.B.B.B.B.B.B.B.B.B.B.B.B.B.B.B.B.B.B.B.B.B.B.B.B.B.B.B.B.B.B.B.B.B.B.B.B.B.B.B.B.B.B.B.B.B.B.B.B.B.B.B.B.B.B.B.B.B.B.B.B.B.B.B.B.B.B.B.B.B.B.B.B.B.B.B.B.B.B.B.B.B.B.B.B.B.B.B.B.B.B.B.B.B.B.B.B.B.B.B.B.B.B.B.B.B.B.B.B.B.B.B.B.B.B.B.B.B.B.B.B.B.B.B.B.B.B.B.B.B.B.B.B.B.B.B.B.B.B.B.B.B.B.B.B.B.B.B.B.B.B.B.B.B.B.B.B.B.B.B.B.B.B.B.B.B.B.B.B.B.B.B.B.B.B.B.B.B.B.B.B.B.B.B.B.B.B.B.B.B.B.B.B.B.B.B.B.B.B.B.B.B.B.B.B.B.B.B.B.B.B.B.B.B.B.B.B.B.B.B.B.B.B.B.B.B.B.B.B.B.B.B.B.B.B.B.B.B.B.B.B.B.B.B.B.B.B.B.B.B.B.B.B.B.B.B.B.B.B.B.B.B.B.B.B.B.B.B.B.B.B.B.B.B.B.B.B.B.B.B.B.B.B.B.B.B.B.B.B.B.B.B.B.B.",
"B.B.B.B.B.B.B.B.B.B.B.B.B.B.B.B.B.B.B.B.B.B.B.B.B.B.B.B.B.B.B.B.B.B.B.B.B.B.B.B.B.B.B.B.B.B.B.B.B.B.B.B.B.B.B.B.B.B.B.B.B.B.B.B.B.B.B.B.B.B.B.B.B.B.B.B.B.B.B.B.B.B.B.B.B.B.B.B.B.B.B.B.B.B.B.B.B.B.B.B.B.B.B.B.B.B.B.B.B.B.B.B.B.B.B.B.B.B.B.B.B.B.B.B.B.B.B.B.B.B.B.B.B.B.B.B.B.B.B.B.B.B.B.B.B.B.B.B.B.B.B.B.B.B.B.B.B.B.B.B.B.B.B.B.B.B.B.B.B.B.B.B.B.B.B.B.B.B.B.B.B.B.B.B.B.B.B.B.B.B.B.B.B.B.B.B.B.B.B.B.B.B.B.B.B.B.B.B.B.B.B.B.B.B.B.B.B.B.B.B.B.B.B.B.B.B.B.B.B.B.B.B.B.B.B.B.B.B.B.B.B.B.B.B.B.B.B.B.B.B.B.B.B.B.B.B.B.B.B.B.B.B.B.B.B.B.B.B.B.B.B.B.B.B.B.B.B.B.B.B.B.B.B.B.B.B.B.B.B.B.B.B.B.B.B.B.B.B.B.B.B.B.B.B.B.B.B.B.B.B.B.B.B.B.B.B.B.B.B.B.B.B.B.B.B.B.B.B.B.B.B.B.B.B.B.B.B.B.B.B.B.B.B.B.B.B.B.B.B.B.B.B.B.B.B.B.B.B.B.B.B.B.B.B.B.B.B.B.B.B.B.B.B.B.B.B.B.B.B.B.B.B.B.B.B.B.B.B.B.B.B.B.B.B.B.B.B.B.B.B.B.B.B.B.B.B.B.B.B.B.B.B.B.B.B.B.B.B.B.B.B.B.B.B.B.B.B.B.B.B.B.N.N.N.N.N.N.N.B.B.B.B.B.B.B.B.B.B.B.N.N.N.N.N.N.N.B.N.N.N.N.B.B.B.B.B.B.B.B.B.B.B.B.B.B.B.B.B.B.B.B.N.N.N.N.N.N.N.B.B.B.B.B.B.B.B.B.B.B.N.N.N.N.N.N.N.B.B.B.B.B.B.B.B.B.B.B.B.B.B.N.N.N.N.B.B.B.B.B.B.B.B.B.B.B.B.B.B.B.B.B.B.B.B.B.N.N.N.N.B.B.B.B.B.B.B.B.B.B.B.B.B.B.B.B.B.B.B.B.B.B.B.B.B.B.B.B.B.B.B.B.B.B.B.B.B.B.B.B.B.B.B.B.B.B.B.B.B.B.B.B.B.B.B.B.B.B.B.B.B.B.B.B.B.B.B.B.B.B.B.B.B.B.B.B.B.B.B.B.B.B.B.B.B.B.B.B.B.B.B.B.B.B.B.B.B.B.B.B.B.B.B.B.B.B.B.B.B.B.B.B.B.B.B.B.B.B.B.B.B.B.B.B.B.B.B.B.B.B.B.B.B.B.B.B.B.B.B.B.B.B.B.B.B.B.B.B.B.B.B.B.B.B.B.B.B.B.B.B.B.B.B.B.B.B.B.B.B.B.B.B.B.B.B.B.B.B.B.B.B.B.B.B.B.B.B.B.B.B.B.B.B.B.B.B.B.B.B.B.B.B.B.B.B.B.B.B.B.B.B.B.B.B.B.B.B.B.B.B.B.B.B.B.B.B.B.B.B.B.B.B.B.B.B.B.B.B.B.B.B.B.B.B.B.B.B.B.B.B.B.B.B.B.B.B.B.B.B.B.B.B.B.B.B.B.B.B.B.B.B.B.B.B.B.B.B.B.B.B.B.B.B.B.B.B.B.B.B.B.B.B.B.B.B.B.B.B.B.B.B.B.B.B.B.B.B.B.B.B.B.B.B.B.B.B.B.B.B.B.B.B.B.B.B.B.B.B.B.B.B.B.B.B.B.B.B.B.B.B.B.B.B.B.B.B.B.B.B.B.B.B.B.B.B.B.B.B.B.B.B.B.B.B.B.B.B.B.B.B.B.B.B.B.B.B.B.B.B.B.B.B.B.B.B.B.B.B.B.B.B.B.B.B.B.B.B.B.B.B.B.B.B.B.B.B.B.B.B.B.B.B.B.B.B.B.B.B.B.B.B.B.B.B.B.B.B.B.B.B.B.B.B.B.B.B.B.B.B.B.B.B.B.B.B.B.B.B.B.B.B.",
"B.B.B.B.B.B.B.B.B.B.B.B.B.B.B.B.B.B.B.B.B.B.B.B.B.B.B.B.B.B.B.B.B.B.B.B.B.B.B.B.B.B.B.B.B.B.B.B.B.B.B.B.B.B.B.B.B.B.B.B.B.B.B.B.B.B.B.B.B.B.B.B.B.B.B.B.B.B.B.B.B.B.B.B.B.B.B.B.B.B.B.B.B.B.B.B.B.B.B.B.B.B.B.B.B.B.B.B.B.B.B.B.B.B.B.B.B.B.B.B.B.B.B.B.B.B.B.B.B.B.B.B.B.B.B.B.B.B.B.B.B.B.B.B.B.B.B.B.B.B.B.B.B.B.B.B.B.B.B.B.B.B.B.B.B.B.B.B.B.B.B.B.B.B.B.B.B.B.B.B.B.B.B.B.B.B.B.B.B.B.B.B.B.B.B.B.B.B.B.B.B.B.B.B.B.B.B.B.B.B.B.B.B.B.B.B.B.B.B.B.B.B.B.B.B.B.B.B.B.B.B.B.B.B.B.B.B.B.B.B.B.B.B.B.B.B.B.B.B.B.B.B.B.B.B.B.B.B.B.B.B.B.B.B.B.B.B.B.B.B.B.B.B.B.B.B.B.B.B.B.B.B.B.B.B.B.B.B.B.B.B.B.B.B.B.B.B.B.B.B.B.B.B.B.B.B.B.B.B.B.B.B.B.B.B.B.B.B.B.B.B.B.B.B.B.B.B.B.B.B.B.B.B.B.B.B.B.B.B.B.B.B.B.B.B.B.B.B.B.B.B.B.B.B.B.B.B.B.B.B.B.B.B.B.B.B.B.B.B.B.B.B.B.B.B.B.B.B.B.B.B.B.B.B.B.B.B.B.B.B.B.B.B.B.B.B.B.B.B.B.B.B.B.B.B.B.B.B.B.B.B.B.B.B.B.B.B.B.B.B.B.B.B.B.B.B.B.B.B.B.B.B.B.N.N.N.N.N.N.N.N.N.N.N.N.N.N.N.N.N.N.N.N.N.B.B.B.B.N.N.N.N.B.B.B.B.B.B.B.B.B.B.B.B.B.B.B.B.B.B.B.B.N.N.N.N.N.N.N.N.N.N.N.N.N.N.N.N.N.N.N.N.N.N.B.B.B.B.B.B.B.B.B.B.B.B.B.B.B.B.N.N.N.B.B.B.B.B.B.B.B.B.B.B.B.B.B.B.B.B.B.B.B.B.B.N.N.N.B.B.B.B.B.B.B.B.B.B.B.B.B.B.B.B.B.B.B.B.B.B.B.B.B.B.B.B.B.B.B.B.B.B.B.B.B.B.B.B.B.B.B.B.B.B.B.B.B.B.B.B.B.B.B.B.B.B.B.B.B.B.B.B.B.B.B.B.B.B.B.B.B.B.B.B.B.B.B.B.B.B.B.B.B.B.B.B.B.B.B.B.B.B.B.B.B.B.B.B.B.B.B.B.B.B.B.B.B.B.B.B.B.B.B.B.B.B.B.B.B.B.B.B.B.B.B.B.B.B.B.B.B.B.B.B.B.B.B.B.B.B.B.B.B.B.B.B.B.B.B.B.B.B.B.B.B.B.B.B.B.B.B.B.B.B.B.B.B.B.B.B.B.B.B.B.B.B.B.B.B.B.B.B.B.B.B.B.B.B.B.B.B.B.B.B.B.B.B.B.B.B.B.B.B.B.B.B.B.B.B.B.B.B.B.B.B.B.B.B.B.B.B.B.B.B.B.B.B.B.B.B.B.B.B.B.B.B.B.B.B.B.B.B.B.B.B.B.B.B.B.B.B.B.B.B.B.B.B.B.B.B.B.B.B.B.B.B.B.B.B.B.B.B.B.B.B.B.B.B.B.B.B.B.B.B.B.B.B.B.B.B.B.B.B.B.B.B.B.B.B.B.B.B.B.B.B.B.B.B.B.B.B.B.B.B.B.B.B.B.B.B.B.B.B.B.B.B.B.B.B.B.B.B.B.B.B.B.B.B.B.B.B.B.B.B.B.B.B.B.B.B.B.B.B.B.B.B.B.B.B.B.B.B.B.B.B.B.B.B.B.B.B.B.B.B.B.B.B.B.B.B.B.B.B.B.B.B.B.B.B.B.B.B.B.B.B.B.B.B.B.B.B.B.B.B.B.B.B.B.B.B.B.B.B.B.B.B.B.B.B.B.B.B.B.B.B.B.B.B.B.B.B.B.B.B.B.B.B.B.B.B.B.B.B.B.B.B.B.B.B.B.",
"B.B.B.B.B.B.B.B.B.B.B.B.B.B.B.B.B.B.B.B.B.B.B.B.B.B.B.B.B.B.B.B.B.B.B.B.B.B.B.B.B.B.B.B.B.B.B.B.B.B.B.B.B.B.B.B.B.B.B.B.B.B.B.B.B.B.B.B.B.B.B.B.B.B.B.B.B.B.B.B.B.B.B.B.B.B.B.B.B.B.B.B.B.B.B.B.B.B.B.B.B.B.B.B.B.B.B.B.B.B.B.B.B.B.B.B.B.B.B.B.B.B.B.B.B.B.B.B.B.B.B.B.B.B.B.B.B.B.B.B.B.B.B.B.B.B.B.B.B.B.B.B.B.B.B.B.B.B.B.B.B.B.B.B.B.B.B.B.B.B.B.B.B.B.B.B.B.B.B.B.B.B.B.B.B.B.B.B.B.B.B.B.B.B.B.B.B.B.B.B.B.B.B.B.B.B.B.B.B.B.B.B.B.B.B.B.B.B.B.B.B.B.B.B.B.B.B.B.B.B.B.B.B.B.B.B.B.B.B.B.B.B.B.B.B.B.B.B.B.B.B.B.B.B.B.B.B.B.B.B.B.B.B.B.B.B.B.B.B.B.B.B.B.B.B.B.B.B.B.B.B.B.B.B.B.B.B.B.B.B.B.B.B.B.B.B.B.B.B.B.B.B.B.B.B.B.B.B.B.B.B.B.B.B.B.B.B.B.B.B.B.B.B.B.B.B.B.B.B.B.B.B.B.B.B.B.B.B.B.B.B.B.B.B.B.B.B.B.B.B.B.B.B.B.B.B.B.B.B.B.B.B.B.B.B.B.B.B.B.B.B.B.B.B.B.B.B.B.B.B.B.B.B.B.B.B.B.B.B.B.B.B.B.B.B.B.B.B.B.B.B.B.B.B.B.B.B.B.B.B.B.B.B.B.B.B.B.B.B.B.B.B.B.B.B.B.B.B.B.B.B.B.B.B.B.N.N.N.N.N.N.N.N.N.N.N.N.N.N.N.N.N.B.B.B.B.B.B.B.N.N.N.N.B.B.B.B.B.B.B.B.B.B.B.B.B.B.B.B.B.B.B.B.B.N.N.N.N.N.N.N.N.N.N.N.N.N.N.N.N.N.N.B.B.B.B.B.B.B.B.B.B.B.B.B.B.B.B.B.B.N.N.N.B.B.B.B.B.B.B.B.B.B.B.B.B.B.B.B.B.B.B.B.B.B.N.N.N.B.B.B.B.B.B.B.B.B.B.B.B.B.B.B.B.B.B.B.B.B.B.B.B.B.B.B.B.B.B.B.B.B.B.B.B.B.B.B.B.B.B.B.B.B.B.B.B.B.B.B.B.B.B.B.B.B.B.B.B.B.B.B.B.B.B.B.B.B.B.B.B.B.B.B.B.B.B.B.B.B.B.B.B.B.B.B.B.B.B.B.B.B.B.B.B.B.B.B.B.B.B.B.B.B.B.B.B.B.B.B.B.B.B.B.B.B.B.B.B.B.B.B.B.B.B.B.B.B.B.B.B.B.B.B.B.B.B.B.B.B.B.B.B.B.B.B.B.B.B.B.B.B.B.B.B.B.B.B.B.B.B.B.B.B.B.B.B.B.B.B.B.B.B.B.B.B.B.B.B.B.B.B.B.B.B.B.B.B.B.B.B.B.B.B.B.B.B.B.B.B.B.B.B.B.B.B.B.B.B.B.B.B.B.B.B.B.B.B.B.B.B.B.B.B.B.B.B.B.B.B.B.B.B.B.B.B.B.B.B.B.B.B.B.B.B.B.B.B.B.B.B.B.B.B.B.B.B.B.B.B.B.B.B.B.B.B.B.B.B.B.B.B.B.B.B.B.B.B.B.B.B.B.B.B.B.B.B.B.B.B.B.B.B.B.B.B.B.B.B.B.B.B.B.B.B.B.B.B.B.B.B.B.B.B.B.B.B.B.B.B.B.B.B.B.B.B.B.B.B.B.B.B.B.B.B.B.B.B.B.B.B.B.B.B.B.B.B.B.B.B.B.B.B.B.B.B.B.B.B.B.B.B.B.B.B.B.B.B.B.B.B.B.B.B.B.B.B.B.B.B.B.B.B.B.B.B.B.B.B.B.B.B.B.B.B.B.B.B.B.B.B.B.B.B.B.B.B.B.B.B.B.B.B.B.B.B.B.B.B.B.B.B.B.B.B.B.B.B.B.B.B.B.B.B.B.B.B.B.B.B.B.B.B.B.B.B.B.B.B.B.B.",
"B.B.B.B.B.B.B.B.B.B.B.B.B.B.B.B.B.B.B.B.B.B.B.B.B.B.B.B.B.B.B.B.B.B.B.B.B.B.B.B.B.B.B.B.B.B.B.B.B.B.B.B.B.B.B.B.B.B.B.B.B.B.B.B.B.B.B.B.B.B.B.B.B.B.B.B.B.B.B.B.B.B.B.B.B.B.B.B.B.B.B.B.B.B.B.B.B.B.B.B.B.B.B.B.B.B.B.B.B.B.B.B.B.B.B.B.B.B.B.B.B.B.B.B.B.B.B.B.B.B.B.B.B.B.B.B.B.B.B.B.B.B.B.B.B.B.B.B.B.B.B.B.B.B.B.B.B.B.B.B.B.B.B.B.B.B.B.B.B.B.B.B.B.B.B.B.B.B.B.B.B.B.B.B.B.B.B.B.B.B.B.B.B.B.B.B.B.B.B.B.B.B.B.B.B.B.B.B.B.B.B.B.B.B.B.B.B.B.B.B.B.B.B.B.B.B.B.B.B.B.B.B.B.B.B.B.B.B.B.B.B.B.B.B.B.B.B.B.B.B.B.B.B.B.B.B.B.B.B.B.B.B.B.B.B.B.B.B.B.B.B.B.B.B.B.B.B.B.B.B.B.B.B.B.B.B.B.B.B.B.B.B.B.B.B.B.B.B.B.B.B.B.B.B.B.B.B.B.B.B.B.B.B.B.B.B.B.B.B.B.B.B.B.B.B.B.B.B.B.B.B.B.B.B.B.B.B.B.B.B.B.B.B.B.B.B.B.B.B.B.B.B.B.B.B.B.B.B.B.B.B.B.B.B.B.B.B.B.B.B.B.B.B.B.B.B.B.B.B.B.B.B.B.B.B.B.B.B.B.B.B.B.B.B.B.B.B.B.B.B.B.B.B.B.B.B.B.B.B.B.B.B.B.B.B.B.B.B.B.B.B.B.B.B.B.B.B.B.B.B.B.B.B.B.B.B.B.B.B.N.N.N.N.N.N.N.N.N.B.B.B.B.B.B.B.B.B.B.B.B.N.N.N.N.B.B.B.B.B.B.B.B.B.B.B.B.B.B.B.B.B.B.B.B.B.B.B.B.B.N.N.N.N.N.N.N.N.B.B.B.B.B.B.B.B.B.B.B.B.B.B.B.B.B.B.B.B.B.B.B.B.B.B.B.B.B.B.B.B.B.B.B.B.B.B.B.B.B.B.B.B.B.B.B.B.B.B.B.B.B.B.B.B.B.B.B.B.B.B.B.B.B.B.B.B.B.B.B.B.B.B.B.B.B.B.B.B.B.B.B.B.B.B.B.B.B.B.B.B.B.B.B.B.B.B.B.B.B.B.B.B.B.B.B.B.B.B.B.B.B.B.B.B.B.B.B.B.B.B.B.B.B.B.B.B.B.B.B.B.B.B.B.B.B.B.B.B.B.B.B.B.B.B.B.B.B.B.B.B.B.B.B.B.B.B.B.B.B.B.B.B.B.B.B.B.B.B.B.B.B.B.B.B.B.B.B.B.B.B.B.B.B.B.B.B.B.B.B.B.B.B.B.B.B.B.B.B.B.B.B.B.B.B.B.B.B.B.B.B.B.B.B.B.B.B.B.B.B.B.B.B.B.B.B.B.B.B.B.B.B.B.B.B.B.B.B.B.B.B.B.B.B.B.B.B.B.B.B.B.B.B.B.B.B.B.B.B.B.B.B.B.B.B.B.B.B.B.B.B.B.B.B.B.B.B.B.B.B.B.B.B.B.B.B.B.B.B.B.B.B.B.B.B.B.B.B.B.B.B.B.B.B.B.B.B.B.B.B.B.B.B.B.B.B.B.B.B.B.B.B.B.B.B.B.B.B.B.B.B.B.B.B.B.B.B.B.B.B.B.B.B.B.B.B.B.B.B.B.B.B.B.B.B.B.B.B.B.B.B.B.B.B.B.B.B.B.B.B.B.B.B.B.B.B.B.B.B.B.B.B.B.B.B.B.B.B.B.B.B.B.B.B.B.B.B.B.B.B.B.B.B.B.B.B.B.B.B.B.B.B.B.B.B.B.B.B.B.B.B.B.B.B.B.B.B.B.B.B.B.B.B.B.B.B.B.B.B.B.B.B.B.B.B.B.B.B.B.B.B.B.B.B.B.B.B.B.B.B.B.B.B.B.B.B.B.B.B.B.B.B.B.B.B.B.B.B.B.B.B.B.B.B.B.B.B.B.B.B.B.B.B.B.B.B.B.B.B.B.B.B.",
"B.B.B.B.B.B.B.B.B.B.B.B.B.B.B.B.B.B.B.B.B.B.B.B.B.B.B.B.B.B.B.B.B.B.B.B.B.B.B.B.B.B.B.B.B.B.B.B.B.B.B.B.B.B.B.B.B.B.B.B.B.B.B.B.B.B.B.B.B.B.B.B.B.B.B.B.B.B.B.B.B.B.B.B.B.B.B.B.B.B.B.B.B.B.B.B.B.B.B.B.B.B.B.B.B.B.B.B.B.B.B.B.B.B.B.B.B.B.B.B.B.B.B.B.B.B.B.B.B.B.B.B.B.B.B.B.B.B.B.B.B.B.B.B.B.B.B.B.B.B.B.B.B.B.B.B.B.B.B.B.B.B.B.B.B.B.B.B.B.B.B.B.B.B.B.B.B.B.B.B.B.B.B.B.B.B.B.B.B.B.B.B.B.B.B.B.B.B.B.B.B.B.B.B.B.B.B.B.B.B.B.B.B.B.B.B.B.B.B.B.B.B.B.B.B.B.B.B.B.B.B.B.B.B.B.B.B.B.B.B.B.B.B.B.B.B.B.B.B.B.B.B.B.B.B.B.B.B.B.B.B.B.B.B.B.B.B.B.B.B.B.B.B.B.B.B.B.B.B.B.B.B.B.B.B.B.B.B.B.B.B.B.B.B.B.B.B.B.B.B.B.B.B.B.B.B.B.B.B.B.B.B.B.B.B.B.B.B.B.B.B.B.B.B.B.B.B.B.B.B.B.B.B.B.B.B.B.B.B.B.B.B.B.B.B.B.B.B.B.B.B.B.B.B.B.B.B.B.B.B.B.B.B.B.B.B.B.B.B.B.B.B.B.B.B.B.B.B.B.B.B.B.B.B.B.B.B.B.B.B.B.B.B.B.B.B.B.B.B.B.B.B.B.B.B.B.B.B.B.B.B.B.B.B.B.B.B.B.B.B.B.B.B.B.B.B.B.B.B.B.B.B.B.B.B.B.B.B.B.B.B.B.B.B.B.B.B.B.B.B.B.B.B.B.B.B.B.B.B.B.B.N.N.N.N.B.B.B.B.B.B.B.B.B.B.B.B.B.B.B.B.B.B.B.B.B.B.B.B.B.B.B.B.B.B.B.B.B.B.B.B.B.B.B.B.B.B.B.B.B.B.B.B.B.B.B.B.B.B.B.B.B.B.B.B.B.B.B.B.B.B.B.B.B.B.B.B.B.B.B.B.B.B.B.B.B.B.B.B.B.B.B.B.B.B.B.B.B.B.B.B.B.B.B.B.B.B.B.B.B.B.B.B.B.B.B.B.B.B.B.B.B.B.B.B.B.B.B.B.B.B.B.B.B.B.B.B.B.B.B.B.B.B.B.B.B.B.B.B.B.B.B.B.B.B.B.B.B.B.B.B.B.B.B.B.B.B.B.B.B.B.B.B.B.B.B.B.B.B.B.B.B.B.B.B.B.B.B.B.B.B.B.B.B.B.B.B.B.B.B.B.B.B.B.B.B.B.B.B.B.B.B.B.B.B.B.B.B.B.B.B.B.B.B.B.B.B.B.B.B.B.B.B.B.B.B.B.B.B.B.B.B.B.B.B.B.B.B.B.B.B.B.B.B.B.B.B.B.B.B.B.B.B.B.B.B.B.B.B.B.B.B.B.B.B.B.B.B.B.B.B.B.B.B.B.B.B.B.B.B.B.B.B.B.B.B.B.B.B.B.B.B.B.B.B.B.B.B.B.B.B.B.B.B.B.B.B.B.B.B.B.B.B.B.B.B.B.B.B.B.B.B.B.B.B.B.B.B.B.B.B.B.B.B.B.B.B.B.B.B.B.B.B.B.B.B.B.B.B.B.B.B.B.B.B.B.B.B.B.B.B.B.B.B.B.B.B.B.B.B.B.B.B.B.B.B.B.B.B.B.B.B.B.B.B.B.B.B.B.B.B.B.B.B.B.B.B.B.B.B.B.B.B.B.B.B.B.B.B.B.B.B.B.B.B.B.B.B.B.B.B.B.B.B.B.B.B.B.B.B.B.B.B.B.B.B.B.B.B.B.B.B.B.B.B.B.B.B.B.B.B.B.B.B.B.B.B.B.B.B.B.B.B.B.B.B.B.B.B.B.B.B.B.B.B.B.B.B.B.B.B.B.B.B.B.B.B.B.B.B.B.B.B.B.B.B.B.B.B.B.B.B.B.B.B.B.B.B.B.B.B.B.B.B.B.B.B.B.B.B.B.B.B.B.B.B.B.B.B.B.",
"B.B.B.B.B.B.B.B.B.B.B.B.B.B.B.B.B.B.B.B.B.B.B.B.B.B.B.B.B.B.B.B.B.B.B.B.B.B.B.B.B.B.B.B.B.B.B.B.B.B.B.B.B.B.B.B.B.B.B.B.B.B.B.B.B.B.B.B.B.B.B.B.B.B.B.B.B.B.B.B.B.B.B.B.B.B.B.B.B.B.B.B.B.B.B.B.B.B.B.B.B.B.B.B.B.B.B.B.B.B.B.B.B.B.B.B.B.B.B.B.B.B.B.B.B.B.B.B.B.B.B.B.B.B.B.B.B.B.B.B.B.B.B.B.B.B.B.B.B.B.B.B.B.B.B.B.B.B.B.B.B.B.B.B.B.B.B.B.B.B.B.B.B.B.B.B.B.B.B.B.B.B.B.B.B.B.B.B.B.B.B.B.B.B.B.B.B.B.B.B.B.B.B.B.B.B.B.B.B.B.B.B.B.B.B.B.B.B.B.B.B.B.B.B.B.B.B.B.B.B.B.B.B.B.B.B.B.B.B.B.B.B.B.B.B.B.B.B.B.B.B.B.B.B.B.B.B.B.B.B.B.B.B.B.B.B.B.B.B.B.B.B.B.B.B.B.B.B.B.B.B.B.B.B.B.B.B.B.B.B.B.B.B.B.B.B.B.B.B.B.B.B.B.B.B.B.B.B.B.B.B.B.B.B.B.B.B.B.B.B.B.B.B.B.B.B.B.B.B.B.B.B.B.B.B.B.B.B.B.B.B.B.B.B.B.B.B.B.B.B.B.B.B.B.B.B.B.B.B.B.B.B.B.B.B.B.B.B.B.B.B.B.B.B.B.B.B.B.B.B.B.B.B.B.B.B.B.B.B.B.B.B.B.B.B.B.B.B.B.B.B.B.B.B.B.B.B.B.B.B.B.B.B.B.B.B.B.B.B.B.B.B.B.B.B.B.B.B.B.B.B.B.B.B.B.B.B.B.B.B.B.B.B.B.B.B.B.B.B.B.B.B.B.B.B.B.B.B.B.B.B.B.N.N.N.B.B.B.B.B.B.B.B.B.B.B.B.B.B.B.B.B.B.B.B.B.B.B.B.B.B.B.B.B.B.B.B.B.B.B.B.B.B.B.B.B.B.B.B.B.B.B.B.B.B.B.B.B.B.B.B.B.B.B.B.B.B.B.B.B.B.B.B.B.B.B.B.B.B.B.B.B.B.B.B.B.B.B.B.B.B.B.B.B.B.B.B.B.B.B.B.B.B.B.B.B.B.B.B.B.B.B.B.B.B.B.B.B.B.B.B.B.B.B.B.B.B.B.B.B.B.B.B.B.B.B.B.B.B.B.B.B.B.B.B.B.B.B.B.B.B.B.B.B.B.B.B.B.B.B.B.B.B.B.B.B.B.B.B.B.B.B.B.B.B.B.B.B.B.B.B.B.B.B.B.B.B.B.B.B.B.B.B.B.B.B.B.B.B.B.B.B.B.B.B.B.B.B.B.B.B.B.B.B.B.B.B.B.B.B.B.B.B.B.B.B.B.B.B.B.B.B.B.B.B.B.B.B.B.B.B.B.B.B.B.B.B.B.B.B.B.B.B.B.B.B.B.B.B.B.B.B.B.B.B.B.B.B.B.B.B.B.B.B.B.B.B.B.B.B.B.B.B.B.B.B.B.B.B.B.B.B.B.B.B.B.B.B.B.B.B.B.B.B.B.B.B.B.B.B.B.B.B.B.B.B.B.B.B.B.B.B.B.B.B.B.B.B.B.B.B.B.B.B.B.B.B.B.B.B.B.B.B.B.B.B.B.B.B.B.B.B.B.B.B.B.B.B.B.B.B.B.B.B.B.B.B.B.B.B.B.B.B.B.B.B.B.B.B.B.B.B.B.B.B.B.B.B.B.B.B.B.B.B.B.B.B.B.B.B.B.B.B.B.B.B.B.B.B.B.B.B.B.B.B.B.B.B.B.B.B.B.B.B.B.B.B.B.B.B.B.B.B.B.B.B.B.B.B.B.B.B.B.B.B.B.B.B.B.B.B.B.B.B.B.B.B.B.B.B.B.B.B.B.B.B.B.B.B.B.B.B.B.B.B.B.B.B.B.B.B.B.B.B.B.B.B.B.B.B.B.B.B.B.B.B.B.B.B.B.B.B.B.B.B.B.B.B.B.B.B.B.B.B.B.B.B.B.B.B.B.B.B.B.B.B.B.B.B.B.B.B.B.B.B.B.B.B.B.B.",
"B.B.B.B.B.B.B.B.B.B.B.B.B.B.B.B.B.B.B.B.B.B.B.B.B.B.B.B.B.B.B.B.B.B.B.B.B.B.B.B.B.B.B.B.B.B.B.B.B.B.B.B.B.B.B.B.B.B.B.B.B.B.B.B.B.B.B.B.B.B.B.B.B.B.B.B.B.B.B.B.B.B.B.B.B.B.B.B.B.B.B.B.B.B.B.B.B.B.B.B.B.B.B.B.B.B.B.B.B.B.B.B.B.B.B.B.B.B.B.B.B.B.B.B.B.B.B.B.B.B.B.B.B.B.B.B.B.B.B.B.B.B.B.B.B.B.B.B.B.B.B.B.B.B.B.B.B.B.B.B.B.B.B.B.B.B.B.B.B.B.B.B.B.B.B.B.B.B.B.B.B.B.B.B.B.B.B.B.B.B.B.B.B.B.B.B.B.B.B.B.B.B.B.B.B.B.B.B.B.B.B.B.B.B.B.B.B.B.B.B.B.B.B.B.B.B.B.B.B.B.B.B.B.B.B.B.B.B.B.B.B.B.B.B.B.B.B.B.B.B.B.B.B.B.B.B.B.B.B.B.B.B.B.B.B.B.B.B.B.B.B.B.B.B.B.B.B.B.B.B.B.B.B.B.B.B.B.B.B.B.B.B.B.B.B.B.B.B.B.B.B.B.B.B.B.B.B.B.B.B.B.B.B.B.B.B.B.B.B.B.B.B.B.B.B.B.B.B.B.B.B.B.B.B.B.B.B.B.B.B.B.B.B.B.B.B.B.B.B.B.B.B.B.B.B.B.B.B.B.B.B.B.B.B.B.B.B.B.B.B.B.B.B.B.B.B.B.B.B.B.B.B.B.B.B.B.B.B.B.B.B.B.B.B.B.B.B.B.B.B.B.B.B.B.B.B.B.B.B.B.B.B.B.B.B.B.B.B.B.B.B.B.B.B.B.B.B.B.B.B.B.B.B.B.B.B.B.B.B.B.B.B.B.B.B.B.B.B.B.B.B.B.B.B.B.B.B.B.B.B.B.B.B.N.B.B.B.B.B.B.B.B.B.B.B.B.B.B.B.B.B.B.B.B.B.B.B.B.B.B.B.B.B.B.B.B.B.B.B.B.B.B.B.B.B.B.B.B.B.B.B.B.B.B.B.B.B.B.B.B.B.B.B.B.B.B.B.B.B.B.B.B.B.B.B.B.B.B.B.B.B.B.B.B.B.B.B.B.B.B.B.B.B.B.B.B.B.B.B.B.B.B.B.B.B.B.B.B.B.B.B.B.B.B.B.B.B.B.B.B.B.B.B.B.B.B.B.B.B.B.B.B.B.B.B.B.B.B.B.B.B.B.B.B.B.B.B.B.B.B.B.B.B.B.B.B.B.B.B.B.B.B.B.B.B.B.B.B.B.B.B.B.B.B.B.B.B.B.B.B.B.B.B.B.B.B.B.B.B.B.B.B.B.B.B.B.B.B.B.B.B.B.B.B.B.B.B.B.B.B.B.B.B.B.B.B.B.B.B.B.B.B.B.B.B.B.B.B.B.B.B.B.B.B.B.B.B.B.B.B.B.B.B.B.B.B.B.B.B.B.B.B.B.B.B.B.B.B.B.B.B.B.B.B.B.B.B.B.B.B.B.B.B.B.B.B.B.B.B.B.B.B.B.B.B.B.B.B.B.B.B.B.B.B.B.B.B.B.B.B.B.B.B.B.B.B.B.B.B.B.B.B.B.B.B.B.B.B.B.B.B.B.B.B.B.B.B.B.B.B.B.B.B.B.B.B.B.B.B.B.B.B.B.B.B.B.B.B.B.B.B.B.B.B.B.B.B.B.B.B.B.B.B.B.B.B.B.B.B.B.B.B.B.B.B.B.B.B.B.B.B.B.B.B.B.B.B.B.B.B.B.B.B.B.B.B.B.B.B.B.B.B.B.B.B.B.B.B.B.B.B.B.B.B.B.B.B.B.B.B.B.B.B.B.B.B.B.B.B.B.B.B.B.B.B.B.B.B.B.B.B.B.B.B.B.B.B.B.B.B.B.B.B.B.B.B.B.B.B.B.B.B.B.B.B.B.B.B.B.B.B.B.B.B.B.B.B.B.B.B.B.B.B.B.B.B.B.B.B.B.B.B.B.B.B.B.B.B.B.B.B.B.B.B.B.B.B.B.B.B.B.B.B.B.B.B.B.B.B.B.B.B.B.B.B.B.B.B.B.B.B.B.B.B.B.B.B.B.B.B."
};
